luts/rendering/neutral.cube
TITLE "Apple Log -> Rec.709 rendering rev4 (contrast=1.45 saturation=1.1 grey=0.381 peak=6.06 black=0.005 size=65)"
LUT_3D_SIZE 5
0.000302 0.000302 0.000302
0.180062 0.030819 0.023404
0.532425 0.094617 0.072010
0.956558 0.205099 0.207526
0.978805 0.373452 0.347988
0.019237 0.082426 0.017451
0.071740 0.064813 0.017705
0.502886 0.121751 0.067357
0.956339 0.216011 0.203975
0.978842 0.374838 0.348126
0.106584 0.429983 0.096816
0.104018 0.420128 0.094483
0.419615 0.406403 0.106475
0.956184 0.258124 0.195724
0.978937 0.378403 0.348521
0.230862 0.928092 0.217142
0.230621 0.927145 0.216505
0.230025 0.924803 0.214943
0.877663 0.861693 0.281042
0.980066 0.417579 0.355721
0.774073 0.989870 0.777103
0.774034 0.989867 0.776943
0.773937 0.989861 0.776553
0.773182 0.989813 0.773579
0.992720 0.992864 0.990687
0.003139 0.016392 0.070251
0.168325 0.031072 0.110038
0.529067 0.093512 0.155282
0.956634 0.204438 0.230271
0.978821 0.373470 0.350328
0.018849 0.083163 0.070561
0.061040 0.061033 0.061026
0.515618 0.094385 0.124308
0.956409 0.215347 0.226773
0.978857 0.374856 0.350462
0.103214 0.429803 0.123098
0.100865 0.419895 0.118644
0.415733 0.405575 0.106229
0.956239 0.257491 0.218570
0.978952 0.378420 0.350848
0.231096 0.928018 0.232756
0.230854 0.927071 0.232081
0.230255 0.924728 0.230423
0.877390 0.862077 0.286307
0.980080 0.417590 0.357943
0.773059 0.989968 0.779972
0.773021 0.989965 0.779810
0.772927 0.989959 0.779416
0.772190 0.989910 0.776405
0.992819 0.992957 0.990840
0.017290 0.086764 0.366737
0.191838 0.064448 0.406452
0.521495 0.098935 0.420579
0.957025 0.202908 0.306270
0.978860 0.373525 0.356313
0.035944 0.149284 0.406919
0.083251 0.087898 0.475822
0.501489 0.098737 0.422441
0.956787 0.213782 0.303159
0.978897 0.374910 0.356437
0.114459 0.431581 0.406566
0.112151 0.422281 0.404147
0.405545 0.405521 0.405496
0.956576 0.255942 0.295711
0.978992 0.378471 0.356799
0.232170 0.927831 0.294479
0.231925 0.926882 0.293739
0.231319 0.924536 0.291916
0.877548 0.863007 0.313779
0.980116 0.417625 0.363639
0.770467 0.990210 0.787401
0.770429 0.990207 0.787236
0.770338 0.990200 0.786835
0.769627 0.990150 0.783764
0.993071 0.993192 0.991227
0.082636 0.165306 0.909687
0.142977 0.161271 0.910376
0.344637 0.153775 0.911946
0.952169 0.184006 0.790961
0.979311 0.374778 0.418594
0.063268 0.201001 0.911269
0.123605 0.196291 0.911689
0.314225 0.184374 0.915694
0.953531 0.188750 0.796520
0.979346 0.376151 0.418674
0.094562 0.344849 0.882585
0.095158 0.332261 0.905743
0.236046 0.311310 0.920206
0.954439 0.223680 0.809270
0.979439 0.379683 0.418917
0.237400 0.892440 0.849569
0.236962 0.891125 0.850014
0.235984 0.887855 0.851096
0.842773 0.842738 0.842703
0.980541 0.418626 0.424150
0.751713 0.991484 0.856237
0.751657 0.991483 0.856105
0.751520 0.991481 0.855781
0.750476 0.991467 0.853285
0.995780 0.995802 0.995112
0.164369 0.300015 0.952119
0.171280 0.299731 0.952207
0.189041 0.299109 0.952459
0.395298 0.302223 0.957467
0.980883 0.386101 0.837184
0.163810 0.304186 0.952372
0.170565 0.303878 0.952455
0.187936 0.303195 0.952693
0.391527 0.305625 0.957540
0.980904 0.387229 0.837808
0.163171 0.315148 0.953058
0.169532 0.314778 0.953128
0.185921 0.313939 0.953331
0.382309 0.314632 0.957767
0.980960 0.390146 0.839353
0.201422 0.446160 0.962177
0.204501 0.445378 0.962165
0.212702 0.443489 0.962151
0.329391 0.431587 0.963371
0.981724 0.423603 0.852434
0.764212 0.968441 0.959329
0.763829 0.968431 0.959326
0.762890 0.968406 0.959317
0.755551 0.968216 0.959278
0.999986 0.999986 0.999986
