luts/rendering/neutral.cube
TITLE "Apple Log -> Rec.709 rendering rev4 (contrast=1.45 saturation=1.1 grey=0.381 peak=6.06 black=0.005 size=65)"
LUT_3D_SIZE 9
0.000302 0.000302 0.000302
0.085161 0.014258 0.010814
0.180062 0.030819 0.023404
0.317197 0.055382 0.042105
0.532425 0.094617 0.072010
0.779901 0.138843 0.138712
0.956558 0.205099 0.207526
0.973902 0.327603 0.306882
0.978805 0.373452 0.347988
0.000898 0.003264 0.000818
0.000302 0.000302 0.000302
0.107037 0.018029 0.013679
0.272361 0.050707 0.035788
0.511366 0.103017 0.069085
0.781282 0.144091 0.124819
0.956400 0.212361 0.205063
0.973950 0.330133 0.306799
0.978831 0.374407 0.348082
0.019237 0.082426 0.017451
0.014475 0.062455 0.013129
0.071740 0.064813 0.017705
0.253298 0.095413 0.032880
0.502886 0.121751 0.067357
0.783030 0.147640 0.116528
0.956339 0.216011 0.203975
0.973973 0.331307 0.306773
0.978842 0.374838 0.348126
0.052056 0.216009 0.047256
0.048809 0.202981 0.044307
0.052088 0.197090 0.042758
0.208389 0.198830 0.052515
0.483133 0.215214 0.073321
0.774973 0.182188 0.114266
0.956232 0.224723 0.201698
0.974025 0.333894 0.306745
0.978867 0.375761 0.348223
0.106584 0.429983 0.096816
0.104815 0.423191 0.095207
0.104018 0.420128 0.094483
0.121990 0.413898 0.092075
0.419615 0.406403 0.106475
0.748926 0.347635 0.127401
0.956184 0.258124 0.195724
0.974195 0.341865 0.306871
0.978937 0.378403 0.348521
0.173567 0.697269 0.157675
0.172924 0.694672 0.157091
0.172636 0.693509 0.156829
0.172022 0.691034 0.156272
0.211733 0.684390 0.155689
0.673477 0.655519 0.171317
0.959690 0.448061 0.181598
0.974964 0.372616 0.309521
0.979160 0.386512 0.349618
0.230862 0.928092 0.217142
0.230695 0.927437 0.216701
0.230621 0.927145 0.216505
0.230463 0.926526 0.216090
0.230025 0.924803 0.214943
0.285686 0.920824 0.210084
0.877663 0.861693 0.281042
0.981247 0.558113 0.355418
0.980066 0.417579 0.355721
0.596205 0.988507 0.573722
0.595833 0.988502 0.573245
0.595667 0.988499 0.573033
0.595317 0.988494 0.572585
0.594346 0.988480 0.571346
0.591630 0.988439 0.567905
0.630402 0.986926 0.550563
0.948064 0.953356 0.841721
0.986494 0.604941 0.424556
0.774073 0.989870 0.777103
0.774046 0.989868 0.776992
0.774034 0.989867 0.776943
0.774008 0.989866 0.776839
0.773937 0.989861 0.776553
0.773740 0.989848 0.775763
0.773182 0.989813 0.773579
0.836085 0.981596 0.750231
0.992720 0.992864 0.990687
0.000246 0.000702 0.002230
0.074075 0.012176 0.017135
0.172131 0.029002 0.038530
0.312322 0.053757 0.069443
0.530021 0.093856 0.118416
0.779059 0.138399 0.171981
0.956607 0.204641 0.222873
0.973930 0.327581 0.311584
0.978816 0.373464 0.349601
0.000725 0.002448 0.000661
0.000302 0.000302 0.000302
0.096612 0.016227 0.012310
0.267656 0.046234 0.048194
0.514453 0.092009 0.101359
0.780364 0.143602 0.159893
0.956446 0.211901 0.220434
0.973978 0.330110 0.311490
0.978841 0.374419 0.349693
0.018925 0.081127 0.017169
0.014152 0.061092 0.012837
0.061579 0.059653 0.015767
0.250681 0.089559 0.032947
0.516763 0.095361 0.082482
0.782077 0.147128 0.152991
0.956384 0.215552 0.219355
0.974001 0.331284 0.311459
0.978853 0.374850 0.349736
0.051755 0.215170 0.047823
0.048588 0.202094 0.044106
0.048553 0.196138 0.042695
0.201667 0.196420 0.051332
0.490715 0.206408 0.076203
0.789315 0.159347 0.132357
0.956275 0.224266 0.217095
0.974052 0.333869 0.311420
0.978877 0.375773 0.349832
0.105778 0.429635 0.102041
0.104139 0.422815 0.099420
0.103400 0.419739 0.098250
0.115571 0.413801 0.092429
0.416005 0.405665 0.106053
0.759259 0.339619 0.135248
0.956218 0.257687 0.211131
0.974222 0.341836 0.311511
0.978948 0.378414 0.350125
0.173719 0.697088 0.170082
0.173064 0.694490 0.168833
0.172771 0.693326 0.168277
0.172147 0.690849 0.167096
0.203059 0.685210 0.157700
0.672203 0.655640 0.172065
0.959698 0.447914 0.196652
0.974989 0.372581 0.314026
0.979170 0.386522 0.351207
0.231016 0.928041 0.227543
0.230849 0.927386 0.227084
0.230774 0.927094 0.226880
0.230616 0.926474 0.226448
0.230176 0.924752 0.225251
0.277600 0.921916 0.212432
0.877458 0.861958 0.284488
0.981268 0.558147 0.359082
0.980076 0.417586 0.357253
0.595795 0.988520 0.576815
0.595427 0.988514 0.576329
0.595264 0.988512 0.576113
0.594917 0.988506 0.575656
0.593957 0.988491 0.574393
0.591270 0.988449 0.570884
0.629729 0.986949 0.553449
0.948200 0.953418 0.842660
0.986502 0.604973 0.425754
0.773375 0.989938 0.779078
0.773348 0.989936 0.778966
0.773336 0.989935 0.778916
0.773311 0.989933 0.778812
0.773241 0.989929 0.778523
0.773048 0.989916 0.777727
0.772499 0.989880 0.775523
0.835196 0.981812 0.751336
0.992789 0.992928 0.990793
0.003139 0.016392 0.070251
0.077367 0.015820 0.080346
0.168325 0.031072 0.110038
0.309741 0.054596 0.135731
0.529067 0.093512 0.155282
0.778712 0.138197 0.189971
0.956634 0.204438 0.230271
0.973943 0.327574 0.313750
0.978821 0.373470 0.350328
0.003894 0.017883 0.062922
0.002394 0.012519 0.053686
0.093276 0.018014 0.075283
0.264639 0.046443 0.115226
0.513251 0.091471 0.139080
0.779976 0.143374 0.178609
0.956472 0.211697 0.227846
0.973991 0.330102 0.313651
0.978846 0.374425 0.350419
0.018849 0.083163 0.070561
0.016252 0.064880 0.061100
0.061040 0.061033 0.061026
0.275582 0.055356 0.090266
0.515618 0.094385 0.124308
0.781671 0.146887 0.172231
0.956409 0.215347 0.226773
0.974014 0.331275 0.313618
0.978857 0.374856 0.350462
0.046682 0.215501 0.097913
0.043606 0.202392 0.092404
0.042233 0.196424 0.089798
0.202694 0.196153 0.054283
0.509245 0.190075 0.084652
0.788871 0.159076 0.153640
0.956299 0.224061 0.224523
0.974065 0.333860 0.313574
0.978882 0.375779 0.350556
0.103214 0.429803 0.123098
0.101594 0.422974 0.120022
0.100865 0.419895 0.118644
0.101889 0.415321 0.104854
0.415733 0.405575 0.106229
0.765974 0.334433 0.140962
0.956239 0.257491 0.218570
0.974235 0.341826 0.313649
0.978952 0.378420 0.350848
0.173887 0.697003 0.181445
0.173231 0.694404 0.180129
0.172937 0.693240 0.179542
0.172312 0.690763 0.178297
0.193664 0.686439 0.160405
0.672136 0.655783 0.172368
0.959707 0.447847 0.203957
0.975001 0.372567 0.316105
0.979174 0.386527 0.351923
0.231096 0.928018 0.232756
0.230929 0.927363 0.232289
0.230854 0.927071 0.232081
0.230695 0.926451 0.231641
0.230255 0.924728 0.230423
0.273403 0.922487 0.213678
0.877390 0.862077 0.286307
0.981278 0.558163 0.360782
0.980080 0.417590 0.357943
0.595577 0.988528 0.578325
0.595210 0.988522 0.577835
0.595047 0.988519 0.577617
0.594702 0.988514 0.577157
0.593747 0.988498 0.575884
0.591071 0.988455 0.572347
0.629390 0.986962 0.554880
0.948267 0.953445 0.843093
0.986505 0.604987 0.426296
0.773059 0.989968 0.779972
0.773033 0.989966 0.779860
0.773021 0.989965 0.779810
0.772996 0.989964 0.779705
0.772927 0.989959 0.779416
0.772734 0.989946 0.778617
0.772190 0.989910 0.776405
0.834788 0.981911 0.751844
0.992819 0.992957 0.990840
0.008461 0.043357 0.184619
0.104327 0.031632 0.203573
0.179324 0.038684 0.207510
0.306348 0.057594 0.232861
0.527323 0.093690 0.253519
0.778063 0.137816 0.237773
0.956705 0.204011 0.247256
0.973972 0.327562 0.318488
0.978831 0.373483 0.351882
0.009962 0.047498 0.196240
0.008466 0.030690 0.199324
0.121030 0.032324 0.194908
0.261021 0.050196 0.215862
0.509904 0.092909 0.244237
0.779219 0.142917 0.228086
0.956541 0.211266 0.244868
0.974020 0.330089 0.318379
0.978856 0.374438 0.351972
0.026408 0.120779 0.195924
0.022630 0.105249 0.193739
0.081009 0.076835 0.259885
0.264486 0.057792 0.226099
0.511678 0.095155 0.238480
0.780862 0.146390 0.222818
0.956476 0.214916 0.243810
0.974042 0.331261 0.318342
0.978867 0.374869 0.352014
0.056333 0.219861 0.202376
0.054061 0.208027 0.197658
0.053018 0.202711 0.195538
0.198575 0.198559 0.198543
0.535755 0.159116 0.207770
0.787947 0.158484 0.208122
0.956363 0.223630 0.241589
0.974094 0.333845 0.318288
0.978892 0.375791 0.352107
0.101416 0.429903 0.224217
0.099565 0.423097 0.221585
0.098733 0.420027 0.220399
0.098532 0.415044 0.214388
0.420032 0.406623 0.140380
0.786157 0.318348 0.164720
0.956295 0.257076 0.235681
0.974263 0.341807 0.318331
0.978963 0.378432 0.352393
0.174482 0.696821 0.216494
0.173821 0.694220 0.215046
0.173525 0.693055 0.214400
0.172896 0.690575 0.213026
0.178455 0.688166 0.186851
0.672638 0.656220 0.176526
0.959736 0.447701 0.220856
0.975028 0.372541 0.320662
0.979184 0.386538 0.353454
0.231295 0.927969 0.245225
0.231127 0.927314 0.244740
0.231052 0.927021 0.244525
0.230893 0.926402 0.244069
0.230451 0.924678 0.242806
0.262890 0.923920 0.216857
0.877304 0.862327 0.290923
0.981301 0.558199 0.364530
0.980089 0.417598 0.359420
0.595045 0.988547 0.581784
0.594682 0.988541 0.581286
0.594520 0.988538 0.581065
0.594178 0.988532 0.580598
0.593231 0.988516 0.579306
0.590580 0.988472 0.575715
0.628596 0.986995 0.558195
0.948421 0.953501 0.844042
0.986513 0.605017 0.427457
0.772384 0.990032 0.781893
0.772358 0.990031 0.781780
0.772346 0.990030 0.781730
0.772321 0.990028 0.781625
0.772253 0.990023 0.781333
0.772063 0.990010 0.780529
0.771525 0.989973 0.778302
0.833900 0.982126 0.752952
0.992885 0.993018 0.990942
0.017290 0.086764 0.366737
0.098788 0.060582 0.406203
0.191838 0.064448 0.406452
0.313056 0.073297 0.410107
0.521495 0.098935 0.420579
0.776456 0.138292 0.385235
0.957025 0.202908 0.306270
0.974063 0.327567 0.332808
0.978860 0.373525 0.356313
0.019905 0.094998 0.404115
0.041162 0.068888 0.427268
0.120224 0.066297 0.423934
0.277100 0.072128 0.413356
0.502677 0.096888 0.418051
0.777796 0.141766 0.382440
0.956854 0.210140 0.304116
0.974111 0.330089 0.332675
0.978885 0.374479 0.356397
0.035944 0.149284 0.406919
0.031487 0.132317 0.404827
0.083251 0.087898 0.475822
0.267216 0.081989 0.443434
0.501489 0.098737 0.422441
0.779758 0.143969 0.380970
0.956787 0.213782 0.303159
0.974133 0.331260 0.332626
0.978897 0.374910 0.356437
0.064421 0.253983 0.405318
0.061351 0.243830 0.404085
0.060861 0.239066 0.407437
0.203607 0.214356 0.476570
0.520468 0.150448 0.448224
0.786842 0.154419 0.377078
0.956667 0.222484 0.301142
0.974184 0.333839 0.332546
0.978921 0.375832 0.356525
0.114459 0.431581 0.406566
0.112864 0.425164 0.404898
0.112151 0.422281 0.404147
0.110893 0.416700 0.403046
0.405545 0.405521 0.405496
0.792160 0.309330 0.358611
0.956576 0.255942 0.295711
0.974352 0.341790 0.332509
0.978992 0.378471 0.356799
0.178141 0.696382 0.381195
0.177495 0.693776 0.380453
0.177205 0.692609 0.380120
0.176589 0.690126 0.379412
0.182612 0.686450 0.370939
0.674535 0.657925 0.304035
0.959933 0.447263 0.281364
0.975112 0.372500 0.334509
0.979213 0.386574 0.357821
0.232170 0.927831 0.294479
0.232000 0.927175 0.293967
0.231925 0.926882 0.293739
0.231764 0.926262 0.293256
0.231319 0.924536 0.291916
0.244565 0.926041 0.257841
0.877548 0.863007 0.313779
0.981372 0.558317 0.376081
0.980116 0.417625 0.363639
0.593107 0.988621 0.593281
0.592752 0.988615 0.592767
0.592594 0.988612 0.592538
0.592260 0.988605 0.592055
0.591333 0.988588 0.590718
0.588741 0.988540 0.587000
0.625904 0.987118 0.569442
0.948927 0.953657 0.846952
0.986536 0.605103 0.430786
0.770467 0.990210 0.787401
0.770441 0.990208 0.787287
0.770429 0.990207 0.787236
0.770405 0.990205 0.787129
0.770338 0.990200 0.786835
0.770152 0.990187 0.786021
0.769627 0.990150 0.783764
0.831276 0.982758 0.756254
0.993071 0.993192 0.991227
0.000000 0.107693 0.669757
0.108061 0.105973 0.667334
0.151867 0.105856 0.666144
0.271939 0.106790 0.665760
0.482239 0.116533 0.665439
0.764062 0.145464 0.630087
0.960656 0.197496 0.485752
0.974431 0.328057 0.384447
0.978951 0.373692 0.369743
0.034022 0.156001 0.657469
0.077916 0.120915 0.703608
0.117883 0.119145 0.701715
0.231850 0.118918 0.694283
0.467388 0.122367 0.681562
0.763175 0.147567 0.635868
0.959942 0.205544 0.485816
0.974477 0.330561 0.384294
0.978976 0.374644 0.369816
0.043764 0.180355 0.658181
0.060268 0.135210 0.726189
0.102021 0.132191 0.724266
0.210418 0.129442 0.715189
0.461778 0.127538 0.693973
0.763656 0.149334 0.639212
0.959475 0.209780 0.485872
0.974499 0.331723 0.384235
0.978988 0.375074 0.369850
0.070013 0.255154 0.658841
0.067550 0.244693 0.662353
0.067948 0.224209 0.712533
0.158577 0.193667 0.755481
0.450263 0.160690 0.732881
0.767142 0.157656 0.648430
0.958151 0.220206 0.486061
0.974549 0.334285 0.384128
0.979012 0.375994 0.369927
0.116267 0.420281 0.664504
0.114780 0.414623 0.663771
0.114112 0.412084 0.663443
0.117913 0.406562 0.672846
0.360474 0.384065 0.720018
0.770218 0.299799 0.670868
0.957802 0.253684 0.486507
0.974712 0.342189 0.383987
0.979082 0.378629 0.370167
0.182022 0.684794 0.650089
0.181355 0.682059 0.650006
0.181056 0.680834 0.649967
0.180421 0.678229 0.649878
0.182524 0.672254 0.650792
0.647715 0.647678 0.647642
0.961009 0.445985 0.489359
0.975459 0.372780 0.385370
0.979302 0.386720 0.371085
0.237297 0.927293 0.514004
0.237094 0.926644 0.513920
0.237005 0.926354 0.513885
0.236819 0.925739 0.513817
0.236330 0.924023 0.513664
0.247005 0.924130 0.503903
0.875026 0.863140 0.528908
0.981671 0.558880 0.420626
0.980201 0.417745 0.376497
0.584342 0.988937 0.642919
0.584000 0.988929 0.642389
0.583848 0.988926 0.642154
0.583526 0.988919 0.641655
0.582635 0.988899 0.640277
0.580143 0.988844 0.636437
0.614534 0.987650 0.620239
0.951020 0.954234 0.858577
0.986606 0.605372 0.441075
0.764945 0.990678 0.803964
0.764918 0.990676 0.803850
0.764907 0.990676 0.803800
0.764882 0.990674 0.803693
0.764814 0.990670 0.803398
0.764625 0.990657 0.802584
0.764094 0.990623 0.800319
0.823178 0.984573 0.767949
0.993632 0.993721 0.992075
0.082636 0.165306 0.909687
0.124285 0.162525 0.910114
0.142977 0.161271 0.910376
0.185872 0.158564 0.911138
0.344637 0.153775 0.911946
0.635639 0.162088 0.900249
0.952169 0.184006 0.790961
0.975803 0.333581 0.547270
0.979311 0.374778 0.418594
0.069222 0.189133 0.910700
0.111242 0.186053 0.911007
0.129344 0.184678 0.911203
0.169948 0.181746 0.911791
0.324009 0.173226 0.915580
0.629236 0.167511 0.909851
0.952907 0.187394 0.794649
0.975851 0.336025 0.547681
0.979335 0.375724 0.418648
0.063268 0.201001 0.911269
0.105710 0.197741 0.911522
0.123605 0.196291 0.911689
0.163313 0.193212 0.912202
0.314225 0.184374 0.915694
0.626529 0.170610 0.914938
0.953531 0.188750 0.796520
0.975873 0.337160 0.547870
0.979346 0.376151 0.418674
0.058631 0.236611 0.897407
0.094589 0.225637 0.912904
0.112142 0.223977 0.913010
0.150168 0.220479 0.913368
0.292561 0.210693 0.916165
0.620460 0.181238 0.925921
0.955208 0.192076 0.800788
0.975925 0.339663 0.548285
0.979370 0.377065 0.418732
0.094562 0.344849 0.882585
0.094081 0.338584 0.889771
0.095158 0.332261 0.905743
0.119455 0.323964 0.919232
0.236046 0.311310 0.920206
0.591543 0.272036 0.928011
0.954439 0.223680 0.809270
0.976092 0.347393 0.549546
0.979439 0.379683 0.418917
0.156111 0.565209 0.893147
0.155417 0.562559 0.892908
0.155107 0.561376 0.892801
0.154450 0.558871 0.892573
0.161053 0.551802 0.907827
0.496494 0.528888 0.937238
0.953989 0.417725 0.836550
0.976838 0.377441 0.554333
0.979655 0.387726 0.419645
0.237400 0.892440 0.849569
0.237095 0.891531 0.849877
0.236962 0.891125 0.850014
0.236689 0.890263 0.850303
0.235984 0.887855 0.851096
0.240371 0.883050 0.855103
0.842773 0.842738 0.842703
0.982988 0.563172 0.589555
0.980541 0.418626 0.424150
0.582829 0.987662 0.820275
0.582454 0.987654 0.820045
0.582287 0.987651 0.819943
0.581934 0.987644 0.819727
0.580957 0.987624 0.819128
0.578229 0.987567 0.817460
0.601086 0.986747 0.816661
0.960880 0.960612 0.919366
0.986890 0.606502 0.481066
0.751713 0.991484 0.856237
0.751674 0.991483 0.856146
0.751657 0.991483 0.856105
0.751621 0.991483 0.856019
0.751520 0.991481 0.855781
0.751244 0.991478 0.855123
0.750476 0.991467 0.853285
0.799428 0.988469 0.821765
0.995780 0.995802 0.995112
0.136211 0.261204 0.942193
0.150137 0.260543 0.942363
0.156495 0.260262 0.942448
0.170362 0.259698 0.942651
0.212787 0.258414 0.943404
0.378176 0.259309 0.947911
0.694166 0.275342 0.959369
0.975706 0.330585 0.825376
0.980635 0.382816 0.573759
0.134156 0.269131 0.942662
0.147630 0.268395 0.942814
0.153783 0.268080 0.942890
0.167197 0.267443 0.943072
0.208190 0.265939 0.943756
0.370719 0.265992 0.948025
0.690522 0.280494 0.959456
0.975717 0.332594 0.826544
0.980660 0.383745 0.573981
0.133403 0.272853 0.942888
0.146668 0.272082 0.943032
0.152726 0.271752 0.943104
0.165934 0.271080 0.943277
0.206286 0.269475 0.943931
0.367380 0.269142 0.948088
0.688902 0.282922 0.959501
0.975723 0.333533 0.827068
0.980672 0.384165 0.574080
0.132165 0.281156 0.943405
0.144969 0.280306 0.943531
0.150819 0.279940 0.943595
0.163579 0.279193 0.943749
0.202560 0.277364 0.944340
0.360282 0.276192 0.948251
0.685481 0.288356 0.959611
0.975738 0.335616 0.828186
0.980696 0.385063 0.574294
0.131581 0.307614 0.945142
0.142954 0.306511 0.945218
0.148173 0.306032 0.945259
0.159590 0.305044 0.945360
0.194619 0.302521 0.945778
0.340480 0.298826 0.948945
0.676089 0.305810 0.960044
0.975801 0.342145 0.831353
0.980766 0.387635 0.574901
0.157240 0.412089 0.952714
0.162310 0.410509 0.952661
0.165545 0.409821 0.952652
0.172755 0.408372 0.952640
0.195743 0.404433 0.952679
0.298101 0.394767 0.953864
0.651658 0.382200 0.962859
0.976223 0.368584 0.840915
0.980984 0.395541 0.576738
0.273102 0.650625 0.970622
0.272555 0.649602 0.970545
0.272311 0.649148 0.970511
0.271796 0.648186 0.970438
0.270375 0.645525 0.970238
0.293236 0.638705 0.970072
0.593762 0.630171 0.975120
0.981379 0.545304 0.877590
0.981864 0.425972 0.583624
0.537240 0.967320 0.944064
0.536176 0.967272 0.944150
0.535702 0.967251 0.944188
0.534698 0.967206 0.944270
0.531910 0.967079 0.944501
0.524058 0.966714 0.945183
0.527484 0.963708 0.946584
0.951887 0.951881 0.951876
0.988101 0.613575 0.634270
0.793461 0.985915 0.947167
0.793413 0.985915 0.947152
0.793392 0.985916 0.947145
0.793347 0.985916 0.947131
0.793223 0.985917 0.947092
0.792880 0.985920 0.946985
0.791926 0.985928 0.946684
0.822725 0.983407 0.944818
1.000000 1.000000 1.000000
0.164369 0.300015 0.952119
0.169133 0.299816 0.952179
0.171280 0.299731 0.952207
0.175877 0.299555 0.952269
0.189041 0.299109 0.952459
0.230059 0.298268 0.953168
0.395298 0.302223 0.957467
0.713990 0.332257 0.968560
0.980883 0.386101 0.837184
0.163964 0.302884 0.952293
0.168654 0.302674 0.952351
0.170767 0.302583 0.952377
0.175294 0.302396 0.952437
0.188260 0.301920 0.952619
0.228670 0.300983 0.953304
0.392688 0.304561 0.957516
0.712728 0.333984 0.968596
0.980897 0.386878 0.837616
0.163810 0.304186 0.952372
0.168466 0.303971 0.952429
0.170565 0.303878 0.952455
0.175060 0.303686 0.952514
0.187936 0.303195 0.952693
0.228076 0.302216 0.953366
0.391527 0.305625 0.957540
0.712168 0.334770 0.968613
0.980904 0.387229 0.837808
0.163537 0.306993 0.952545
0.168122 0.306767 0.952600
0.170188 0.306668 0.952625
0.174616 0.306466 0.952681
0.187303 0.305946 0.952853
0.226868 0.304875 0.953504
0.389074 0.307922 0.957593
0.710987 0.336467 0.968650
0.980918 0.387982 0.838217
0.163171 0.315148 0.953058
0.167555 0.314890 0.953105
0.169532 0.314778 0.953128
0.173769 0.314545 0.953177
0.185921 0.313939 0.953331
0.223885 0.312608 0.953918
0.382309 0.314632 0.957767
0.707741 0.341429 0.968766
0.980960 0.390146 0.839353
0.165486 0.341323 0.954776
0.169271 0.340964 0.954806
0.170981 0.340806 0.954820
0.174655 0.340478 0.954851
0.185237 0.339603 0.954953
0.218596 0.337484 0.955368
0.363786 0.336456 0.958487
0.698912 0.357609 0.969211
0.981096 0.396872 0.842580
0.201422 0.446160 0.962177
0.203537 0.445618 0.962169
0.204501 0.445378 0.962165
0.206586 0.444872 0.962160
0.212702 0.443489 0.962151
0.232846 0.439782 0.962197
0.329391 0.431587 0.963371
0.677283 0.431170 0.971997
0.981724 0.423603 0.852434
0.352350 0.688161 0.979368
0.352082 0.687791 0.979343
0.351963 0.687626 0.979332
0.351712 0.687278 0.979308
0.351020 0.686318 0.979243
0.349111 0.683662 0.979063
0.366965 0.677215 0.978927
0.640605 0.676483 0.983563
0.987275 0.600793 0.892086
0.764212 0.968441 0.959329
0.763947 0.968434 0.959327
0.763829 0.968431 0.959326
0.763579 0.968424 0.959323
0.762890 0.968406 0.959317
0.760972 0.968356 0.959302
0.755551 0.968216 0.959278
0.757024 0.966603 0.959767
0.999986 0.999986 0.999986
