luts/rendering/neutral.cube
TITLE "Apple Log -> Rec.709 rendering rev4 (contrast=1.45 saturation=1.1 grey=0.381 peak=6.06 black=0.005 size=65)"
LUT_3D_SIZE 65
0.000302 0.000302 0.000302
0.000302 0.000302 0.000302
0.000302 0.000302 0.000302
0.000302 0.000302 0.000302
0.008444 0.001528 0.001164
0.029412 0.004899 0.003715
0.050008 0.008302 0.006294
0.068587 0.011431 0.008668
0.085161 0.014258 0.010814
0.100016 0.016815 0.012756
0.113442 0.019140 0.014523
0.125678 0.021269 0.016141
0.136916 0.023231 0.017633
0.147310 0.025052 0.019017
0.157319 0.026810 0.020354
0.168185 0.028723 0.021809
0.180062 0.030819 0.023404
0.193005 0.033109 0.025146
0.207065 0.035604 0.027044
0.222291 0.038313 0.029106
0.238728 0.041246 0.031339
0.256412 0.044413 0.033750
0.275373 0.047820 0.036344
0.295632 0.051475 0.039128
0.317197 0.055382 0.042105
0.340061 0.059544 0.045277
0.364202 0.063962 0.048644
0.389578 0.068631 0.052206
0.416127 0.073547 0.055955
0.443762 0.078697 0.059886
0.472397 0.084031 0.063957
0.502051 0.089261 0.067935
0.532425 0.094617 0.072010
0.563350 0.100066 0.076555
0.594648 0.105551 0.085538
0.626102 0.111062 0.094672
0.657497 0.116560 0.103890
0.688620 0.122009 0.113122
0.719258 0.127372 0.122294
0.749755 0.132998 0.130829
0.779901 0.138843 0.138712
0.809001 0.144506 0.146377
0.836902 0.149955 0.153773
0.863478 0.155160 0.160857
0.888632 0.160101 0.167595
0.912297 0.164760 0.173960
0.934435 0.169127 0.179937
0.951991 0.178418 0.188528
0.956558 0.205099 0.207526
0.960293 0.228107 0.224787
0.963379 0.248185 0.240439
0.965948 0.265823 0.254602
0.968103 0.281377 0.267389
0.969921 0.295124 0.278910
0.971464 0.307289 0.289267
0.972778 0.318062 0.298559
0.973902 0.327603 0.306882
0.974867 0.336054 0.314323
0.975698 0.343539 0.320966
0.976415 0.350165 0.326888
0.977036 0.356029 0.332160
0.977575 0.361218 0.336848
0.978043 0.365808 0.341013
0.978450 0.369866 0.344710
0.978805 0.373452 0.347988
0.000302 0.000302 0.000302
0.000302 0.000302 0.000302
0.000302 0.000302 0.000302
0.000302 0.000302 0.000302
0.000302 0.000302 0.000302
0.000871 0.000442 0.000386
0.016399 0.002795 0.002122
0.034775 0.005778 0.004380
0.052416 0.008705 0.006599
0.068623 0.011437 0.008672
0.083383 0.013954 0.010583
0.096850 0.016268 0.012341
0.109200 0.018404 0.013964
0.120590 0.020382 0.015467
0.131524 0.022289 0.016917
0.143353 0.024358 0.018490
0.156233 0.026619 0.020209
0.170210 0.029080 0.022081
0.185328 0.031750 0.024112
0.201629 0.034638 0.026310
0.219149 0.037753 0.028680
0.237921 0.041102 0.031229
0.257969 0.044692 0.033962
0.279308 0.048529 0.036884
0.301943 0.052616 0.039998
0.325863 0.056957 0.043305
0.351042 0.061551 0.046806
0.377435 0.066393 0.050499
0.404975 0.071478 0.054377
0.433574 0.076794 0.058434
0.463118 0.082326 0.062656
0.493628 0.087776 0.066805
0.524855 0.093282 0.070994
0.556585 0.098877 0.075250
0.588637 0.104507 0.082511
0.620801 0.110142 0.091873
0.653388 0.116134 0.100749
0.686059 0.122361 0.109252
0.718200 0.128504 0.117735
0.749600 0.134521 0.126125
0.780064 0.140370 0.134354
0.809418 0.146017 0.142358
0.837515 0.151431 0.150083
0.864236 0.156587 0.157484
0.889492 0.161467 0.164522
0.913221 0.166056 0.171171
0.935391 0.170348 0.177413
0.951887 0.181317 0.187367
0.956499 0.207525 0.206654
0.960264 0.230191 0.224137
0.963369 0.250002 0.239961
0.965950 0.267421 0.254257
0.968112 0.282789 0.267145
0.969935 0.296376 0.278742
0.971479 0.308400 0.289158
0.972794 0.319049 0.298494
0.973918 0.328480 0.306849
0.974883 0.336834 0.314313
0.975713 0.344230 0.320972
0.976430 0.350779 0.326905
0.977050 0.356574 0.332185
0.977587 0.361701 0.336878
0.978054 0.366236 0.341045
0.978460 0.370244 0.344743
0.978814 0.373787 0.348020
0.000302 0.000302 0.000302
0.000302 0.000302 0.000302
0.000302 0.000302 0.000302
0.000302 0.000302 0.000302
0.000302 0.000302 0.000302
0.000302 0.000302 0.000302
0.004777 0.000956 0.000733
0.020883 0.003516 0.002667
0.038264 0.006352 0.004816
0.054809 0.009106 0.006904
0.070077 0.011684 0.008860
0.084074 0.014072 0.010673
0.096927 0.016282 0.012351
0.108779 0.018331 0.013908
0.120146 0.020305 0.015409
0.132429 0.022447 0.017037
0.145780 0.024784 0.018813
0.160241 0.027324 0.020745
0.175853 0.030076 0.022838
0.192651 0.033047 0.025098
0.210670 0.036244 0.027532
0.229937 0.039676 0.030144
0.250476 0.043349 0.032940
0.272299 0.047267 0.035923
0.295409 0.051434 0.039098
0.319796 0.055854 0.042465
0.345431 0.060525 0.046024
0.372267 0.065443 0.049774
0.400238 0.070601 0.053708
0.429253 0.075989 0.057819
0.459197 0.081589 0.062094
0.490067 0.087148 0.066328
0.521659 0.092718 0.070565
0.553734 0.098374 0.074868
0.586361 0.104247 0.080945
0.619690 0.110551 0.089442
0.652907 0.116848 0.098072
0.685785 0.123094 0.106758
0.718101 0.129245 0.115423
0.749645 0.135258 0.123991
0.780226 0.141096 0.132393
0.809671 0.146723 0.140565
0.837837 0.152111 0.148449
0.864608 0.157236 0.155999
0.889896 0.162081 0.163178
0.913643 0.166633 0.169958
0.935820 0.170887 0.176321
0.951845 0.182576 0.186884
0.956476 0.208574 0.206293
0.960253 0.231088 0.223870
0.963365 0.250780 0.239765
0.965951 0.268102 0.254116
0.968116 0.283389 0.267046
0.969940 0.296906 0.278675
0.971486 0.308870 0.289114
0.972801 0.319465 0.298468
0.973925 0.328849 0.306836
0.974890 0.337161 0.314310
0.975719 0.344520 0.320976
0.976436 0.351036 0.326913
0.977055 0.356802 0.332196
0.977592 0.361903 0.336890
0.978059 0.366414 0.341059
0.978464 0.370402 0.344756
0.978818 0.373927 0.348034
0.000302 0.000302 0.000302
0.000302 0.000302 0.000302
0.000302 0.000302 0.000302
0.000302 0.000302 0.000302
0.000302 0.000302 0.000302
0.000302 0.000302 0.000302
0.000302 0.000302 0.000302
0.011046 0.001940 0.001476
0.027454 0.004580 0.003473
0.043985 0.007299 0.005533
0.059548 0.009903 0.007508
0.073928 0.012339 0.009357
0.087171 0.014603 0.011076
0.099393 0.016707 0.012674
0.111112 0.018735 0.014215
0.123764 0.020935 0.015887
0.137502 0.023334 0.017711
0.152361 0.025939 0.019692
0.168377 0.028757 0.021835
0.185581 0.031795 0.024146
0.204003 0.035060 0.026631
0.223671 0.038559 0.029293
0.244605 0.042297 0.032139
0.266816 0.046281 0.035172
0.290306 0.050512 0.038395
0.315063 0.054994 0.041810
0.341058 0.059726 0.045416
0.368245 0.064704 0.049210
0.396555 0.069920 0.053189
0.425896 0.075363 0.057342
0.456154 0.081018 0.061658
0.487306 0.086661 0.065957
0.519182 0.092282 0.070233
0.551554 0.099746 0.074699
0.584929 0.106165 0.079502
0.619222 0.111159 0.087066
0.652613 0.117471 0.095865
0.685640 0.123723 0.104717
0.718082 0.129871 0.113543
0.749729 0.135874 0.122267
0.780392 0.141695 0.130818
0.809901 0.147300 0.139130
0.838114 0.152662 0.147147
0.864918 0.157758 0.154821
0.890226 0.162572 0.162115
0.913984 0.167093 0.169002
0.936162 0.171314 0.175462
0.951813 0.183566 0.186512
0.956458 0.209397 0.206016
0.960245 0.231790 0.223665
0.963362 0.251388 0.239616
0.965952 0.268633 0.254008
0.968120 0.283856 0.266971
0.969945 0.297318 0.278624
0.971491 0.309234 0.289082
0.972807 0.319787 0.298449
0.973931 0.329134 0.306827
0.974895 0.337413 0.314308
0.975724 0.344744 0.320979
0.976440 0.351234 0.326920
0.977059 0.356977 0.332204
0.977596 0.362058 0.336900
0.978062 0.366551 0.341069
0.978468 0.370524 0.344767
0.978821 0.374035 0.348045
0.000302 0.000302 0.000302
0.000302 0.000302 0.000302
0.000302 0.000302 0.000302
0.000302 0.000302 0.000302
0.000302 0.000302 0.000302
0.000302 0.000302 0.000302
0.000302 0.000302 0.000302
0.004057 0.000847 0.000652
0.018640 0.003154 0.002394
0.034812 0.005784 0.004385
0.050494 0.008383 0.006355
0.065152 0.010849 0.008226
0.078715 0.013155 0.009977
0.091252 0.015304 0.011609
0.103279 0.017378 0.013185
0.116258 0.019629 0.014895
0.130340 0.022082 0.016759
0.145553 0.024744 0.018783
0.161927 0.027620 0.020971
0.179490 0.030718 0.023327
0.198270 0.034043 0.025856
0.218291 0.037600 0.028564
0.239570 0.041397 0.031454
0.262120 0.045437 0.034530
0.285940 0.049724 0.037795
0.311018 0.054261 0.041251
0.337326 0.059045 0.044897
0.364814 0.064074 0.048730
0.393416 0.069340 0.052746
0.423038 0.074831 0.056936
0.453565 0.080533 0.061287
0.484975 0.087336 0.065721
0.517122 0.094733 0.070156
0.549726 0.102260 0.074658
0.582981 0.109209 0.079353
0.618782 0.111929 0.085074
0.652423 0.118054 0.093886
0.685568 0.124303 0.102899
0.718108 0.130441 0.111879
0.749836 0.136429 0.120749
0.780562 0.142231 0.129437
0.810120 0.147813 0.137878
0.838369 0.153149 0.146015
0.865197 0.158217 0.153800
0.890519 0.163002 0.161197
0.914283 0.167493 0.168178
0.936461 0.171684 0.174725
0.951786 0.184417 0.186199
0.956444 0.210103 0.205783
0.960238 0.232391 0.223493
0.963361 0.251907 0.239491
0.965953 0.269086 0.253919
0.968123 0.284254 0.266908
0.969949 0.297668 0.278582
0.971496 0.309543 0.289055
0.972811 0.320060 0.298434
0.973935 0.329376 0.306820
0.974899 0.337627 0.314306
0.975729 0.344934 0.320982
0.976444 0.351402 0.326925
0.977063 0.357126 0.332212
0.977599 0.362190 0.336909
0.978065 0.366668 0.341078
0.978470 0.370627 0.344776
0.978823 0.374125 0.348054
0.000302 0.000302 0.000302
0.000302 0.000302 0.000302
0.000302 0.000302 0.000302
0.000302 0.000302 0.000302
0.000302 0.000302 0.000302
0.000302 0.000302 0.000302
0.000302 0.000302 0.000302
0.000302 0.000302 0.000302
0.011400 0.001997 0.001518
0.026810 0.004476 0.003394
0.042429 0.007041 0.005338
0.057269 0.009519 0.007217
0.071092 0.011856 0.008991
0.083905 0.014043 0.010651
0.096208 0.016157 0.012257
0.109486 0.018453 0.014001
0.123883 0.020956 0.015903
0.139422 0.023670 0.017966
0.156127 0.026600 0.020195
0.174022 0.029752 0.022592
0.193130 0.033131 0.025163
0.213473 0.036743 0.027911
0.235068 0.040592 0.030841
0.257926 0.044684 0.033957
0.282045 0.049022 0.037260
0.307413 0.053607 0.040753
0.334001 0.058439 0.044435
0.361761 0.063514 0.048303
0.390624 0.068824 0.052353
0.420564 0.075061 0.056553
0.451464 0.082154 0.060892
0.483128 0.089481 0.065372
0.515393 0.097003 0.069977
0.548108 0.104622 0.074635
0.581264 0.111984 0.079235
0.617227 0.114759 0.084968
0.652302 0.118616 0.092039
0.685545 0.124856 0.101215
0.718165 0.130980 0.110346
0.749958 0.136949 0.119358
0.780736 0.142728 0.128177
0.810333 0.148285 0.136740
0.838610 0.153595 0.144990
0.865456 0.158635 0.152879
0.890789 0.163392 0.160371
0.914556 0.167854 0.167438
0.936731 0.172018 0.174064
0.951762 0.185180 0.185922
0.956431 0.210735 0.205578
0.960232 0.232927 0.223342
0.963359 0.252370 0.239381
0.965955 0.269490 0.253840
0.968125 0.284607 0.266853
0.969953 0.297979 0.278545
0.971500 0.309818 0.289031
0.972815 0.320303 0.298420
0.973939 0.329591 0.306813
0.974903 0.337817 0.314305
0.975732 0.345101 0.320984
0.976447 0.351550 0.326930
0.977066 0.357257 0.332218
0.977602 0.362306 0.336916
0.978068 0.366770 0.341086
0.978473 0.370717 0.344784
0.978825 0.374205 0.348062
0.000302 0.000302 0.000302
0.000302 0.000302 0.000302
0.000302 0.000302 0.000302
0.000302 0.000302 0.000302
0.000302 0.000302 0.000302
0.000302 0.000302 0.000302
0.000302 0.000302 0.000302
0.000302 0.000302 0.000302
0.005633 0.001088 0.000832
0.019775 0.003337 0.002532
0.035122 0.005835 0.004423
0.050041 0.008307 0.006298
0.064067 0.010665 0.008087
0.077121 0.012883 0.009770
0.089675 0.015033 0.011403
0.103230 0.017370 0.013178
0.117922 0.019918 0.015114
0.133768 0.022681 0.017215
0.150785 0.025662 0.019481
0.168991 0.028865 0.021917
0.188408 0.032295 0.024527
0.209053 0.035957 0.027313
0.230943 0.039856 0.030281
0.254086 0.043996 0.033432
0.278482 0.048380 0.036771
0.304119 0.053010 0.040298
0.330966 0.057886 0.044013
0.359054 0.063853 0.047888
0.388270 0.070392 0.051931
0.418495 0.077208 0.056142
0.449613 0.084272 0.060511
0.481483 0.091556 0.065022
0.513939 0.099021 0.069657
0.546800 0.106629 0.074393
0.579867 0.114330 0.079202
0.615820 0.117388 0.084882
0.651926 0.119699 0.090714
0.685559 0.125392 0.099618
0.718247 0.131497 0.108902
0.750094 0.137445 0.118053
0.780914 0.143199 0.127001
0.810543 0.148731 0.135682
0.838842 0.154013 0.144040
0.865702 0.159026 0.152028
0.891041 0.163754 0.159609
0.914810 0.168189 0.166758
0.936982 0.172326 0.173457
0.951741 0.185880 0.185672
0.956420 0.211314 0.205392
0.960227 0.233418 0.223206
0.963358 0.252794 0.239282
0.965956 0.269858 0.253769
0.968128 0.284930 0.266804
0.969956 0.298262 0.278512
0.971503 0.310067 0.289010
0.972819 0.320523 0.298408
0.973943 0.329785 0.306808
0.974907 0.337989 0.314305
0.975736 0.345254 0.320987
0.976451 0.351685 0.326935
0.977069 0.357376 0.332225
0.977605 0.362411 0.336923
0.978070 0.366863 0.341094
0.978475 0.370799 0.344792
0.978827 0.374278 0.348069
0.000302 0.000302 0.000302
0.000302 0.000302 0.000302
0.000302 0.000302 0.000302
0.000302 0.000302 0.000302
0.000302 0.000302 0.000302
0.000302 0.000302 0.000302
0.000302 0.000302 0.000302
0.000302 0.000302 0.000302
0.001364 0.000521 0.000431
0.013630 0.002352 0.001787
0.028454 0.004743 0.003597
0.043336 0.007191 0.005452
0.057507 0.009559 0.007247
0.070767 0.011801 0.008949
0.083548 0.013982 0.010604
0.097361 0.016356 0.012408
0.112334 0.018947 0.014377
0.128472 0.021756 0.016511
0.145786 0.024785 0.018814
0.164290 0.028037 0.021287
0.184000 0.031515 0.023933
0.204932 0.035225 0.026756
0.227101 0.039170 0.029759
0.250514 0.043356 0.032945
0.275214 0.048275 0.036302
0.301189 0.053914 0.039833
0.328374 0.059859 0.043547
0.356721 0.066098 0.047443
0.386160 0.072616 0.051516
0.416597 0.079394 0.055758
0.447915 0.086407 0.060156
0.479972 0.093627 0.064697
0.512605 0.101020 0.069361
0.545629 0.108548 0.074126
0.578842 0.116168 0.078969
0.614549 0.119834 0.084780
0.650759 0.122183 0.090650
0.685603 0.125919 0.098081
0.718348 0.132001 0.107520
0.750241 0.137924 0.116811
0.781096 0.143652 0.125887
0.810751 0.149156 0.134683
0.839067 0.154410 0.143145
0.865938 0.159395 0.151228
0.891282 0.164096 0.158896
0.915050 0.168504 0.166122
0.937217 0.172615 0.172891
0.951722 0.186533 0.185441
0.956410 0.211853 0.205222
0.960222 0.233875 0.223081
0.963357 0.253187 0.239191
0.965957 0.270200 0.253705
0.968130 0.285228 0.266759
0.969959 0.298525 0.278482
0.971507 0.310298 0.288991
0.972823 0.320727 0.298397
0.973947 0.329965 0.306803
0.974910 0.338148 0.314304
0.975739 0.345394 0.320989
0.976453 0.351809 0.326940
0.977071 0.357486 0.332230
0.977607 0.362508 0.336930
0.978072 0.366949 0.341100
0.978477 0.370875 0.344799
0.978829 0.374345 0.348076
0.000898 0.003264 0.000818
0.000302 0.000302 0.000302
0.000302 0.000302 0.000302
0.000302 0.000302 0.000302
0.000302 0.000302 0.000302
0.000302 0.000302 0.000302
0.000302 0.000302 0.000302
0.000302 0.000302 0.000302
0.000302 0.000302 0.000302
0.008375 0.001517 0.001156
0.022368 0.003755 0.002849
0.037079 0.006157 0.004668
0.051327 0.008522 0.006461
0.064757 0.010782 0.008175
0.077744 0.012989 0.009851
0.091798 0.015398 0.011680
0.107037 0.018029 0.013679
0.123456 0.020881 0.015847
0.141057 0.023956 0.018184
0.159848 0.027255 0.020692
0.179865 0.031100 0.023365
0.201129 0.035558 0.026202
0.223630 0.040312 0.029216
0.247374 0.045363 0.032411
0.272361 0.050707 0.035788
0.298576 0.056343 0.039349
0.325990 0.062265 0.043094
0.354556 0.068464 0.047020
0.384202 0.074929 0.051123
0.414835 0.081640 0.055394
0.446339 0.088578 0.059822
0.478570 0.095714 0.064392
0.511366 0.103017 0.069085
0.544540 0.110450 0.073879
0.577892 0.117973 0.078751
0.613498 0.121963 0.084501
0.649672 0.124545 0.090598
0.685674 0.126440 0.096587
0.718466 0.132496 0.106183
0.750397 0.138391 0.115616
0.781282 0.144091 0.124819
0.810957 0.149566 0.133729
0.839288 0.154792 0.142294
0.866166 0.159748 0.150470
0.891513 0.164422 0.158220
0.915279 0.168803 0.165521
0.937441 0.172889 0.172357
0.951705 0.187149 0.185226
0.956400 0.212361 0.205063
0.960218 0.234305 0.222964
0.963356 0.253556 0.239107
0.965958 0.270520 0.253645
0.968133 0.285508 0.266718
0.969962 0.298770 0.278455
0.971510 0.310514 0.288974
0.972826 0.320917 0.298388
0.973950 0.330133 0.306799
0.974913 0.338296 0.314304
0.975742 0.345525 0.320991
0.976456 0.351925 0.326944
0.977074 0.357588 0.332236
0.977609 0.362598 0.336936
0.978074 0.367029 0.341107
0.978479 0.370946 0.344805
0.978831 0.374407 0.348082
0.002807 0.011881 0.002548
0.001505 0.006029 0.001368
0.001044 0.003938 0.000950
0.000739 0.002516 0.000674
0.000544 0.001467 0.000500
0.000422 0.000675 0.000402
0.000302 0.000302 0.000302
0.000302 0.000302 0.000302
0.000302 0.000302 0.000302
0.004081 0.000851 0.000655
0.016847 0.002866 0.002176
0.031227 0.005196 0.003940
0.045475 0.007547 0.005721
0.059050 0.010089 0.007435
0.072243 0.012675 0.009118
0.086551 0.015523 0.010959
0.102079 0.018651 0.012974
0.118810 0.022053 0.015159
0.136735 0.025726 0.017514
0.155855 0.029667 0.020039
0.176178 0.033877 0.022736
0.197715 0.038356 0.025606
0.220476 0.043107 0.028653
0.244469 0.048133 0.031880
0.269692 0.053435 0.035289
0.296133 0.059012 0.038882
0.323761 0.064863 0.042658
0.352530 0.070979 0.046615
0.382370 0.077352 0.050748
0.413187 0.083966 0.055049
0.444863 0.090801 0.059506
0.477257 0.097831 0.064105
0.510203 0.105025 0.068827
0.543518 0.112350 0.073650
0.577000 0.119764 0.078549
0.612511 0.124031 0.084246
0.648771 0.126615 0.090384
0.684830 0.128546 0.096444
0.718599 0.132985 0.104881
0.750562 0.138849 0.114458
0.781471 0.144519 0.123787
0.811163 0.149964 0.132811
0.839505 0.155161 0.141478
0.866388 0.160089 0.149744
0.891736 0.164735 0.157576
0.915499 0.169090 0.164949
0.937656 0.173150 0.171850
0.951688 0.187734 0.185024
0.956391 0.212843 0.204914
0.960214 0.234712 0.222855
0.963355 0.253905 0.239028
0.965959 0.270823 0.253589
0.968135 0.285773 0.266679
0.969965 0.299002 0.278429
0.971513 0.310718 0.288958
0.972829 0.321097 0.298379
0.973953 0.330292 0.306795
0.974916 0.338436 0.314304
0.975744 0.345649 0.320994
0.976459 0.352034 0.326948
0.977076 0.357684 0.332241
0.977611 0.362683 0.336942
0.978076 0.367104 0.341113
0.978480 0.371012 0.344811
0.978832 0.374466 0.348088
0.005036 0.021786 0.004567
0.003494 0.014949 0.003170
0.002894 0.012268 0.002626
0.002453 0.010292 0.002226
0.002096 0.008692 0.001903
0.001796 0.007339 0.001631
0.001536 0.006168 0.001395
0.001309 0.005140 0.001190
0.001109 0.004231 0.001008
0.001660 0.003417 0.000789
0.011801 0.006569 0.001570
0.025901 0.009659 0.003134
0.040157 0.011883 0.004884
0.053854 0.014305 0.006603
0.067224 0.016795 0.008301
0.081757 0.019567 0.010166
0.097539 0.022620 0.012209
0.114539 0.025941 0.014427
0.132739 0.029524 0.016817
0.152131 0.033366 0.019378
0.172719 0.037468 0.022111
0.194510 0.041832 0.025017
0.217515 0.046461 0.028100
0.241740 0.051359 0.031361
0.267185 0.056530 0.034804
0.293836 0.061974 0.038430
0.321665 0.067690 0.042238
0.350625 0.073671 0.046226
0.380645 0.079909 0.050390
0.411633 0.086388 0.054721
0.443471 0.093090 0.059208
0.476017 0.099989 0.063835
0.509106 0.107056 0.068585
0.542553 0.114256 0.073436
0.576155 0.121550 0.078363
0.611578 0.126052 0.084010
0.647934 0.128601 0.090165
0.683961 0.130692 0.096413
0.718745 0.133470 0.103605
0.750735 0.139302 0.113328
0.781663 0.144939 0.122786
0.811369 0.150353 0.131923
0.839719 0.155519 0.140690
0.866606 0.160418 0.149045
0.891953 0.165037 0.156956
0.915712 0.169366 0.164400
0.937862 0.173402 0.171364
0.951673 0.188294 0.184833
0.956383 0.213303 0.204773
0.960211 0.235101 0.222752
0.963354 0.254239 0.238954
0.965960 0.271112 0.253536
0.968137 0.286025 0.266643
0.969967 0.299223 0.278405
0.971516 0.310912 0.288943
0.972832 0.321268 0.298370
0.973956 0.330442 0.306791
0.974919 0.338569 0.314304
0.975747 0.345766 0.320996
0.976461 0.352137 0.326952
0.977079 0.357776 0.332246
0.977613 0.362764 0.336947
0.978078 0.367175 0.341118
0.978482 0.371075 0.344817
0.978834 0.374521 0.348093
0.007342 0.031900 0.006659
0.005685 0.024649 0.005156
0.005018 0.021710 0.004552
0.004517 0.019493 0.004097
0.004102 0.017654 0.003721
0.003744 0.016061 0.003396
0.003426 0.014645 0.003108
0.003140 0.013367 0.002849
0.002879 0.012200 0.002612
0.002638 0.011125 0.002394
0.009395 0.010696 0.002463
0.020710 0.015370 0.003760
0.034873 0.020115 0.004679
0.048816 0.023630 0.006076
0.062472 0.026277 0.007624
0.077289 0.028462 0.009418
0.093322 0.030297 0.011450
0.110566 0.032587 0.013691
0.129011 0.035409 0.016116
0.148649 0.038667 0.018717
0.169478 0.042301 0.021489
0.191503 0.046275 0.024435
0.214732 0.050571 0.027556
0.239173 0.055177 0.030854
0.264823 0.060086 0.034333
0.291670 0.065293 0.037992
0.319686 0.070791 0.041833
0.348823 0.076570 0.045854
0.379013 0.082619 0.050048
0.410162 0.088922 0.054409
0.442152 0.095457 0.058925
0.474841 0.102199 0.063581
0.508063 0.109117 0.068359
0.541635 0.116176 0.073237
0.575352 0.123337 0.078190
0.610690 0.128038 0.083792
0.647136 0.130542 0.089964
0.683224 0.132623 0.096262
0.718904 0.133953 0.102347
0.750914 0.139749 0.112219
0.781858 0.145353 0.121808
0.811575 0.150734 0.131059
0.839931 0.155869 0.139926
0.866819 0.160739 0.148369
0.892165 0.165330 0.156358
0.915919 0.169633 0.163871
0.938062 0.173644 0.170896
0.951658 0.188832 0.184651
0.956376 0.213746 0.204640
0.960207 0.235474 0.222655
0.963354 0.254558 0.238883
0.965961 0.271389 0.253486
0.968139 0.286266 0.266608
0.969970 0.299434 0.278382
0.971519 0.311097 0.288929
0.972835 0.321431 0.298362
0.973959 0.330586 0.306788
0.974922 0.338696 0.314303
0.975750 0.345877 0.320998
0.976463 0.352236 0.326955
0.977081 0.357863 0.332250
0.977615 0.362841 0.336952
0.978080 0.367243 0.341124
0.978483 0.371135 0.344822
0.978835 0.374574 0.348099
0.009627 0.041793 0.008731
0.007918 0.034405 0.007181
0.007219 0.031363 0.006547
0.006687 0.029043 0.006065
0.006243 0.027100 0.005663
0.005856 0.025400 0.005311
0.005509 0.023874 0.004997
0.005193 0.022481 0.004710
0.004902 0.021195 0.004446
0.004631 0.019998 0.004201
0.010226 0.018922 0.003736
0.018680 0.019669 0.004847
0.030167 0.024529 0.006542
0.043693 0.029537 0.006971
0.057477 0.033676 0.007958
0.072618 0.037337 0.009385
0.089070 0.040473 0.011159
0.106723 0.043042 0.013224
0.125505 0.045022 0.015550
0.145395 0.046712 0.018119
0.166446 0.049093 0.020905
0.188683 0.052138 0.023879
0.212116 0.055724 0.027033
0.236753 0.059769 0.030367
0.262592 0.064221 0.033880
0.289620 0.069046 0.037573
0.317810 0.074216 0.041447
0.347114 0.079711 0.045499
0.377462 0.085508 0.049724
0.408762 0.091585 0.054114
0.440895 0.097915 0.058659
0.473719 0.104471 0.063342
0.507069 0.111217 0.068147
0.540758 0.118118 0.073052
0.574584 0.125132 0.078031
0.609842 0.129997 0.083592
0.646372 0.132449 0.089779
0.682539 0.134474 0.096094
0.718249 0.135821 0.102255
0.751101 0.140194 0.111129
0.782057 0.145761 0.120849
0.811782 0.151109 0.130215
0.840141 0.156213 0.139181
0.867030 0.161053 0.147712
0.892372 0.165616 0.155779
0.916121 0.169893 0.163360
0.938256 0.173880 0.170445
0.951644 0.189351 0.184478
0.956368 0.214172 0.204512
0.960204 0.235833 0.222561
0.963353 0.254866 0.238816
0.965962 0.271654 0.253439
0.968141 0.286497 0.266576
0.969973 0.299636 0.278360
0.971521 0.311275 0.288915
0.972838 0.321587 0.298355
0.973961 0.330723 0.306785
0.974924 0.338817 0.314304
0.975752 0.345984 0.321001
0.976466 0.352330 0.326959
0.977083 0.357946 0.332255
0.977617 0.362914 0.336957
0.978081 0.367308 0.341129
0.978485 0.371192 0.344828
0.978836 0.374625 0.348104
0.011844 0.051293 0.010742
0.010119 0.043911 0.009178
0.009407 0.040845 0.008531
0.008862 0.038494 0.008037
0.008404 0.036514 0.007622
0.008003 0.034773 0.007258
0.007641 0.033203 0.006930
0.007310 0.031763 0.006630
0.007004 0.030426 0.006352
0.006718 0.029175 0.006092
0.009089 0.028018 0.005739
0.019654 0.027255 0.005473
0.028424 0.029034 0.007357
0.039644 0.033691 0.009285
0.052770 0.038687 0.009662
0.067903 0.043491 0.010400
0.084609 0.047807 0.011689
0.102633 0.051510 0.013413
0.121840 0.054558 0.015489
0.142158 0.056938 0.017865
0.163549 0.058650 0.020515
0.186018 0.060064 0.023425
0.209647 0.062323 0.026571
0.234466 0.065384 0.029921
0.260479 0.069089 0.033459
0.287675 0.073328 0.037180
0.316026 0.078027 0.041084
0.345485 0.083131 0.045165
0.375983 0.088599 0.049419
0.407425 0.094392 0.053837
0.439694 0.100475 0.058409
0.472646 0.106811 0.063120
0.506115 0.113362 0.067950
0.539916 0.120085 0.072880
0.573846 0.126939 0.077885
0.609028 0.131937 0.083407
0.645638 0.134327 0.089608
0.681880 0.136289 0.095939
0.717572 0.137721 0.102239
