luts/tone/shipped.cube
TITLE "Filmic tone shaping (gamma=1.0 pivot=0.5 contrast=1.0 toe=0.0 shoulder=0.0 black=0.0)"

LUT_1D_SIZE 4096

0.00000000 0.00000000 0.00000000
0.00024420 0.00024420 0.00024420
0.00048840 0.00048840 0.00048840
0.00073260 0.00073260 0.00073260
0.00097680 0.00097680 0.00097680
0.00122100 0.00122100 0.00122100
0.00146520 0.00146520 0.00146520
0.00170940 0.00170940 0.00170940
0.00195360 0.00195360 0.00195360
0.00219780 0.00219780 0.00219780
0.00244200 0.00244200 0.00244200
0.00268620 0.00268620 0.00268620
0.00293040 0.00293040 0.00293040
0.00317460 0.00317460 0.00317460
0.00341880 0.00341880 0.00341880
0.00366300 0.00366300 0.00366300
0.00390720 0.00390720 0.00390720
0.00415140 0.00415140 0.00415140
0.00439560 0.00439560 0.00439560
0.00463980 0.00463980 0.00463980
0.00488400 0.00488400 0.00488400
0.00512821 0.00512821 0.00512821
0.00537241 0.00537241 0.00537241
0.00561661 0.00561661 0.00561661
0.00586081 0.00586081 0.00586081
0.00610501 0.00610501 0.00610501
0.00634921 0.00634921 0.00634921
0.00659341 0.00659341 0.00659341
0.00683761 0.00683761 0.00683761
0.00708181 0.00708181 0.00708181
0.00732601 0.00732601 0.00732601
0.00757021 0.00757021 0.00757021
0.00781441 0.00781441 0.00781441
0.00805861 0.00805861 0.00805861
0.00830281 0.00830281 0.00830281
0.00854701 0.00854701 0.00854701
0.00879121 0.00879121 0.00879121
0.00903541 0.00903541 0.00903541
0.00927961 0.00927961 0.00927961
0.00952381 0.00952381 0.00952381
0.00976801 0.00976801 0.00976801
0.01001221 0.01001221 0.01001221
0.01025641 0.01025641 0.01025641
0.01050061 0.01050061 0.01050061
0.01074481 0.01074481 0.01074481
0.01098901 0.01098901 0.01098901
0.01123321 0.01123321 0.01123321
0.01147741 0.01147741 0.01147741
0.01172161 0.01172161 0.01172161
0.01196581 0.01196581 0.01196581
0.01221001 0.01221001 0.01221001
0.01245421 0.01245421 0.01245421
0.01269841 0.01269841 0.01269841
0.01294261 0.01294261 0.01294261
0.01318681 0.01318681 0.01318681
0.01343101 0.01343101 0.01343101
0.01367521 0.01367521 0.01367521
0.01391941 0.01391941 0.01391941
0.01416361 0.01416361 0.01416361
0.01440781 0.01440781 0.01440781
0.01465201 0.01465201 0.01465201
0.01489621 0.01489621 0.01489621
0.01514042 0.01514042 0.01514042
0.01538462 0.01538462 0.01538462
0.01562882 0.01562882 0.01562882
0.01587302 0.01587302 0.01587302
0.01611722 0.01611722 0.01611722
0.01636142 0.01636142 0.01636142
0.01660562 0.01660562 0.01660562
0.01684982 0.01684982 0.01684982
0.01709402 0.01709402 0.01709402
0.01733822 0.01733822 0.01733822
0.01758242 0.01758242 0.01758242
0.01782662 0.01782662 0.01782662
0.01807082 0.01807082 0.01807082
0.01831502 0.01831502 0.01831502
0.01855922 0.01855922 0.01855922
0.01880342 0.01880342 0.01880342
0.01904762 0.01904762 0.01904762
0.01929182 0.01929182 0.01929182
0.01953602 0.01953602 0.01953602
0.01978022 0.01978022 0.01978022
0.02002442 0.02002442 0.02002442
0.02026862 0.02026862 0.02026862
0.02051282 0.02051282 0.02051282
0.02075702 0.02075702 0.02075702
0.02100122 0.02100122 0.02100122
0.02124542 0.02124542 0.02124542
0.02148962 0.02148962 0.02148962
0.02173382 0.02173382 0.02173382
0.02197802 0.02197802 0.02197802
0.02222222 0.02222222 0.02222222
0.02246642 0.02246642 0.02246642
0.02271062 0.02271062 0.02271062
0.02295482 0.02295482 0.02295482
0.02319902 0.02319902 0.02319902
0.02344322 0.02344322 0.02344322
0.02368742 0.02368742 0.02368742
0.02393162 0.02393162 0.02393162
0.02417582 0.02417582 0.02417582
0.02442002 0.02442002 0.02442002
0.02466422 0.02466422 0.02466422
0.02490842 0.02490842 0.02490842
0.02515263 0.02515263 0.02515263
0.02539683 0.02539683 0.02539683
0.02564103 0.02564103 0.02564103
0.02588523 0.02588523 0.02588523
0.02612943 0.02612943 0.02612943
0.02637363 0.02637363 0.02637363
0.02661783 0.02661783 0.02661783
0.02686203 0.02686203 0.02686203
0.02710623 0.02710623 0.02710623
0.02735043 0.02735043 0.02735043
0.02759463 0.02759463 0.02759463
0.02783883 0.02783883 0.02783883
0.02808303 0.02808303 0.02808303
0.02832723 0.02832723 0.02832723
0.02857143 0.02857143 0.02857143
0.02881563 0.02881563 0.02881563
0.02905983 0.02905983 0.02905983
0.02930403 0.02930403 0.02930403
0.02954823 0.02954823 0.02954823
0.02979243 0.02979243 0.02979243
0.03003663 0.03003663 0.03003663
0.03028083 0.03028083 0.03028083
0.03052503 0.03052503 0.03052503
0.03076923 0.03076923 0.03076923
0.03101343 0.03101343 0.03101343
0.03125763 0.03125763 0.03125763
0.03150183 0.03150183 0.03150183
0.03174603 0.03174603 0.03174603
0.03199023 0.03199023 0.03199023
0.03223443 0.03223443 0.03223443
0.03247863 0.03247863 0.03247863
0.03272283 0.03272283 0.03272283
0.03296703 0.03296703 0.03296703
0.03321123 0.03321123 0.03321123
0.03345543 0.03345543 0.03345543
0.03369963 0.03369963 0.03369963
0.03394383 0.03394383 0.03394383
0.03418803 0.03418803 0.03418803
0.03443223 0.03443223 0.03443223
0.03467643 0.03467643 0.03467643
0.03492063 0.03492063 0.03492063
0.03516484 0.03516484 0.03516484
0.03540904 0.03540904 0.03540904
0.03565324 0.03565324 0.03565324
0.03589744 0.03589744 0.03589744
0.03614164 0.03614164 0.03614164
0.03638584 0.03638584 0.03638584
0.03663004 0.03663004 0.03663004
0.03687424 0.03687424 0.03687424
0.03711844 0.03711844 0.03711844
0.03736264 0.03736264 0.03736264
0.03760684 0.03760684 0.03760684
0.03785104 0.03785104 0.03785104
0.03809524 0.03809524 0.03809524
0.03833944 0.03833944 0.03833944
0.03858364 0.03858364 0.03858364
0.03882784 0.03882784 0.03882784
0.03907204 0.03907204 0.03907204
0.03931624 0.03931624 0.03931624
0.03956044 0.03956044 0.03956044
0.03980464 0.03980464 0.03980464
0.04004884 0.04004884 0.04004884
0.04029304 0.04029304 0.04029304
0.04053724 0.04053724 0.04053724
0.04078144 0.04078144 0.04078144
0.04102564 0.04102564 0.04102564
0.04126984 0.04126984 0.04126984
0.04151404 0.04151404 0.04151404
0.04175824 0.04175824 0.04175824
0.04200244 0.04200244 0.04200244
0.04224664 0.04224664 0.04224664
0.04249084 0.04249084 0.04249084
0.04273504 0.04273504 0.04273504
0.04297924 0.04297924 0.04297924
0.04322344 0.04322344 0.04322344
0.04346764 0.04346764 0.04346764
0.04371184 0.04371184 0.04371184
0.04395604 0.04395604 0.04395604
0.04420024 0.04420024 0.04420024
0.04444444 0.04444444 0.04444444
0.04468864 0.04468864 0.04468864
0.04493284 0.04493284 0.04493284
0.04517705 0.04517705 0.04517705
0.04542125 0.04542125 0.04542125
0.04566545 0.04566545 0.04566545
0.04590965 0.04590965 0.04590965
0.04615385 0.04615385 0.04615385
0.04639805 0.04639805 0.04639805
0.04664225 0.04664225 0.04664225
0.04688645 0.04688645 0.04688645
0.04713065 0.04713065 0.04713065
0.04737485 0.04737485 0.04737485
0.04761905 0.04761905 0.04761905
0.04786325 0.04786325 0.04786325
0.04810745 0.04810745 0.04810745
0.04835165 0.04835165 0.04835165
0.04859585 0.04859585 0.04859585
0.04884005 0.04884005 0.04884005
0.04908425 0.04908425 0.04908425
0.04932845 0.04932845 0.04932845
0.04957265 0.04957265 0.04957265
0.04981685 0.04981685 0.04981685
0.05006105 0.05006105 0.05006105
0.05030525 0.05030525 0.05030525
0.05054945 0.05054945 0.05054945
0.05079365 0.05079365 0.05079365
0.05103785 0.05103785 0.05103785
0.05128205 0.05128205 0.05128205
0.05152625 0.05152625 0.05152625
0.05177045 0.05177045 0.05177045
0.05201465 0.05201465 0.05201465
0.05225885 0.05225885 0.05225885
0.05250305 0.05250305 0.05250305
0.05274725 0.05274725 0.05274725
0.05299145 0.05299145 0.05299145
0.05323565 0.05323565 0.05323565
0.05347985 0.05347985 0.05347985
0.05372405 0.05372405 0.05372405
0.05396825 0.05396825 0.05396825
0.05421245 0.05421245 0.05421245
0.05445665 0.05445665 0.05445665
0.05470085 0.05470085 0.05470085
0.05494505 0.05494505 0.05494505
0.05518926 0.05518926 0.05518926
0.05543346 0.05543346 0.05543346
0.05567766 0.05567766 0.05567766
0.05592186 0.05592186 0.05592186
0.05616606 0.05616606 0.05616606
0.05641026 0.05641026 0.05641026
0.05665446 0.05665446 0.05665446
0.05689866 0.05689866 0.05689866
0.05714286 0.05714286 0.05714286
0.05738706 0.05738706 0.05738706
0.05763126 0.05763126 0.05763126
0.05787546 0.05787546 0.05787546
0.05811966 0.05811966 0.05811966
0.05836386 0.05836386 0.05836386
0.05860806 0.05860806 0.05860806
0.05885226 0.05885226 0.05885226
0.05909646 0.05909646 0.05909646
0.05934066 0.05934066 0.05934066
0.05958486 0.05958486 0.05958486
0.05982906 0.05982906 0.05982906
0.06007326 0.06007326 0.06007326
0.06031746 0.06031746 0.06031746
0.06056166 0.06056166 0.06056166
0.06080586 0.06080586 0.06080586
0.06105006 0.06105006 0.06105006
0.06129426 0.06129426 0.06129426
0.06153846 0.06153846 0.06153846
0.06178266 0.06178266 0.06178266
0.06202686 0.06202686 0.06202686
0.06227106 0.06227106 0.06227106
0.06251526 0.06251526 0.06251526
0.06275946 0.06275946 0.06275946
0.06300366 0.06300366 0.06300366
0.06324786 0.06324786 0.06324786
0.06349206 0.06349206 0.06349206
0.06373626 0.06373626 0.06373626
0.06398046 0.06398046 0.06398046
0.06422466 0.06422466 0.06422466
0.06446886 0.06446886 0.06446886
0.06471306 0.06471306 0.06471306
0.06495726 0.06495726 0.06495726
0.06520147 0.06520147 0.06520147
0.06544567 0.06544567 0.06544567
0.06568987 0.06568987 0.06568987
0.06593407 0.06593407 0.06593407
0.06617827 0.06617827 0.06617827
0.06642247 0.06642247 0.06642247
0.06666667 0.06666667 0.06666667
0.06691087 0.06691087 0.06691087
0.06715507 0.06715507 0.06715507
0.06739927 0.06739927 0.06739927
0.06764347 0.06764347 0.06764347
0.06788767 0.06788767 0.06788767
0.06813187 0.06813187 0.06813187
0.06837607 0.06837607 0.06837607
0.06862027 0.06862027 0.06862027
0.06886447 0.06886447 0.06886447
0.06910867 0.06910867 0.06910867
0.06935287 0.06935287 0.06935287
0.06959707 0.06959707 0.06959707
0.06984127 0.06984127 0.06984127
0.07008547 0.07008547 0.07008547
0.07032967 0.07032967 0.07032967
0.07057387 0.07057387 0.07057387
0.07081807 0.07081807 0.07081807
0.07106227 0.07106227 0.07106227
0.07130647 0.07130647 0.07130647
0.07155067 0.07155067 0.07155067
0.07179487 0.07179487 0.07179487
0.07203907 0.07203907 0.07203907
0.07228327 0.07228327 0.07228327
0.07252747 0.07252747 0.07252747
0.07277167 0.07277167 0.07277167
0.07301587 0.07301587 0.07301587
0.07326007 0.07326007 0.07326007
0.07350427 0.07350427 0.07350427
0.07374847 0.07374847 0.07374847
0.07399267 0.07399267 0.07399267
0.07423687 0.07423687 0.07423687
0.07448107 0.07448107 0.07448107
0.07472527 0.07472527 0.07472527
0.07496947 0.07496947 0.07496947
0.07521368 0.07521368 0.07521368
0.07545788 0.07545788 0.07545788
0.07570208 0.07570208 0.07570208
0.07594628 0.07594628 0.07594628
0.07619048 0.07619048 0.07619048
0.07643468 0.07643468 0.07643468
0.07667888 0.07667888 0.07667888
0.07692308 0.07692308 0.07692308
0.07716728 0.07716728 0.07716728
0.07741148 0.07741148 0.07741148
0.07765568 0.07765568 0.07765568
0.07789988 0.07789988 0.07789988
0.07814408 0.07814408 0.07814408
0.07838828 0.07838828 0.07838828
0.07863248 0.07863248 0.07863248
0.07887668 0.07887668 0.07887668
0.07912088 0.07912088 0.07912088
0.07936508 0.07936508 0.07936508
0.07960928 0.07960928 0.07960928
0.07985348 0.07985348 0.07985348
0.08009768 0.08009768 0.08009768
0.08034188 0.08034188 0.08034188
0.08058608 0.08058608 0.08058608
0.08083028 0.08083028 0.08083028
0.08107448 0.08107448 0.08107448
0.08131868 0.08131868 0.08131868
0.08156288 0.08156288 0.08156288
0.08180708 0.08180708 0.08180708
0.08205128 0.08205128 0.08205128
0.08229548 0.08229548 0.08229548
0.08253968 0.08253968 0.08253968
0.08278388 0.08278388 0.08278388
0.08302808 0.08302808 0.08302808
0.08327228 0.08327228 0.08327228
0.08351648 0.08351648 0.08351648
0.08376068 0.08376068 0.08376068
0.08400488 0.08400488 0.08400488
0.08424908 0.08424908 0.08424908
0.08449328 0.08449328 0.08449328
0.08473748 0.08473748 0.08473748
0.08498168 0.08498168 0.08498168
0.08522589 0.08522589 0.08522589
0.08547009 0.08547009 0.08547009
0.08571429 0.08571429 0.08571429
0.08595849 0.08595849 0.08595849
0.08620269 0.08620269 0.08620269
0.08644689 0.08644689 0.08644689
0.08669109 0.08669109 0.08669109
0.08693529 0.08693529 0.08693529
0.08717949 0.08717949 0.08717949
0.08742369 0.08742369 0.08742369
0.08766789 0.08766789 0.08766789
0.08791209 0.08791209 0.08791209
0.08815629 0.08815629 0.08815629
0.08840049 0.08840049 0.08840049
0.08864469 0.08864469 0.08864469
0.08888889 0.08888889 0.08888889
0.08913309 0.08913309 0.08913309
0.08937729 0.08937729 0.08937729
0.08962149 0.08962149 0.08962149
0.08986569 0.08986569 0.08986569
0.09010989 0.09010989 0.09010989
0.09035409 0.09035409 0.09035409
0.09059829 0.09059829 0.09059829
0.09084249 0.09084249 0.09084249
0.09108669 0.09108669 0.09108669
0.09133089 0.09133089 0.09133089
0.09157509 0.09157509 0.09157509
0.09181929 0.09181929 0.09181929
0.09206349 0.09206349 0.09206349
0.09230769 0.09230769 0.09230769
0.09255189 0.09255189 0.09255189
0.09279609 0.09279609 0.09279609
0.09304029 0.09304029 0.09304029
0.09328449 0.09328449 0.09328449
0.09352869 0.09352869 0.09352869
0.09377289 0.09377289 0.09377289
0.09401709 0.09401709 0.09401709
0.09426129 0.09426129 0.09426129
0.09450549 0.09450549 0.09450549
0.09474969 0.09474969 0.09474969
0.09499389 0.09499389 0.09499389
0.09523810 0.09523810 0.09523810
0.09548230 0.09548230 0.09548230
0.09572650 0.09572650 0.09572650
0.09597070 0.09597070 0.09597070
0.09621490 0.09621490 0.09621490
0.09645910 0.09645910 0.09645910
0.09670330 0.09670330 0.09670330
0.09694750 0.09694750 0.09694750
0.09719170 0.09719170 0.09719170
0.09743590 0.09743590 0.09743590
0.09768010 0.09768010 0.09768010
0.09792430 0.09792430 0.09792430
0.09816850 0.09816850 0.09816850
0.09841270 0.09841270 0.09841270
0.09865690 0.09865690 0.09865690
0.09890110 0.09890110 0.09890110
0.09914530 0.09914530 0.09914530
0.09938950 0.09938950 0.09938950
0.09963370 0.09963370 0.09963370
0.09987790 0.09987790 0.09987790
0.10012210 0.10012210 0.10012210
0.10036630 0.10036630 0.10036630
0.10061050 0.10061050 0.10061050
0.10085470 0.10085470 0.10085470
0.10109890 0.10109890 0.10109890
0.10134310 0.10134310 0.10134310
0.10158730 0.10158730 0.10158730
0.10183150 0.10183150 0.10183150
0.10207570 0.10207570 0.10207570
0.10231990 0.10231990 0.10231990
0.10256410 0.10256410 0.10256410
0.10280830 0.10280830 0.10280830
0.10305250 0.10305250 0.10305250
0.10329670 0.10329670 0.10329670
0.10354090 0.10354090 0.10354090
0.10378510 0.10378510 0.10378510
0.10402930 0.10402930 0.10402930
0.10427350 0.10427350 0.10427350
0.10451770 0.10451770 0.10451770
0.10476190 0.10476190 0.10476190
0.10500611 0.10500611 0.10500611
0.10525031 0.10525031 0.10525031
0.10549451 0.10549451 0.10549451
0.10573871 0.10573871 0.10573871
0.10598291 0.10598291 0.10598291
0.10622711 0.10622711 0.10622711
0.10647131 0.10647131 0.10647131
0.10671551 0.10671551 0.10671551
0.10695971 0.10695971 0.10695971
0.10720391 0.10720391 0.10720391
0.10744811 0.10744811 0.10744811
0.10769231 0.10769231 0.10769231
0.10793651 0.10793651 0.10793651
0.10818071 0.10818071 0.10818071
0.10842491 0.10842491 0.10842491
0.10866911 0.10866911 0.10866911
0.10891331 0.10891331 0.10891331
0.10915751 0.10915751 0.10915751
0.10940171 0.10940171 0.10940171
0.10964591 0.10964591 0.10964591
0.10989011 0.10989011 0.10989011
0.11013431 0.11013431 0.11013431
0.11037851 0.11037851 0.11037851
0.11062271 0.11062271 0.11062271
0.11086691 0.11086691 0.11086691
0.11111111 0.11111111 0.11111111
0.11135531 0.11135531 0.11135531
0.11159951 0.11159951 0.11159951
0.11184371 0.11184371 0.11184371
0.11208791 0.11208791 0.11208791
0.11233211 0.11233211 0.11233211
0.11257631 0.11257631 0.11257631
0.11282051 0.11282051 0.11282051
0.11306471 0.11306471 0.11306471
0.11330891 0.11330891 0.11330891
0.11355311 0.11355311 0.11355311
0.11379731 0.11379731 0.11379731
0.11404151 0.11404151 0.11404151
0.11428571 0.11428571 0.11428571
0.11452991 0.11452991 0.11452991
0.11477411 0.11477411 0.11477411
0.11501832 0.11501832 0.11501832
0.11526252 0.11526252 0.11526252
0.11550672 0.11550672 0.11550672
0.11575092 0.11575092 0.11575092
0.11599512 0.11599512 0.11599512
0.11623932 0.11623932 0.11623932
0.11648352 0.11648352 0.11648352
0.11672772 0.11672772 0.11672772
0.11697192 0.11697192 0.11697192
0.11721612 0.11721612 0.11721612
0.11746032 0.11746032 0.11746032
0.11770452 0.11770452 0.11770452
0.11794872 0.11794872 0.11794872
0.11819292 0.11819292 0.11819292
0.11843712 0.11843712 0.11843712
0.11868132 0.11868132 0.11868132
0.11892552 0.11892552 0.11892552
0.11916972 0.11916972 0.11916972
0.11941392 0.11941392 0.11941392
0.11965812 0.11965812 0.11965812
0.11990232 0.11990232 0.11990232
0.12014652 0.12014652 0.12014652
0.12039072 0.12039072 0.12039072
0.12063492 0.12063492 0.12063492
0.12087912 0.12087912 0.12087912
0.12112332 0.12112332 0.12112332
0.12136752 0.12136752 0.12136752
0.12161172 0.12161172 0.12161172
0.12185592 0.12185592 0.12185592
0.12210012 0.12210012 0.12210012
0.12234432 0.12234432 0.12234432
0.12258852 0.12258852 0.12258852
0.12283272 0.12283272 0.12283272
0.12307692 0.12307692 0.12307692
0.12332112 0.12332112 0.12332112
0.12356532 0.12356532 0.12356532
0.12380952 0.12380952 0.12380952
0.12405372 0.12405372 0.12405372
0.12429792 0.12429792 0.12429792
0.12454212 0.12454212 0.12454212
0.12478632 0.12478632 0.12478632
0.12503053 0.12503053 0.12503053
0.12527473 0.12527473 0.12527473
0.12551893 0.12551893 0.12551893
0.12576313 0.12576313 0.12576313
0.12600733 0.12600733 0.12600733
0.12625153 0.12625153 0.12625153
0.12649573 0.12649573 0.12649573
0.12673993 0.12673993 0.12673993
0.12698413 0.12698413 0.12698413
0.12722833 0.12722833 0.12722833
0.12747253 0.12747253 0.12747253
0.12771673 0.12771673 0.12771673
0.12796093 0.12796093 0.12796093
0.12820513 0.12820513 0.12820513
0.12844933 0.12844933 0.12844933
0.12869353 0.12869353 0.12869353
0.12893773 0.12893773 0.12893773
0.12918193 0.12918193 0.12918193
0.12942613 0.12942613 0.12942613
0.12967033 0.12967033 0.12967033
0.12991453 0.12991453 0.12991453
0.13015873 0.13015873 0.13015873
0.13040293 0.13040293 0.13040293
0.13064713 0.13064713 0.13064713
0.13089133 0.13089133 0.13089133
0.13113553 0.13113553 0.13113553
0.13137973 0.13137973 0.13137973
0.13162393 0.13162393 0.13162393
0.13186813 0.13186813 0.13186813
0.13211233 0.13211233 0.13211233
0.13235653 0.13235653 0.13235653
0.13260073 0.13260073 0.13260073
0.13284493 0.13284493 0.13284493
0.13308913 0.13308913 0.13308913
0.13333333 0.13333333 0.13333333
0.13357753 0.13357753 0.13357753
0.13382173 0.13382173 0.13382173
0.13406593 0.13406593 0.13406593
0.13431013 0.13431013 0.13431013
0.13455433 0.13455433 0.13455433
0.13479853 0.13479853 0.13479853
0.13504274 0.13504274 0.13504274
0.13528694 0.13528694 0.13528694
0.13553114 0.13553114 0.13553114
0.13577534 0.13577534 0.13577534
0.13601954 0.13601954 0.13601954
0.13626374 0.13626374 0.13626374
0.13650794 0.13650794 0.13650794
0.13675214 0.13675214 0.13675214
0.13699634 0.13699634 0.13699634
0.13724054 0.13724054 0.13724054
0.13748474 0.13748474 0.13748474
0.13772894 0.13772894 0.13772894
0.13797314 0.13797314 0.13797314
0.13821734 0.13821734 0.13821734
0.13846154 0.13846154 0.13846154
0.13870574 0.13870574 0.13870574
0.13894994 0.13894994 0.13894994
0.13919414 0.13919414 0.13919414
0.13943834 0.13943834 0.13943834
0.13968254 0.13968254 0.13968254
0.13992674 0.13992674 0.13992674
0.14017094 0.14017094 0.14017094
0.14041514 0.14041514 0.14041514
0.14065934 0.14065934 0.14065934
0.14090354 0.14090354 0.14090354
0.14114774 0.14114774 0.14114774
0.14139194 0.14139194 0.14139194
0.14163614 0.14163614 0.14163614
0.14188034 0.14188034 0.14188034
0.14212454 0.14212454 0.14212454
0.14236874 0.14236874 0.14236874
0.14261294 0.14261294 0.14261294
0.14285714 0.14285714 0.14285714
0.14310134 0.14310134 0.14310134
0.14334554 0.14334554 0.14334554
0.14358974 0.14358974 0.14358974
0.14383394 0.14383394 0.14383394
0.14407814 0.14407814 0.14407814
0.14432234 0.14432234 0.14432234
0.14456654 0.14456654 0.14456654
0.14481074 0.14481074 0.14481074
0.14505495 0.14505495 0.14505495
0.14529915 0.14529915 0.14529915
0.14554335 0.14554335 0.14554335
0.14578755 0.14578755 0.14578755
0.14603175 0.14603175 0.14603175
0.14627595 0.14627595 0.14627595
0.14652015 0.14652015 0.14652015
0.14676435 0.14676435 0.14676435
0.14700855 0.14700855 0.14700855
0.14725275 0.14725275 0.14725275
0.14749695 0.14749695 0.14749695
0.14774115 0.14774115 0.14774115
0.14798535 0.14798535 0.14798535
0.14822955 0.14822955 0.14822955
0.14847375 0.14847375 0.14847375
0.14871795 0.14871795 0.14871795
0.14896215 0.14896215 0.14896215
0.14920635 0.14920635 0.14920635
0.14945055 0.14945055 0.14945055
0.14969475 0.14969475 0.14969475
0.14993895 0.14993895 0.14993895
0.15018315 0.15018315 0.15018315
0.15042735 0.15042735 0.15042735
0.15067155 0.15067155 0.15067155
0.15091575 0.15091575 0.15091575
0.15115995 0.15115995 0.15115995
0.15140415 0.15140415 0.15140415
0.15164835 0.15164835 0.15164835
0.15189255 0.15189255 0.15189255
0.15213675 0.15213675 0.15213675
0.15238095 0.15238095 0.15238095
0.15262515 0.15262515 0.15262515
0.15286935 0.15286935 0.15286935
0.15311355 0.15311355 0.15311355
0.15335775 0.15335775 0.15335775
0.15360195 0.15360195 0.15360195
0.15384615 0.15384615 0.15384615
0.15409035 0.15409035 0.15409035
0.15433455 0.15433455 0.15433455
0.15457875 0.15457875 0.15457875
0.15482295 0.15482295 0.15482295
0.15506716 0.15506716 0.15506716
0.15531136 0.15531136 0.15531136
0.15555556 0.15555556 0.15555556
0.15579976 0.15579976 0.15579976
0.15604396 0.15604396 0.15604396
0.15628816 0.15628816 0.15628816
0.15653236 0.15653236 0.15653236
0.15677656 0.15677656 0.15677656
0.15702076 0.15702076 0.15702076
0.15726496 0.15726496 0.15726496
0.15750916 0.15750916 0.15750916
0.15775336 0.15775336 0.15775336
0.15799756 0.15799756 0.15799756
0.15824176 0.15824176 0.15824176
0.15848596 0.15848596 0.15848596
0.15873016 0.15873016 0.15873016
0.15897436 0.15897436 0.15897436
0.15921856 0.15921856 0.15921856
0.15946276 0.15946276 0.15946276
0.15970696 0.15970696 0.15970696
0.15995116 0.15995116 0.15995116
0.16019536 0.16019536 0.16019536
0.16043956 0.16043956 0.16043956
0.16068376 0.16068376 0.16068376
0.16092796 0.16092796 0.16092796
0.16117216 0.16117216 0.16117216
0.16141636 0.16141636 0.16141636
0.16166056 0.16166056 0.16166056
0.16190476 0.16190476 0.16190476
0.16214896 0.16214896 0.16214896
0.16239316 0.16239316 0.16239316
0.16263736 0.16263736 0.16263736
0.16288156 0.16288156 0.16288156
0.16312576 0.16312576 0.16312576
0.16336996 0.16336996 0.16336996
0.16361416 0.16361416 0.16361416
0.16385836 0.16385836 0.16385836
0.16410256 0.16410256 0.16410256
0.16434676 0.16434676 0.16434676
0.16459096 0.16459096 0.16459096
0.16483516 0.16483516 0.16483516
0.16507937 0.16507937 0.16507937
0.16532357 0.16532357 0.16532357
0.16556777 0.16556777 0.16556777
0.16581197 0.16581197 0.16581197
0.16605617 0.16605617 0.16605617
0.16630037 0.16630037 0.16630037
0.16654457 0.16654457 0.16654457
0.16678877 0.16678877 0.16678877
0.16703297 0.16703297 0.16703297
0.16727717 0.16727717 0.16727717
0.16752137 0.16752137 0.16752137
0.16776557 0.16776557 0.16776557
0.16800977 0.16800977 0.16800977
0.16825397 0.16825397 0.16825397
0.16849817 0.16849817 0.16849817
0.16874237 0.16874237 0.16874237
0.16898657 0.16898657 0.16898657
0.16923077 0.16923077 0.16923077
0.16947497 0.16947497 0.16947497
0.16971917 0.16971917 0.16971917
0.16996337 0.16996337 0.16996337
0.17020757 0.17020757 0.17020757
0.17045177 0.17045177 0.17045177
0.17069597 0.17069597 0.17069597
0.17094017 0.17094017 0.17094017
0.17118437 0.17118437 0.17118437
0.17142857 0.17142857 0.17142857
0.17167277 0.17167277 0.17167277
0.17191697 0.17191697 0.17191697
0.17216117 0.17216117 0.17216117
0.17240537 0.17240537 0.17240537
0.17264957 0.17264957 0.17264957
0.17289377 0.17289377 0.17289377
0.17313797 0.17313797 0.17313797
0.17338217 0.17338217 0.17338217
0.17362637 0.17362637 0.17362637
0.17387057 0.17387057 0.17387057
0.17411477 0.17411477 0.17411477
0.17435897 0.17435897 0.17435897
0.17460317 0.17460317 0.17460317
0.17484737 0.17484737 0.17484737
0.17509158 0.17509158 0.17509158
0.17533578 0.17533578 0.17533578
0.17557998 0.17557998 0.17557998
0.17582418 0.17582418 0.17582418
0.17606838 0.17606838 0.17606838
0.17631258 0.17631258 0.17631258
