luts/film/imax65.cube
TITLE "spektrafilm negative scan kodak_vision3_250d {"black": 0.0, "blue_rot": -8, "cast_a": -0.01, "cast_b": 0.022, "contrast": 2.0, "crossover": 1, "density": 0.45, "dir": 1.2, "ev": 0.5, "flare": 0.005, "green": 0.6, "green_dark": 0.15, "green_hue": 125, "green_rot": -6, "green_width": 55, "grey": 0.43, "peak": 48, "red_hue": 20, "red_rot": 14, "red_sat": 0.75, "red_width": 40, "sat": 0.95} display=apple"
# film: spektrafilm by Andrea Volpato / https://github.com/andreavolpato/spektrafilm / CC BY-SA 4.0
LUT_3D_SIZE 5
0.000015 0.000010 0.000010
0.000015 0.000010 0.000010
0.068548 0.201904 0.001148
0.815523 0.001045 0.485977
0.837969 0.185384 0.273703
0.000015 0.000010 0.000010
0.000015 0.000010 0.000010
0.509873 0.004735 0.368304
0.761581 0.195553 0.000000
0.832056 0.225651 0.232988
0.166703 0.402769 0.000000
0.223364 0.511873 0.000000
0.453942 0.293575 0.000000
0.693365 0.268839 0.000000
0.820110 0.311040 0.179692
0.324434 0.709411 0.000000
0.327443 0.708891 0.000000
0.345159 0.705875 0.000000
0.720235 0.721022 0.188871
0.894414 0.651164 0.045271
0.507331 0.715432 0.079624
0.510142 0.715272 0.082347
0.516924 0.714912 0.088555
0.605701 0.729831 0.165170
0.832741 0.812278 0.297529
0.000015 0.000010 0.000010
0.000015 0.000010 0.000010
0.523269 0.000000 0.443964
0.772085 0.180971 0.004753
0.829693 0.241928 0.220039
0.000015 0.000010 0.000010
0.004686 0.005472 0.003453
0.497720 0.170434 0.000000
0.693460 0.254743 0.000000
0.824597 0.276849 0.196536
0.256501 0.579728 0.000000
0.253593 0.573218 0.000000
0.368058 0.400122 0.068137
0.707745 0.296452 0.000000
0.816343 0.354265 0.166835
0.323719 0.707809 0.000000
0.327042 0.707122 0.000000
0.346279 0.704119 0.000000
0.718762 0.719907 0.188936
0.891123 0.665582 0.072863
0.507383 0.715814 0.084307
0.510239 0.715659 0.086861
0.517232 0.715315 0.093359
0.607954 0.731520 0.172503
0.834734 0.814729 0.307933
0.000000 0.146599 0.360817
0.000000 0.169620 0.404216
0.533507 0.000000 0.655536
0.804676 0.000000 0.615420
0.849367 0.151444 0.405796
0.000000 0.173983 0.412343
0.000000 0.162700 0.391402
0.457520 0.000000 0.462432
0.807593 0.006749 0.463322
0.849712 0.192689 0.367288
0.000000 0.628200 0.533029
0.000000 0.577969 0.451855
0.367395 0.373672 0.318477
0.773337 0.195759 0.117060
0.843639 0.290262 0.291952
0.304504 0.711154 0.002045
0.309823 0.710697 0.011101
0.338280 0.705053 0.027088
0.722995 0.716560 0.208841
0.913268 0.656866 0.164730
0.507907 0.717779 0.103689
0.510855 0.717677 0.106730
0.518077 0.717395 0.113776
0.614760 0.737809 0.198711
0.840211 0.821482 0.335653
0.000000 0.346136 0.652790
0.000000 0.312690 0.620653
0.066951 0.125749 0.812749
0.777608 0.000000 0.758935
0.838816 0.068820 0.778349
0.000000 0.417150 0.708206
0.000000 0.380256 0.680426
0.013725 0.216713 0.805903
0.777832 0.000940 0.757738
0.838681 0.085880 0.775563
0.000000 0.594793 0.799174
0.000000 0.550614 0.781824
0.000000 0.436139 0.781217
0.767501 0.125106 0.743204
0.838272 0.131538 0.767376
0.023268 0.904579 0.810413
0.059833 0.902311 0.806078
0.190308 0.897074 0.798790
0.838076 0.852648 0.771018
0.912524 0.578436 0.705029
0.538545 0.851360 0.495491
0.544444 0.852197 0.498454
0.560226 0.853998 0.505514
0.696160 0.859232 0.549338
0.894372 0.889289 0.580628
0.074395 0.809499 0.849917
0.101006 0.805729 0.849974
0.170188 0.794697 0.850784
0.701779 0.685347 0.874248
0.863104 0.432694 0.821906
0.081370 0.817221 0.851382
0.107247 0.813896 0.851467
0.177026 0.803677 0.852311
0.702017 0.707678 0.878778
0.865876 0.449039 0.824018
0.096075 0.833721 0.854698
0.119911 0.830978 0.854768
0.192094 0.823452 0.855878
0.700446 0.753529 0.886308
0.874692 0.483648 0.831414
0.199206 0.904813 0.871125
0.226313 0.904415 0.871857
0.281289 0.902883 0.873407
0.718655 0.896773 0.897704
0.940298 0.745903 0.885955
0.588766 0.979971 0.896021
0.598087 0.980507 0.896462
0.618983 0.981683 0.897421
0.747362 0.987839 0.902321
0.968255 0.985403 0.900887
