luts/film/imax65.cube
TITLE "spektrafilm negative scan kodak_vision3_250d {"black": 0.0, "blue_rot": -8, "cast_a": -0.01, "cast_b": 0.022, "contrast": 2.0, "crossover": 1, "density": 0.45, "dir": 1.2, "ev": 0.5, "flare": 0.005, "green": 0.6, "green_dark": 0.15, "green_hue": 125, "green_rot": -6, "green_width": 55, "grey": 0.43, "peak": 48, "red_hue": 20, "red_rot": 14, "red_sat": 0.75, "red_width": 40, "sat": 0.95} display=apple"
# film: spektrafilm by Andrea Volpato / https://github.com/andreavolpato/spektrafilm / CC BY-SA 4.0
LUT_3D_SIZE 65
0.000015 0.000010 0.000010
0.000015 0.000010 0.000010
0.000015 0.000010 0.000010
0.000015 0.000010 0.000010
0.000015 0.000010 0.000010
0.000015 0.000010 0.000010
0.000015 0.000010 0.000010
0.000015 0.000010 0.000010
0.000015 0.000010 0.000010
0.000015 0.000010 0.000010
0.000015 0.000010 0.000010
0.000015 0.000010 0.000010
0.000015 0.000010 0.000010
0.000015 0.000010 0.000010
0.000015 0.000010 0.000010
0.000015 0.000010 0.000010
0.000015 0.000010 0.000010
0.000015 0.000010 0.000010
0.000015 0.000010 0.000010
0.000015 0.000010 0.000010
0.000015 0.000010 0.000010
0.000015 0.000010 0.000010
0.000015 0.000010 0.000010
0.000015 0.000010 0.000010
0.000015 0.000010 0.000010
0.000015 0.000010 0.000010
0.000015 0.000010 0.000010
0.000015 0.000010 0.000010
0.000015 0.000010 0.000010
0.000000 0.000475 0.001982
0.000000 0.021319 0.085470
0.144675 0.360234 0.000000
0.068548 0.201904 0.001148
0.319129 0.091016 0.000000
0.532968 0.075467 0.094228
0.557783 0.004439 0.389157
0.574454 0.000000 0.497863
0.609056 0.000000 0.541608
0.646641 0.000000 0.557696
0.680403 0.000000 0.568973
0.708805 0.000000 0.575711
0.734031 0.000000 0.584716
0.752195 0.000000 0.576407
0.767633 0.000000 0.572163
0.781740 0.000000 0.574853
0.792843 0.000000 0.559738
0.801560 0.000000 0.528574
0.809908 0.000000 0.506960
0.815523 0.001045 0.485977
0.820374 0.012655 0.446502
0.824236 0.030642 0.396673
0.825135 0.053532 0.342567
0.822786 0.083934 0.281691
0.819179 0.108625 0.233354
0.815149 0.126637 0.195331
0.811335 0.139897 0.164876
0.809472 0.147398 0.147149
0.809633 0.150821 0.140990
0.811649 0.151151 0.146346
0.814494 0.150679 0.158287
0.817984 0.150718 0.174869
0.822042 0.154178 0.194068
0.826833 0.159791 0.216865
0.832540 0.171299 0.245311
0.837969 0.185384 0.273703
0.000015 0.000010 0.000010
0.000015 0.000010 0.000010
0.000015 0.000010 0.000010
0.000015 0.000010 0.000010
0.000015 0.000010 0.000010
0.000015 0.000010 0.000010
0.000015 0.000010 0.000010
0.000015 0.000010 0.000010
0.000015 0.000010 0.000010
0.000015 0.000010 0.000010
0.000015 0.000010 0.000010
0.000015 0.000010 0.000010
0.000015 0.000010 0.000010
0.000015 0.000010 0.000010
0.000015 0.000010 0.000010
0.000015 0.000010 0.000010
0.000015 0.000010 0.000010
0.000015 0.000010 0.000010
0.000015 0.000010 0.000010
0.000015 0.000010 0.000010
0.000015 0.000010 0.000010
0.000015 0.000010 0.000010
0.000015 0.000010 0.000010
0.000015 0.000010 0.000010
0.000015 0.000010 0.000010
0.000015 0.000010 0.000010
0.000015 0.000010 0.000010
0.000015 0.000010 0.000010
0.003398 0.011923 0.000391
0.057653 0.188653 0.000712
0.130021 0.332041 0.000000
0.046578 0.126265 0.003371
0.324741 0.093425 0.000000
0.497679 0.058426 0.107992
0.528778 0.005932 0.364771
0.552362 0.000000 0.471159
0.588995 0.000000 0.514145
0.631494 0.000000 0.529775
0.664167 0.000000 0.539058
0.693829 0.000000 0.546058
0.721630 0.000000 0.553167
0.742255 0.000000 0.543263
0.760317 0.000000 0.539286
0.774336 0.000000 0.539847
0.787639 0.000000 0.522580
0.798128 0.000000 0.490293
0.806504 0.004166 0.470183
0.813269 0.012245 0.445282
0.817890 0.027150 0.403147
0.820655 0.047784 0.352977
0.819810 0.077288 0.291668
0.815590 0.106392 0.235260
0.810974 0.127489 0.190538
0.806623 0.143901 0.151832
0.802620 0.156110 0.118646
0.801065 0.161766 0.102040
0.801374 0.163908 0.097343
0.803201 0.164231 0.101665
0.806105 0.163502 0.112926
0.809865 0.162486 0.130733
0.814162 0.162226 0.152120
0.818941 0.165616 0.175338
0.824542 0.170495 0.202311
0.830757 0.182767 0.232654
0.836362 0.195971 0.261255
0.000015 0.000010 0.000010
0.000015 0.000010 0.000010
0.000015 0.000010 0.000010
0.000015 0.000010 0.000010
0.000015 0.000010 0.000010
0.000015 0.000010 0.000010
0.000015 0.000010 0.000010
0.000015 0.000010 0.000010
0.000015 0.000010 0.000010
0.000015 0.000010 0.000010
0.000015 0.000010 0.000010
0.000015 0.000010 0.000010
0.000015 0.000010 0.000010
0.000015 0.000010 0.000010
0.000015 0.000010 0.000010
0.000015 0.000010 0.000010
0.000015 0.000010 0.000010
0.000015 0.000010 0.000010
0.000015 0.000010 0.000010
0.000015 0.000010 0.000010
0.000015 0.000010 0.000010
0.000015 0.000010 0.000010
0.000015 0.000010 0.000010
0.000015 0.000010 0.000010
0.000015 0.000010 0.000010
0.000015 0.000010 0.000010
0.000015 0.000010 0.000010
0.000030 0.000067 0.000013
0.020978 0.078202 0.001384
0.087632 0.250923 0.000000
0.117521 0.308026 0.000000
0.143761 0.030673 0.000000
0.444553 0.146908 0.000000
0.498497 0.017575 0.260294
0.523784 0.000601 0.417722
0.558879 0.000000 0.479992
0.600692 0.000000 0.510446
0.640047 0.000000 0.521952
0.671316 0.000000 0.527165
0.700496 0.000000 0.536060
0.725787 0.000000 0.533788
0.746652 0.000000 0.524811
0.763729 0.000000 0.525987
0.777064 0.000000 0.516874
0.790751 0.000000 0.489964
0.801043 0.005791 0.462869
0.808448 0.011943 0.444554
0.814331 0.025005 0.407521
0.817552 0.043748 0.360752
0.818135 0.070564 0.303537
0.814695 0.102173 0.242703
0.809737 0.125107 0.194555
0.804271 0.144177 0.149325
0.800510 0.156814 0.114691
0.797975 0.164889 0.088898
0.797589 0.168070 0.078602
0.798638 0.168893 0.078772
0.800975 0.168563 0.087165
0.804116 0.167743 0.100444
0.808008 0.166963 0.119508
0.812573 0.167064 0.142727
0.817617 0.170303 0.167557
0.823622 0.174930 0.196676
0.829985 0.187135 0.227562
0.835694 0.200231 0.256451
0.000015 0.000010 0.000010
0.000015 0.000010 0.000010
0.000015 0.000010 0.000010
0.000015 0.000010 0.000010
0.000015 0.000010 0.000010
0.000015 0.000010 0.000010
0.000015 0.000010 0.000010
0.000015 0.000010 0.000010
0.000015 0.000010 0.000010
0.000015 0.000010 0.000010
0.000015 0.000010 0.000010
0.000015 0.000010 0.000010
0.000015 0.000010 0.000010
0.000015 0.000010 0.000010
0.000015 0.000010 0.000010
0.000015 0.000010 0.000010
0.000015 0.000010 0.000010
0.000015 0.000010 0.000010
0.000015 0.000010 0.000010
0.000015 0.000010 0.000010
0.000015 0.000010 0.000010
0.000015 0.000010 0.000010
0.000015 0.000010 0.000010
0.000015 0.000010 0.000010
0.000015 0.000010 0.000010
0.000015 0.000010 0.000010
0.000015 0.000010 0.000010
0.001048 0.003579 0.000143
0.040108 0.142405 0.001419
0.108098 0.290009 0.000000
0.041055 0.136265 0.001919
0.274219 0.070783 0.000000
0.462576 0.067937 0.054483
0.495802 0.008753 0.322867
0.524667 0.000000 0.438799
0.564607 0.000000 0.484800
0.611076 0.000000 0.503138
0.646370 0.000000 0.513805
0.677907 0.000000 0.519314
0.705888 0.000000 0.526356
0.729677 0.000000 0.515792
0.750197 0.000000 0.511183
0.766232 0.000000 0.512006
0.779721 0.000000 0.494637
0.794216 0.004900 0.464010
0.802680 0.011730 0.443216
0.809633 0.020534 0.418420
0.814395 0.037598 0.374144
0.816140 0.060087 0.323590
0.814276 0.092505 0.260612
0.810055 0.118294 0.208475
0.803950 0.139988 0.158658
0.798916 0.155484 0.116804
0.796299 0.164667 0.087618
0.794732 0.170496 0.066596
0.795059 0.172365 0.061555
0.796635 0.172409 0.065273
0.799351 0.171615 0.075896
0.802664 0.170799 0.091033
0.806599 0.170290 0.110838
0.811378 0.170682 0.135659
0.816619 0.173740 0.161760
0.822926 0.178290 0.192485
0.829388 0.190373 0.223755
0.835257 0.203288 0.253371
0.000015 0.000010 0.000010
0.000015 0.000010 0.000010
0.000015 0.000010 0.000010
0.000015 0.000010 0.000010
0.000015 0.000010 0.000010
0.000015 0.000010 0.000010
0.000015 0.000010 0.000010
0.000015 0.000010 0.000010
0.000015 0.000010 0.000010
0.000015 0.000010 0.000010
0.000015 0.000010 0.000010
0.000015 0.000010 0.000010
0.000015 0.000010 0.000010
0.000015 0.000010 0.000010
0.000015 0.000010 0.000010
0.000015 0.000010 0.000010
0.000015 0.000010 0.000010
0.000015 0.000010 0.000010
0.000015 0.000010 0.000010
0.000015 0.000010 0.000010
0.000015 0.000010 0.000010
0.000015 0.000010 0.000010
0.000015 0.000010 0.000010
0.000015 0.000010 0.000010
0.000015 0.000010 0.000010
0.000015 0.000010 0.000010
0.000015 0.000010 0.000010
0.007251 0.025966 0.000717
0.058284 0.190181 0.000674
0.119820 0.312459 0.000000
0.071036 0.027011 0.000000
0.383455 0.119864 0.000000
0.470499 0.028530 0.182610
0.494398 0.005104 0.358041
0.530575 0.000000 0.446190
0.572192 0.000000 0.484045
0.618316 0.000000 0.497621
0.651630 0.000000 0.504877
0.683693 0.000000 0.512555
0.710641 0.000000 0.513853
0.734557 0.000000 0.501874
0.754114 0.000000 0.501577
0.768933 0.000000 0.496274
0.783801 0.001640 0.473293
0.796179 0.011268 0.442457
0.803870 0.017590 0.424989
0.810185 0.030001 0.391888
0.813702 0.050251 0.343667
0.813594 0.078009 0.286617
0.810337 0.108519 0.227785
0.805296 0.131749 0.177630
0.798674 0.151569 0.126859
0.794836 0.163178 0.090741
0.792920 0.170450 0.064480
0.792157 0.174659 0.049694
0.793053 0.175606 0.048452
0.795025 0.175148 0.054688
0.798006 0.174091 0.066878
0.801471 0.173308 0.083036
0.805529 0.172842 0.104133
0.810399 0.173659 0.129841
0.815793 0.176468 0.156998
0.822346 0.181095 0.189045
0.828896 0.193059 0.220667
0.834887 0.205849 0.250826
0.000015 0.000010 0.000010
0.000015 0.000010 0.000010
0.000015 0.000010 0.000010
0.000015 0.000010 0.000010
0.000015 0.000010 0.000010
0.000015 0.000010 0.000010
0.000015 0.000010 0.000010
0.000015 0.000010 0.000010
0.000015 0.000010 0.000010
0.000015 0.000010 0.000010
0.000015 0.000010 0.000010
0.000015 0.000010 0.000010
0.000015 0.000010 0.000010
0.000015 0.000010 0.000010
0.000015 0.000010 0.000010
0.000015 0.000010 0.000010
0.000015 0.000010 0.000010
0.000015 0.000010 0.000010
0.000015 0.000010 0.000010
0.000015 0.000010 0.000010
0.000015 0.000010 0.000010
0.000015 0.000010 0.000010
0.000015 0.000010 0.000010
0.000015 0.000010 0.000010
0.000015 0.000010 0.000010
0.000015 0.000010 0.000010
0.000049 0.000129 0.000016
0.017783 0.065793 0.001284
0.075406 0.227889 0.000000
0.080536 0.237787 0.000000
0.155961 0.031145 0.000000
0.407746 0.123842 0.000000
0.466597 0.016392 0.243643
0.490572 0.002391 0.389271
0.535571 0.000000 0.451710
0.581395 0.000000 0.478504
0.624220 0.000000 0.491980
0.656968 0.000000 0.497173
0.688665 0.000000 0.505547
0.714925 0.000000 0.499243
0.738901 0.000000 0.490379
0.757572 0.000000 0.492320
0.772496 0.000000 0.480343
0.786148 0.007792 0.451104
0.797651 0.016893 0.424703
0.804680 0.024172 0.405679
0.810136 0.040298 0.365293
0.812123 0.064694 0.311777
0.810213 0.095545 0.252394
0.806257 0.121778 0.198944
0.800347 0.143695 0.147428
0.794284 0.160135 0.099484
0.791410 0.169119 0.067244
0.790126 0.174909 0.046255
0.790029 0.177924 0.036066
0.791378 0.178211 0.037698
0.793694 0.177365 0.046081
0.796856 0.176177 0.059289
0.800440 0.175458 0.075761
0.804608 0.175063 0.098248
0.809558 0.176227 0.124818
0.815080 0.178825 0.152894
0.821788 0.183655 0.185770
0.828470 0.195390 0.218042
0.834560 0.208092 0.248622
0.000015 0.000010 0.000010
0.000015 0.000010 0.000010
0.000015 0.000010 0.000010
0.000015 0.000010 0.000010
0.000015 0.000010 0.000010
0.000015 0.000010 0.000010
0.000015 0.000010 0.000010
0.000015 0.000010 0.000010
0.000015 0.000010 0.000010
0.000015 0.000010 0.000010
0.000015 0.000010 0.000010
0.000015 0.000010 0.000010
0.000015 0.000010 0.000010
0.000015 0.000010 0.000010
0.000015 0.000010 0.000010
0.000015 0.000010 0.000010
0.000015 0.000010 0.000010
0.000015 0.000010 0.000010
0.000015 0.000010 0.000010
0.000015 0.000010 0.000010
0.000015 0.000010 0.000010
0.000015 0.000010 0.000010
0.000015 0.000010 0.000010
0.000015 0.000010 0.000010
0.000015 0.000010 0.000010
0.000015 0.000010 0.000010
0.000591 0.001989 0.000088
0.030267 0.112038 0.001514
0.090802 0.256967 0.000000
0.030322 0.103531 0.001892
0.251298 0.061514 0.000000
0.431325 0.064119 0.040454
0.466832 0.010066 0.292905
0.493116 0.001352 0.403906
0.540897 0.000000 0.455018
0.589647 0.000000 0.472585
0.629341 0.000000 0.484964
0.662541 0.000000 0.491082
0.693145 0.000000 0.497506
0.719222 0.000000 0.485626
0.742835 0.000000 0.480312
0.760867 0.000000 0.481007
0.774812 0.003648 0.463064
0.788112 0.014198 0.429716
0.798652 0.022205 0.408834
0.805087 0.031910 0.384352
0.809459 0.051668 0.338173
0.809693 0.080417 0.279783
0.806679 0.109424 0.223668
0.801788 0.133978 0.170354
0.795724 0.153507 0.119341
0.790665 0.166598 0.074941
0.788478 0.173861 0.047961
0.787681 0.178577 0.030716
0.788142 0.180685 0.024161
0.789835 0.180528 0.027922
0.792535 0.179261 0.038668
0.795838 0.177996 0.052658
0.799505 0.177387 0.069484
0.803800 0.177014 0.092992
0.808816 0.178508 0.120353
0.814450 0.180916 0.149277
0.821271 0.185979 0.182779
0.828087 0.197484 0.215709
0.834270 0.210117 0.246704
0.000015 0.000010 0.000010
0.000015 0.000010 0.000010
0.000015 0.000010 0.000010
0.000015 0.000010 0.000010
0.000015 0.000010 0.000010
0.000015 0.000010 0.000010
0.000015 0.000010 0.000010
0.000015 0.000010 0.000010
0.000015 0.000010 0.000010
0.000015 0.000010 0.000010
0.000015 0.000010 0.000010
0.000015 0.000010 0.000010
0.000015 0.000010 0.000010
0.000015 0.000010 0.000010
0.000015 0.000010 0.000010
0.000015 0.000010 0.000010
0.000015 0.000010 0.000010
0.000015 0.000010 0.000010
0.000015 0.000010 0.000010
0.000015 0.000010 0.000010
0.000015 0.000010 0.000010
0.000015 0.000010 0.000010
0.000015 0.000010 0.000010
0.000015 0.000010 0.000010
0.000015 0.000010 0.000010
0.000015 0.000010 0.000010
0.003458 0.012139 0.000397
0.042671 0.149696 0.001357
0.102599 0.279489 0.000000
0.039566 0.023043 0.000000
0.343941 0.102050 0.000000
0.438686 0.033484 0.136281
0.465910 0.007059 0.322479
0.498405 0.000872 0.411228
0.547812 0.000000 0.454259
0.596300 0.000000 0.467763
0.633989 0.000000 0.477105
0.667809 0.000000 0.485042
0.697227 0.000000 0.486944
0.723634 0.000000 0.473564
0.746419 0.000000 0.471962
0.763443 0.001710 0.467662
0.776734 0.008994 0.443634
0.789652 0.020355 0.410607
0.799365 0.027851 0.392806
0.805059 0.040719 0.361660
0.807986 0.065060 0.308648
0.806667 0.095698 0.249888
0.802935 0.121536 0.197195
0.797285 0.144660 0.142805
0.791826 0.160982 0.094616
0.787424 0.171961 0.053362
0.785838 0.177868 0.031062
0.785596 0.181535 0.017649
0.786552 0.182913 0.014207
0.788507 0.182463 0.019563
0.791409 0.181057 0.031528
0.794928 0.179628 0.046791
0.798652 0.179141 0.063811
0.803079 0.178759 0.088215
0.808143 0.180516 0.116281
0.813884 0.182805 0.146022
0.820802 0.188149 0.180081
0.827736 0.199397 0.213595
0.834004 0.211971 0.244964
0.000015 0.000010 0.000010
0.000015 0.000010 0.000010
0.000015 0.000010 0.000010
0.000015 0.000010 0.000010
0.000015 0.000010 0.000010
0.000015 0.000010 0.000010
0.000015 0.000010 0.000010
0.000015 0.000010 0.000010
0.000015 0.000010 0.000010
0.000015 0.000010 0.000010
0.000015 0.000010 0.000010
0.000015 0.000010 0.000010
0.000015 0.000010 0.000010
0.000015 0.000010 0.000010
0.000015 0.000010 0.000010
0.000015 0.000010 0.000010
0.000015 0.000010 0.000010
0.000015 0.000010 0.000010
0.000015 0.000010 0.000010
0.000015 0.000010 0.000010
0.000015 0.000010 0.000010
0.000015 0.000010 0.000010
0.000015 0.000010 0.000010
0.000015 0.000010 0.000010
0.000015 0.000010 0.000010
0.000023 0.000042 0.000012
0.009515 0.034371 0.000874
0.054964 0.182052 0.000862
0.078849 0.234599 0.000000
0.105515 0.019683 0.000000
0.383367 0.119193 0.000000
0.438074 0.020033 0.197856
0.463006 0.004845 0.347607
0.503601 0.000470 0.417239
0.555961 0.000000 0.449547
0.602089 0.000000 0.462727
0.638778 0.000000 0.469763
0.672652 0.000000 0.478412
0.701098 0.000000 0.473898
0.727664 0.000795 0.462374
0.749083 0.001837 0.463311
0.765246 0.005647 0.452445
0.778429 0.015113 0.422906
0.790900 0.026047 0.394075
0.799770 0.034225 0.375612
0.804478 0.050935 0.337111
0.805806 0.079364 0.279401
0.803450 0.108406 0.223552
0.798677 0.133269 0.169678
0.793011 0.153687 0.116572
0.788376 0.167080 0.070965
0.784567 0.176386 0.034929
0.783538 0.181152 0.016553
0.783844 0.183891 0.006747
0.785196 0.184740 0.005746
0.787348 0.184105 0.012295
0.790405 0.182634 0.025195
0.794104 0.181100 0.041508
0.797873 0.180739 0.058685
0.802427 0.180346 0.083813
0.807530 0.182312 0.112538
0.813364 0.184538 0.143040
0.820370 0.190157 0.177611
0.827411 0.201168 0.211658
0.833756 0.213724 0.243371
0.000015 0.000010 0.000010
0.000015 0.000010 0.000010
0.000015 0.000010 0.000010
0.000015 0.000010 0.000010
0.000015 0.000010 0.000010
0.000015 0.000010 0.000010
0.000015 0.000010 0.000010
0.000015 0.000010 0.000010
0.000015 0.000010 0.000010
0.000015 0.000010 0.000010
0.000015 0.000010 0.000010
0.000015 0.000010 0.000010
0.000015 0.000010 0.000010
0.000015 0.000010 0.000010
0.000015 0.000010 0.000010
0.000015 0.000010 0.000010
0.000015 0.000010 0.000010
0.000015 0.000010 0.000010
0.000015 0.000010 0.000010
0.000015 0.000010 0.000010
0.000015 0.000010 0.000010
0.000015 0.000010 0.000010
0.000015 0.000010 0.000010
0.000015 0.000010 0.000010
0.000015 0.000010 0.000010
0.000143 0.000449 0.000029
0.017448 0.064503 0.001272
0.067390 0.211437 0.000042
0.034943 0.125731 0.001562
0.193302 0.041266 0.000000
0.393486 0.071907 0.000000
0.438356 0.013711 0.240705
0.463550 0.003797 0.362165
0.508984 0.000157 0.421845
0.563937 0.000000 0.443377
0.607459 0.000000 0.456623
0.643883 0.000000 0.463749
0.677146 0.000000 0.471078
0.705105 0.000020 0.460577
0.730753 0.003245 0.452044
0.751330 0.004496 0.452783
0.766955 0.010175 0.435918
0.779806 0.021580 0.402544
0.791903 0.031544 0.378996
0.799778 0.041753 0.356368
0.803195 0.063105 0.309916
0.803154 0.093419 0.251985
0.800019 0.119787 0.198774
0.794378 0.143618 0.143065
0.789391 0.160655 0.093318
0.785198 0.172290 0.049937
0.781985 0.180135 0.018547
0.781610 0.183744 0.004472
0.781040 0.187538 0.000000
0.783204 0.187350 0.000000
0.786328 0.185514 0.005897
0.789503 0.184036 0.019521
0.793298 0.182516 0.036362
0.797166 0.182162 0.054061
0.801830 0.181803 0.079478
0.807009 0.183900 0.109337
0.812883 0.186146 0.140281
0.819968 0.192032 0.175326
0.827105 0.202822 0.209850
0.833524 0.215369 0.241895
0.000015 0.000010 0.000010
0.000015 0.000010 0.000010
0.000015 0.000010 0.000010
0.000015 0.000010 0.000010
0.000015 0.000010 0.000010
0.000015 0.000010 0.000010
0.000015 0.000010 0.000010
0.000015 0.000010 0.000010
0.000015 0.000010 0.000010
0.000015 0.000010 0.000010
0.000015 0.000010 0.000010
0.000015 0.000010 0.000010
0.000015 0.000010 0.000010
0.000015 0.000010 0.000010
0.000015 0.000010 0.000010
0.000015 0.000010 0.000010
0.000015 0.000010 0.000010
0.000015 0.000010 0.000010
0.000015 0.000010 0.000010
0.000015 0.000010 0.000010
0.000015 0.000010 0.000010
0.000015 0.000010 0.000010
0.000015 0.000010 0.000010
0.000015 0.000010 0.000010
0.000015 0.000010 0.000010
0.000877 0.002982 0.000123
0.026946 0.100705 0.001494
0.080305 0.237429 0.000000
0.018851 0.033028 0.002582
0.273841 0.070571 0.000000
0.395730 0.045265 0.060901
0.438766 0.009939 0.274478
0.467194 0.003364 0.369566
0.515723 0.000097 0.423061
0.570398 0.000000 0.438506
0.612305 0.000000 0.449328
0.649005 0.000000 0.458064
0.681358 0.000000 0.461849
0.708329 0.002668 0.448268
0.733631 0.005455 0.443264
0.753258 0.007790 0.440176
0.768538 0.015395 0.418006
0.780941 0.028044 0.383605
0.792610 0.037210 0.364191
0.799290 0.050959 0.334208
0.801248 0.076383 0.282293
0.800322 0.105399 0.227352
0.796025 0.131119 0.172444
0.790230 0.152494 0.117440
0.786044 0.166606 0.070204
0.782221 0.176837 0.030856
0.779802 0.183113 0.004755
0.776797 0.189978 0.000000
0.775399 0.194686 0.000000
0.778647 0.193201 0.000000
0.785426 0.186746 0.000239
0.788683 0.185297 0.014365
0.792521 0.183864 0.031421
0.796519 0.183460 0.049859
0.801284 0.183152 0.075745
0.806534 0.185367 0.106398
0.812436 0.187649 0.137705
0.819591 0.193794 0.173197
0.826813 0.204378 0.208146
0.833305 0.216921 0.240516
0.000015 0.000010 0.000010
0.000015 0.000010 0.000010
0.000015 0.000010 0.000010
0.000015 0.000010 0.000010
0.000015 0.000010 0.000010
0.000015 0.000010 0.000010
0.000015 0.000010 0.000010
0.000015 0.000010 0.000010
0.000015 0.000010 0.000010
0.000015 0.000010 0.000010
0.000015 0.000010 0.000010
0.000015 0.000010 0.000010
0.000015 0.000010 0.000010
0.000015 0.000010 0.000010
0.000015 0.000010 0.000010
0.000015 0.000010 0.000010
0.000015 0.000010 0.000010
0.000015 0.000010 0.000010
0.000015 0.000010 0.000010
0.000015 0.000010 0.000010
0.000015 0.000010 0.000010
0.000015 0.000010 0.000010
0.000015 0.000010 0.000010
0.000015 0.000010 0.000010
0.000015 0.000013 0.000010
0.003300 0.011574 0.000382
0.036404 0.131459 0.001481
0.079582 0.236038 0.000000
0.049445 0.011164 0.000000
0.352161 0.105746 0.000000
0.403676 0.026132 0.136808
0.436747 0.007295 0.302310
0.471316 0.003015 0.375788
0.524170 0.000428 0.419817
0.576144 0.000000 0.433640
0.617076 0.000000 0.441814
0.653828 0.000000 0.451686
0.684833 0.001123 0.449741
0.711614 0.005281 0.436950
0.736329 0.007607 0.435120
0.754972 0.011639 0.426105
0.769953 0.021465 0.398531
0.781880 0.034085 0.367061
0.792914 0.043512 0.348409
0.798189 0.061876 0.309599
0.798863 0.089706 0.256297
0.797188 0.116385 0.203723
0.791839 0.141476 0.146199
0.786631 0.159505 0.094267
0.782923 0.171754 0.049487
0.779532 0.180661 0.013906
0.774108 0.190494 0.000000
0.770487 0.197799 0.000000
0.770562 0.200558 0.000000
0.774612 0.198202 0.000000
0.781882 0.191404 0.000000
0.787930 0.186434 0.009626
0.791795 0.185115 0.026819
0.795924 0.184658 0.046013
0.800764 0.184432 0.072217
0.806092 0.186746 0.103637
0.812016 0.189063 0.135288
0.819235 0.195462 0.171199
0.826536 0.205850 0.206545
0.833096 0.218392 0.239220
0.000015 0.000010 0.000010
0.000015 0.000010 0.000010
0.000015 0.000010 0.000010
0.000015 0.000010 0.000010
0.000015 0.000010 0.000010
0.000015 0.000010 0.000010
0.000015 0.000010 0.000010
0.000015 0.000010 0.000010
0.000015 0.000010 0.000010
0.000015 0.000010 0.000010
0.000015 0.000010 0.000010
0.000015 0.000010 0.000010
0.000015 0.000010 0.000010
0.000015 0.000010 0.000010
0.000015 0.000010 0.000010
0.000015 0.000010 0.000010
0.000015 0.000010 0.000010
0.000015 0.000010 0.000010
0.000015 0.000010 0.000010
0.000015 0.000010 0.000010
0.000015 0.000010 0.000010
0.000015 0.000010 0.000010
0.000015 0.000010 0.000010
0.000015 0.000010 0.000010
0.000032 0.000072 0.000013
0.007885 0.028308 0.000763
0.045831 0.158397 0.001261
0.047581 0.162982 0.001207
0.114430 0.020775 0.000000
0.347180 0.098688 0.000000
0.401258 0.017301 0.183074
0.435079 0.005678 0.322722
0.475322 0.002703 0.381329
0.533490 0.001141 0.413245
0.581205 0.000619 0.427980
0.621890 0.000902 0.435168
0.658080 0.000815 0.444675
0.687617 0.003872 0.436139
0.714809 0.007876 0.426405
0.738779 0.010070 0.426044
0.756580 0.016066 0.410776
0.771118 0.028039 0.378885
0.782660 0.039849 0.352178
0.792739 0.051620 0.329059
0.796485 0.073989 0.284045
0.796372 0.100922 0.233431
0.793499 0.127446 0.178504
0.787730 0.150507 0.120631
0.783199 0.165647 0.070586
0.779907 0.176377 0.030124
0.776986 0.184043 0.000000
0.767044 0.199190 0.000000
0.765132 0.204122 0.000000
0.766386 0.205440 0.000000
0.771007 0.202535 0.000000
0.778555 0.195663 0.000000
0.787237 0.187467 0.005268
0.791119 0.186273 0.022546
0.795372 0.185770 0.042470
0.800275 0.185671 0.068929
0.805676 0.188051 0.101030
0.811620 0.190406 0.133008
0.818899 0.197048 0.169316
0.826273 0.207251 0.205034
0.832896 0.219793 0.237997
0.000015 0.000010 0.000010
0.000015 0.000010 0.000010
0.000015 0.000010 0.000010
0.000015 0.000010 0.000010
0.000015 0.000010 0.000010
0.000015 0.000010 0.000010
0.000015 0.000010 0.000010
0.000015 0.000010 0.000010
0.000015 0.000010 0.000010
0.000015 0.000010 0.000010
0.000015 0.000010 0.000010
0.000015 0.000010 0.000010
0.000015 0.000010 0.000010
0.000015 0.000010 0.000010
0.000015 0.000010 0.000010
0.000015 0.000010 0.000010
0.000015 0.000010 0.000010
0.000015 0.000010 0.000010
0.000015 0.000010 0.000010
0.000015 0.000010 0.000010
0.000015 0.000010 0.000010
0.000015 0.000010 0.000010
0.000015 0.000010 0.000010
0.000015 0.000010 0.000010
