luts/film/imax65.cube
TITLE "spektrafilm negative scan kodak_vision3_250d {"black": 0.0, "blue_rot": -8, "cast_a": -0.01, "cast_b": 0.022, "contrast": 2.0, "crossover": 1, "density": 0.45, "dir": 1.2, "ev": 0.5, "flare": 0.005, "green": 0.6, "green_dark": 0.15, "green_hue": 125, "green_rot": -6, "green_width": 55, "grey": 0.43, "peak": 48, "red_hue": 20, "red_rot": 14, "red_sat": 0.75, "red_width": 40, "sat": 0.95} display=apple"
# film: spektrafilm by Andrea Volpato / https://github.com/andreavolpato/spektrafilm / CC BY-SA 4.0
LUT_3D_SIZE 9
0.000015 0.000010 0.000010
0.000015 0.000010 0.000010
0.000015 0.000010 0.000010
0.000015 0.000010 0.000010
0.068548 0.201904 0.001148
0.708805 0.000000 0.575711
0.815523 0.001045 0.485977
0.809472 0.147398 0.147149
0.837969 0.185384 0.273703
0.000015 0.000010 0.000010
0.000015 0.000010 0.000010
0.000015 0.000010 0.000010
0.000015 0.000010 0.000010
0.463006 0.004845 0.347607
0.749083 0.001837 0.463311
0.798677 0.133269 0.169678
0.790405 0.182634 0.025195
0.833756 0.213724 0.243371
0.000015 0.000010 0.000010
0.000015 0.000010 0.000010
0.000015 0.000010 0.000010
0.008767 0.031581 0.000825
0.509873 0.004735 0.368304
0.761838 0.047776 0.320690
0.761581 0.195553 0.000000
0.778084 0.199601 0.000000
0.832056 0.225651 0.232988
0.000015 0.000010 0.000010
0.000015 0.000010 0.000010
0.001661 0.000285 0.000000
0.303431 0.029786 0.039744
0.567491 0.181795 0.000000
0.658242 0.241915 0.000000
0.695833 0.254863 0.000000
0.748413 0.235517 0.000000
0.828662 0.249561 0.214844
0.166703 0.402769 0.000000
0.237779 0.539658 0.000000
0.223364 0.511873 0.000000
0.185525 0.394340 0.000000
0.453942 0.293575 0.000000
0.635468 0.260955 0.000000
0.693365 0.268839 0.000000
0.732770 0.276214 0.000000
0.820110 0.311040 0.179692
0.305378 0.683528 0.000000
0.305860 0.684026 0.000000
0.305301 0.682311 0.000000
0.304111 0.675398 0.000000
0.332278 0.635618 0.000000
0.579706 0.586750 0.122415
0.803100 0.490396 0.000000
0.800529 0.396025 0.000000
0.826354 0.431336 0.159000
0.324434 0.709411 0.000000
0.326290 0.709112 0.000000
0.327443 0.708891 0.000000
0.330731 0.708301 0.000000
0.345159 0.705875 0.000000
0.459131 0.690962 0.037198
0.720235 0.721022 0.188871
0.813956 0.700685 0.051444
0.894414 0.651164 0.045271
0.377790 0.717515 0.000000
0.381601 0.717419 0.000000
0.383375 0.717371 0.000000
0.387091 0.717253 0.000000
0.397227 0.716852 0.000400
0.443300 0.713287 0.027309
0.621818 0.724933 0.164856
0.790923 0.774819 0.214598
0.833829 0.787371 0.250167
0.507331 0.715432 0.079624
0.509318 0.715318 0.081603
0.510142 0.715272 0.082347
0.511891 0.715176 0.083941
0.516924 0.714912 0.088555
0.533597 0.715147 0.103517
0.605701 0.729831 0.165170
0.748927 0.773496 0.246886
0.832741 0.812278 0.297529
0.000015 0.000010 0.000010
0.000015 0.000010 0.000010
0.000015 0.000010 0.000010
0.000000 0.000052 0.000345
0.492308 0.004344 0.365710
0.760583 0.044656 0.327777
0.763731 0.192779 0.000000
0.778309 0.199266 0.000000
0.832054 0.225385 0.233003
0.000015 0.000010 0.000010
0.000015 0.000010 0.000010
0.000051 0.000080 0.000017
0.281064 0.036406 0.011838
0.556795 0.192056 0.000000
0.656455 0.241636 0.000000
0.695049 0.255194 0.000000
0.747263 0.236831 0.000000
0.828436 0.250826 0.213738
0.000015 0.000010 0.000010
0.000167 0.000530 0.000032
0.007965 0.001841 0.000000
0.253423 0.062368 0.000000
0.525546 0.183793 0.000000
0.648639 0.238916 0.000000
0.691668 0.256637 0.000000
0.740786 0.245419 0.000000
0.826889 0.261547 0.206480
0.000015 0.000010 0.000010
0.142583 0.356203 0.000000
0.127490 0.326990 0.000000
0.146461 0.174144 0.020982
0.452074 0.167871 0.000000
0.632760 0.234341 0.000000
0.689794 0.258603 0.000000
0.733943 0.260144 0.000000
0.823539 0.283976 0.192218
0.250252 0.566177 0.000000
0.270495 0.610071 0.000000
0.268230 0.605026 0.000000
0.248541 0.554619 0.000000
0.369459 0.424261 0.064901
0.670503 0.335620 0.000000
0.708615 0.298058 0.000000
0.738614 0.297704 0.000000
0.817147 0.341940 0.169949
0.307306 0.687425 0.000000
0.307564 0.687356 0.000000
0.307193 0.685953 0.000000
0.306793 0.680938 0.000000
0.329488 0.651063 0.000000
0.569237 0.604352 0.133078
0.795517 0.540595 0.000000
0.816291 0.420625 0.000000
0.834673 0.446551 0.154664
0.324249 0.708692 0.000000
0.326195 0.708313 0.000000
0.327392 0.708081 0.000000
0.330835 0.707411 0.000000
0.345840 0.705126 0.000000
0.458383 0.690348 0.036783
0.718579 0.721052 0.189725
0.812563 0.704724 0.065210
0.888300 0.666631 0.062282
0.377803 0.717311 0.000000
0.381723 0.717219 0.000000
0.383547 0.717172 0.000000
0.387275 0.717051 0.000000
0.397854 0.716564 0.001052
0.445398 0.712799 0.029220
0.624870 0.725579 0.167846
0.791597 0.775229 0.217544
0.835512 0.789041 0.258898
0.507331 0.715679 0.082780
0.509329 0.715569 0.084546
0.510169 0.715522 0.085287
0.511961 0.715426 0.086889
0.517102 0.715170 0.091662
0.534635 0.715965 0.107966
0.607247 0.730945 0.170012
0.750444 0.774951 0.252750
0.834103 0.813953 0.304661
0.000015 0.000010 0.000010
0.000015 0.000010 0.000010
0.000015 0.000010 0.000010
0.131416 0.002987 0.078850
0.523269 0.000000 0.443964
0.764454 0.021436 0.396155
0.772085 0.180971 0.004753
0.772091 0.207795 0.000000
0.829693 0.241928 0.220039
0.000015 0.000010 0.000010
0.000000 0.000868 0.003543
0.036190 0.001826 0.072809
0.327163 0.022134 0.087451
0.581539 0.123552 0.014043
0.661521 0.230959 0.000000
0.699086 0.251547 0.000000
0.747372 0.238553 0.000000
0.826208 0.266162 0.203440
0.000015 0.000010 0.000010
0.000334 0.020686 0.011995
0.004686 0.005472 0.003453
0.203728 0.043215 0.000000
0.497720 0.170434 0.000000
0.644300 0.236089 0.000000
0.693460 0.254743 0.000000
0.742213 0.246675 0.000000
0.824597 0.276849 0.196536
0.026415 0.098881 0.001514
0.129075 0.331032 0.000000
0.099762 0.274524 0.000000
0.138928 0.149689 0.019324
0.437787 0.159653 0.000000
0.628996 0.232273 0.000000
0.690161 0.258139 0.000000
0.736762 0.260611 0.000000
0.821444 0.298960 0.184198
0.256501 0.579728 0.000000
0.261134 0.589764 0.000000
0.253593 0.573218 0.000000
0.229012 0.510816 0.000000
0.368058 0.400122 0.068137
0.662314 0.324583 0.000000
0.707745 0.296452 0.000000
0.741864 0.299273 0.000000
0.816343 0.354265 0.166835
0.305903 0.684510 0.000000
0.305211 0.682379 0.000000
0.304682 0.680521 0.000000
0.303928 0.673802 0.000000
0.328071 0.639394 0.000000
0.568336 0.595767 0.129822
0.797515 0.529639 0.000000
0.816299 0.418458 0.000000
0.838188 0.452018 0.153612
0.323719 0.707809 0.000000
0.325758 0.707349 0.000000
0.327042 0.707122 0.000000
0.330703 0.706461 0.000000
0.346279 0.704119 0.000000
0.460393 0.688607 0.038322
0.718762 0.719907 0.188936
0.813438 0.703880 0.064960
0.891123 0.665582 0.072863
0.377752 0.717236 0.000000
0.381735 0.717141 0.000000
0.383603 0.717091 0.000000
0.387335 0.716976 0.000000
0.398113 0.716436 0.001494
0.446232 0.712608 0.030229
0.626246 0.725944 0.169515
0.791936 0.775470 0.219222
0.836276 0.789829 0.262855
0.507383 0.715814 0.084307
0.509390 0.715705 0.086098
0.510239 0.715659 0.086861
0.512049 0.715563 0.088494
0.517232 0.715315 0.093359
0.535152 0.716399 0.110282
0.607954 0.731520 0.172503
0.751124 0.775607 0.255375
0.834734 0.814729 0.307933
0.000015 0.000010 0.000010
0.000000 0.010661 0.042619
0.000189 0.007527 0.184940
0.245064 0.007252 0.362866
0.527216 0.000000 0.569852
0.744703 0.000000 0.574353
0.814938 0.047868 0.349871
0.805190 0.157426 0.125651
0.836160 0.227151 0.255853
0.000000 0.006795 0.027174
0.000000 0.084976 0.244929
0.000000 0.060586 0.219971
0.257852 0.004581 0.285036
0.574559 0.023527 0.283005
0.746776 0.075148 0.250880
0.782758 0.157856 0.096162
0.792078 0.184807 0.040810
0.832977 0.252171 0.237238
0.000000 0.039230 0.143869
0.000000 0.071044 0.217517
0.000000 0.045408 0.163889
0.184162 0.004236 0.183322
0.524511 0.062319 0.119968
0.719643 0.136070 0.101943
0.767149 0.181009 0.000617
0.787487 0.194205 0.011658
0.831621 0.262859 0.230436
0.000000 0.184429 0.159844
0.000000 0.320242 0.233405
0.005522 0.253711 0.162789
0.118138 0.125221 0.094449
0.433319 0.105874 0.000321
0.641194 0.210005 0.000000
0.710717 0.239831 0.000000
0.768080 0.226631 0.000000
0.828975 0.284628 0.218848
0.236822 0.551313 0.000000
0.207763 0.542502 0.000000
0.195804 0.514043 0.000000
0.180341 0.443629 0.000000
0.352310 0.349227 0.062031
0.642253 0.298211 0.000000
0.704814 0.284712 0.000000
0.752935 0.283625 0.000000
0.822019 0.344241 0.195813
0.300426 0.674337 0.000000
0.297475 0.668362 0.000000
0.295731 0.663969 0.000000
0.293671 0.653135 0.000000
0.320603 0.613286 0.000000
0.565966 0.579771 0.123821
0.800300 0.509411 0.000000
0.815818 0.410339 0.000000
0.832470 0.452214 0.182935
0.322641 0.706078 0.000000
0.324793 0.705487 0.000000
0.326183 0.705197 0.000000
0.330121 0.704531 0.000000
0.346587 0.701894 0.000000
0.464413 0.685327 0.042454
0.719111 0.717692 0.188231
0.815715 0.702713 0.067991
0.897261 0.663456 0.098266
0.377563 0.717152 0.000000
0.381631 0.717046 0.000000
0.383556 0.716993 0.000000
0.387290 0.716871 0.000000
0.398588 0.716243 0.002903
0.448015 0.712297 0.033094
0.628874 0.726848 0.173907
0.792725 0.776094 0.223475
0.837997 0.791611 0.271649
0.507526 0.716175 0.088244
0.509560 0.716070 0.090095
0.510427 0.716026 0.090892
0.512279 0.715933 0.092588
0.517516 0.715688 0.097487
0.536368 0.717452 0.115761
0.609506 0.732884 0.178369
0.752552 0.777027 0.261088
0.836157 0.816482 0.315244
0.000000 0.146599 0.360817
0.000000 0.165654 0.396510
0.000000 0.169620 0.404216
0.197284 0.022860 0.647807
0.533507 0.000000 0.655536
0.727597 0.000000 0.646461
0.804676 0.000000 0.615420
0.833523 0.003029 0.496429
0.849367 0.151444 0.405796
0.000000 0.167815 0.400667
0.000000 0.173441 0.411184
0.000000 0.164931 0.395548
0.087472 0.027365 0.592002
0.485785 0.000000 0.506995
0.721794 0.000000 0.505863
0.806839 0.000000 0.513759
0.833692 0.030243 0.414058
0.849753 0.180064 0.378420
0.000000 0.173983 0.412343
0.000000 0.179059 0.420736
0.000000 0.162700 0.391402
0.028559 0.031526 0.556677
0.457520 0.000000 0.462432
0.720251 0.004394 0.444892
0.807593 0.006749 0.463322
0.833247 0.047611 0.376075
0.849712 0.192689 0.367288
0.000000 0.255679 0.511592
0.000000 0.293173 0.528120
0.000000 0.243390 0.472044
0.000000 0.147830 0.443092
0.414348 0.027712 0.394417
0.705321 0.035208 0.334578
0.806760 0.043758 0.360465
0.828749 0.094063 0.295966
0.849162 0.218043 0.345985
0.000000 0.628200 0.533029
0.000000 0.610039 0.489609
0.000000 0.577969 0.451855
0.012331 0.498140 0.381443
0.367395 0.373672 0.318477
0.655041 0.252245 0.169537
0.773337 0.195759 0.117060
0.806193 0.205764 0.140920
0.843639 0.290262 0.291952
0.228525 0.699398 0.203644
0.224328 0.689816 0.198861
0.223923 0.683251 0.192123
0.226565 0.662808 0.168815
0.296900 0.612265 0.138873
0.574204 0.567204 0.196027
0.825611 0.472243 0.000000
0.817551 0.396306 0.037920
0.830255 0.442702 0.251513
0.304504 0.711154 0.002045
0.307632 0.710919 0.008209
0.309823 0.710697 0.011101
0.315506 0.709947 0.016515
0.338280 0.705053 0.027088
0.472438 0.683739 0.095422
0.722995 0.716560 0.208841
0.826045 0.702417 0.101683
0.913268 0.656866 0.164730
0.375298 0.718588 0.001311
0.380374 0.718367 0.004872
0.382757 0.718254 0.006501
0.387163 0.718024 0.009655
0.400009 0.717229 0.018513
0.452668 0.713222 0.054871
0.636847 0.731369 0.195302
0.796402 0.779804 0.243963
0.843449 0.797319 0.298620
0.507907 0.717779 0.103689
0.509962 0.717707 0.105806
0.510855 0.717677 0.106730
0.512749 0.717613 0.108673
0.518077 0.717395 0.113776
0.539670 0.721609 0.136024
0.614760 0.737809 0.198711
0.757078 0.781690 0.279603
0.840211 0.821482 0.335653
0.000000 0.215582 0.490013
0.000000 0.210598 0.480957
0.000000 0.204174 0.468972
0.000000 0.194439 0.491885
0.428733 0.006110 0.737414
0.687628 0.000000 0.698001
0.792951 0.000000 0.705540
0.824949 0.000000 0.715915
0.842145 0.041966 0.685231
0.000000 0.234720 0.521260
0.000000 0.235815 0.522301
0.000000 0.224700 0.504926
0.000000 0.197970 0.480018
0.369016 0.013862 0.723324
0.670905 0.000000 0.669132
0.792038 0.000000 0.680139
0.825942 0.000000 0.701372
0.842279 0.059690 0.667532
0.000000 0.259365 0.554251
0.000000 0.258423 0.551570
0.000000 0.244069 0.532539
0.000000 0.208007 0.493836
0.341530 0.024632 0.718734
0.663474 0.000000 0.660406
0.791724 0.000000 0.667577
0.826627 0.000000 0.693875
0.842316 0.068060 0.659694
0.000000 0.347480 0.643023
0.000000 0.336558 0.629813
0.000000 0.311673 0.605731
0.000000 0.254125 0.551520
0.293871 0.091443 0.711892
0.651824 0.000000 0.646523
0.791573 0.000000 0.645418
0.828511 0.000000 0.675940
0.842325 0.088121 0.643648
0.000000 0.579828 0.759872
0.000000 0.549204 0.738513
0.000000 0.518906 0.721803
0.000000 0.463487 0.691567
0.187216 0.352579 0.692123
0.634455 0.182337 0.607807
0.789408 0.049906 0.574227
0.831065 0.026172 0.619255
0.846004 0.148542 0.603476
0.000000 0.809621 0.708854
0.000000 0.796726 0.690293
0.000000 0.787978 0.680955
0.000000 0.771367 0.661567
0.170912 0.733263 0.614909
0.642492 0.650003 0.575987
0.814276 0.461025 0.442210
0.851098 0.303247 0.422889
0.869518 0.329574 0.471852
0.182556 0.832157 0.476700
0.196038 0.829335 0.472667
0.203293 0.827354 0.469380
0.219606 0.822485 0.461144
0.281278 0.810591 0.442756
0.504410 0.776027 0.414135
0.761824 0.756827 0.412928
0.884654 0.725156 0.294617
0.920094 0.648673 0.371246
0.364377 0.752361 0.205374
0.370485 0.752482 0.209624
0.373040 0.752548 0.211503
0.378843 0.752576 0.215307
0.395915 0.751972 0.224082
0.466444 0.749562 0.248003
0.669885 0.767243 0.331733
0.815395 0.801786 0.342805
0.861631 0.816706 0.380796
0.513113 0.732936 0.179667
0.516031 0.733664 0.182801
0.517322 0.733978 0.184144
0.520093 0.734643 0.186988
0.528045 0.736541 0.194982
0.553561 0.742001 0.217290
0.633986 0.759464 0.278032
0.774113 0.800741 0.351756
0.852707 0.837025 0.396178
0.000000 0.346136 0.652790
0.000000 0.327092 0.634979
0.000000 0.312690 0.620653
0.000000 0.277525 0.585073
0.066951 0.125749 0.812749
0.621744 0.010833 0.784990
0.777608 0.000000 0.758935
0.823166 0.000000 0.768446
0.838816 0.068820 0.778349
0.000000 0.394656 0.692092
0.000000 0.373907 0.675647
0.000000 0.359396 0.663626
0.000000 0.324711 0.634756
0.029318 0.187330 0.807187
0.606596 0.043496 0.781880
0.777230 0.000000 0.757533
0.825387 0.000000 0.767826
0.838724 0.080273 0.776441
0.000000 0.417150 0.708206
0.000000 0.394330 0.691287
0.000000 0.380256 0.680426
0.000000 0.346121 0.654127
0.013725 0.216713 0.805903
0.599769 0.066887 0.780110
0.777832 0.000940 0.757738
0.825788 0.002639 0.766834
0.838681 0.085880 0.775563
0.000000 0.475882 0.745097
0.000000 0.444818 0.725717
0.000000 0.426434 0.713578
0.000000 0.390717 0.689888
0.000000 0.290084 0.779910
0.585254 0.120223 0.776022
0.775023 0.020867 0.753890
0.825479 0.013265 0.763522
0.838584 0.097802 0.773520
0.000000 0.594793 0.799174
0.000000 0.566066 0.788363
0.000000 0.550614 0.781824
0.000000 0.514635 0.765645
0.000000 0.436139 0.781217
0.563055 0.278356 0.778975
0.767501 0.125106 0.743204
0.824462 0.061815 0.751713
0.838272 0.131538 0.767376
0.000000 0.772014 0.809459
0.000000 0.756030 0.804088
0.000000 0.749487 0.802342
0.000886 0.738585 0.802424
0.150039 0.703414 0.802275
0.501680 0.615890 0.804326
0.789340 0.423854 0.750990
0.831489 0.259373 0.728946
0.842182 0.237794 0.747804
0.023268 0.904579 0.810413
0.047325 0.903020 0.807250
0.059833 0.902311 0.806078
0.091804 0.900943 0.804008
0.190308 0.897074 0.798790
0.458963 0.889964 0.790206
0.838076 0.852648 0.771018
0.920738 0.738301 0.711860
0.912524 0.578436 0.705029
0.268180 0.932949 0.723109
0.281621 0.932903 0.722339
0.287603 0.932832 0.721860
0.300613 0.932679 0.720829
0.341807 0.932230 0.717626
0.467368 0.929858 0.707704
0.737217 0.903608 0.680904
0.884498 0.886982 0.650176
0.924663 0.883276 0.617270
0.538545 0.851360 0.495491
0.542609 0.851940 0.497539
0.544444 0.852197 0.498454
0.548424 0.852710 0.500354
0.560226 0.853998 0.505514
0.597997 0.856350 0.518598
0.696160 0.859232 0.549338
0.833830 0.872465 0.589189
0.894372 0.889289 0.580628
0.000000 0.598253 0.811533
0.000000 0.583673 0.807360
0.000000 0.576595 0.805286
0.000000 0.560762 0.800831
0.000000 0.508908 0.796071
0.395668 0.372551 0.828827
0.750931 0.199698 0.795209
0.819426 0.119954 0.789999
0.836004 0.174534 0.792549
0.000000 0.617765 0.816775
0.000000 0.605636 0.814426
0.000000 0.599838 0.813364
0.000000 0.586228 0.811083
0.000000 0.533429 0.807624
0.388007 0.405826 0.831098
0.751711 0.231830 0.797471
0.818842 0.139211 0.788968
0.835812 0.186678 0.791764
0.000000 0.626844 0.818763
0.000000 0.614304 0.816721
0.000000 0.608901 0.815960
0.000000 0.596723 0.814635
0.000000 0.547212 0.813679
0.384622 0.421258 0.832374
0.752204 0.245169 0.798642
0.818569 0.147617 0.788482
0.835724 0.192001 0.791407
0.000001 0.646088 0.822145
0.000000 0.633787 0.820948
0.000000 0.627961 0.820490
0.000000 0.616102 0.820097
0.000000 0.574959 0.824817
0.377285 0.457863 0.834993
0.753199 0.272813 0.801194
0.817981 0.165598 0.787417
0.835539 0.202882 0.790643
0.000000 0.694849 0.826547
0.000000 0.685605 0.827092
0.000000 0.681551 0.827564
0.000000 0.670682 0.829026
0.046174 0.633887 0.832537
0.362757 0.536485 0.837890
0.756820 0.346770 0.808844
0.816578 0.220565 0.784463
0.835677 0.232350 0.789121
0.000000 0.779244 0.834123
0.000594 0.772750 0.833931
0.007534 0.768889 0.833417
0.028336 0.760915 0.832610
0.117773 0.743624 0.832853
0.400713 0.701068 0.845254
0.769130 0.534297 0.831187
0.835655 0.371923 0.798245
0.847811 0.320586 0.795578
0.074187 0.890807 0.854294
0.102086 0.889327 0.854173
0.114232 0.888586 0.854122
0.139057 0.886802 0.853989
0.225119 0.883254 0.854997
0.436969 0.875205 0.861264
0.778920 0.849183 0.879202
0.914568 0.739052 0.860620
0.907380 0.593508 0.836381
0.281531 0.946989 0.861263
0.295212 0.947494 0.861535
0.301493 0.947730 0.861669
0.315830 0.948319 0.862042
0.358723 0.950151 0.863282
0.472243 0.954944 0.866593
0.728267 0.963516 0.873230
0.932512 0.950542 0.865122
0.968016 0.919877 0.854179
0.541602 0.977422 0.852594
0.547431 0.977728 0.852757
0.550362 0.977883 0.852843
0.556918 0.978229 0.853038
0.574677 0.979156 0.853558
0.622997 0.981499 0.854570
0.729154 0.984353 0.852542
0.892291 0.969476 0.835803
0.952895 0.963801 0.831104
0.074395 0.809499 0.849917
0.092795 0.807024 0.849961
0.101006 0.805729 0.849974
0.117742 0.802890 0.850021
0.170188 0.794697 0.850784
0.343738 0.774355 0.859614
0.701779 0.685347 0.874248
0.855808 0.511422 0.839411
0.863104 0.432694 0.821906
0.079056 0.814983 0.850951
0.097426 0.812643 0.850998
0.105402 0.811420 0.851009
0.121591 0.808775 0.851052
0.174925 0.800947 0.851840
0.345356 0.781206 0.860333
0.701992 0.700874 0.877441
0.859295 0.524978 0.842645
0.865021 0.444026 0.823367
0.081370 0.817221 0.851382
0.099339 0.815000 0.851441
0.107247 0.813896 0.851467
0.123246 0.811316 0.851506
0.177026 0.803677 0.852311
0.346057 0.784156 0.860639
0.702017 0.707678 0.878778
0.861263 0.532547 0.844440
0.865876 0.449039 0.824018
0.085564 0.821827 0.852286
0.103155 0.819700 0.852339
0.110914 0.818701 0.852372
0.126668 0.816433 0.852440
0.181303 0.809300 0.853295
0.347602 0.790255 0.861279
0.701894 0.721504 0.881357
0.865485 0.548956 0.848299
0.867752 0.459009 0.825488
0.096075 0.833721 0.854698
0.112656 0.831937 0.854759
0.119911 0.830978 0.854768
0.136243 0.828773 0.854819
0.192094 0.823452 0.855878
0.352849 0.806921 0.863126
0.700446 0.753529 0.886308
0.875757 0.590284 0.857727
0.874692 0.483648 0.831414
0.123273 0.859778 0.860358
0.138680 0.858278 0.860424
0.145787 0.857647 0.860482
0.162323 0.856390 0.860693
0.220067 0.853455 0.862072
0.368507 0.843941 0.867951
0.699656 0.812502 0.890273
0.895736 0.679235 0.876192
0.896393 0.562878 0.849904
0.199206 0.904813 0.871125
0.218243 0.904566 0.871639
0.226313 0.904415 0.871857
0.242376 0.904045 0.872294
0.281289 0.902883 0.873407
0.409853 0.900697 0.878467
0.718655 0.896773 0.897704
0.920254 0.832370 0.899675
0.940298 0.745903 0.885955
0.351902 0.947811 0.883153
0.365174 0.948316 0.883741
0.370841 0.948529 0.883994
0.382827 0.948984 0.884536
0.414893 0.950153 0.886019
0.509541 0.954087 0.890790
0.720339 0.960659 0.900671
0.918748 0.956898 0.906188
0.968424 0.926728 0.904557
0.588766 0.979971 0.896021
0.595214 0.980342 0.896326
0.598087 0.980507 0.896462
0.604090 0.980848 0.896742
0.618983 0.981683 0.897421
0.656652 0.983694 0.899025
0.747362 0.987839 0.902321
0.893955 0.991319 0.904416
0.968255 0.985403 0.900887
