luts/film/portra800.cube
TITLE "spektrafilm negative scan kodak_portra_160 {"black": 0.0, "blue_rot": -8, "cast_a": 0.0, "cast_b": 0.003, "contrast": 2.8, "crossover": 0.4, "density": 0.2, "dir": 1.3, "ev": 1.0, "flare": 0.12, "green": 0.8, "green_dark": 0.03, "green_hue": 125, "green_rot": 12, "green_width": 55, "grey": 0.58, "peak": 24.0, "red_hue": 0, "red_rot": 0, "red_width": 40, "sat": 0.85, "sky_rot": 14, "sky_sat": 1.6} display=apple fit=partner-scans:024374ff987f 800=contrast0.9,black+0.02,chroma0.9"
# film: spektrafilm by Andrea Volpato / https://github.com/andreavolpato/spektrafilm / CC BY-SA 4.0
LUT_3D_SIZE 5
# fit 0-9: 0.431195 0.430242 0.427804 0.423418 0.455337 0.593385 0.704584 -0.188797 -0.978293 1.814358
# fit 10-19: 1.380962 0.46007 0.558762 0.490401 0.957156 0.47949 -0.605748 -0.539783 0.091469 0.866042
# fit 20-29: 0.736283 0.039137 0.186413 -0.084922 0.309282 0.432111 0.118449 -0.250942 0.292885 0.181173
# fit 30-39: 0.033686 0.175148 -0.040051 0.201144 -0.069371 0.359628 0.787995 0.450128 0.620556 0.605018
# fit 40-49: 0.659458 1.169412 0.773952 -0.525722 -0.500742 0.458299 -0.019493 -0.240407 -0.061149 -0.056571
# fit 50-59: -0.001992 -0.000631 0.260688 0.035744 -0.016396 -1.459415 0.230954 -1.162796 2.472001 0.168247
# fit 60-69: -0.570035 -1.203383 -2.261787 -3.784558 -2.745374 -0.717734 -0.96348 -0.30455 -1.339504 -2.345355
# fit 70-79: -0.132375 -0.059793 1.881056 -0.845045
0.028288 0.028280 0.028274
0.028288 0.028280 0.028274
0.028288 0.028280 0.028274
0.664499 0.293083 0.636537
0.758462 0.413342 0.594156
0.028288 0.028280 0.028274
0.028288 0.028280 0.028274
0.429111 0.170467 0.180412
0.726911 0.359813 0.520921
0.752208 0.425761 0.588950
0.028288 0.028280 0.028274
0.078126 0.294046 0.044073
0.601059 0.254535 0.335344
0.738254 0.386764 0.468822
0.741710 0.447648 0.585589
0.507353 0.750731 0.468146
0.507375 0.750824 0.469612
0.506919 0.750751 0.476306
0.713990 0.794989 0.558322
0.726443 0.671482 0.597654
0.712756 0.829369 0.593921
0.713387 0.829688 0.594322
0.714344 0.830173 0.594928
0.721938 0.833973 0.599608
0.799663 0.869268 0.646606
0.028288 0.028280 0.028274
0.028288 0.028280 0.028274
0.020801 0.059897 0.343260
0.735219 0.375336 0.502352
0.749272 0.431559 0.587164
0.028288 0.028280 0.028274
0.029897 0.029626 0.029011
0.604902 0.257667 0.338778
0.738256 0.386765 0.468834
0.742027 0.446828 0.585430
0.406253 0.655020 0.362656
0.431708 0.679270 0.386859
0.414043 0.477285 0.231200
0.737885 0.386647 0.466933
0.727630 0.481461 0.590688
0.506633 0.750079 0.467826
0.506556 0.750080 0.469220
0.506155 0.750040 0.475616
0.711936 0.797734 0.561185
0.740781 0.693017 0.592656
0.712559 0.829256 0.593787
0.713177 0.829569 0.594180
0.714136 0.830054 0.594788
0.721771 0.833882 0.599519
0.800738 0.869906 0.648886
0.043224 0.052986 0.100470
0.075686 0.170911 0.341216
0.043174 0.181557 0.629325
0.758069 0.380509 0.684952
0.758901 0.433130 0.619849
0.077118 0.174230 0.347728
0.085838 0.189367 0.371268
0.541314 0.179486 0.499776
0.762244 0.389811 0.594279
0.752307 0.446188 0.614741
0.407475 0.658957 0.470205
0.359749 0.608993 0.492287
0.428011 0.400262 0.360842
0.741957 0.387828 0.487456
0.740636 0.476508 0.617779
0.502852 0.746540 0.463894
0.502139 0.745987 0.465514
0.500595 0.744942 0.472231
0.704171 0.782869 0.544891
0.743500 0.687465 0.621638
0.712166 0.829038 0.593538
0.712805 0.829362 0.593947
0.713784 0.829858 0.594572
0.721662 0.833823 0.599524
0.803026 0.871366 0.654687
0.326707 0.449527 0.508406
0.303002 0.418907 0.495924
0.163572 0.302515 0.545510
0.757219 0.384096 0.707729
0.789512 0.491651 0.747482
0.387800 0.548937 0.576778
0.361386 0.503454 0.543168
0.232575 0.354691 0.510821
0.756393 0.386256 0.707028
0.789382 0.494338 0.747616
0.451803 0.659204 0.651180
0.425859 0.616429 0.624584
0.341679 0.471291 0.521430
0.754165 0.415099 0.712099
0.789301 0.501864 0.748938
0.543152 0.778858 0.708664
0.540735 0.776392 0.706844
0.534186 0.769426 0.702618
0.821045 0.812146 0.829759
0.809293 0.652880 0.804934
0.715878 0.832179 0.608411
0.716797 0.832698 0.609498
0.718214 0.833504 0.611210
0.729674 0.839595 0.622641
0.838993 0.892660 0.742226
0.561021 0.794516 0.729234
0.561143 0.794509 0.729664
0.561236 0.794381 0.730299
0.710256 0.844505 0.806562
0.917946 0.856221 0.910522
0.561424 0.794891 0.729636
0.561533 0.794872 0.730054
0.561643 0.794761 0.730701
0.711709 0.845562 0.807409
0.918466 0.857605 0.910919
0.562001 0.795427 0.730213
0.562106 0.795407 0.730619
0.562236 0.795307 0.731304
0.713804 0.847023 0.808643
0.919244 0.859695 0.911512
0.565694 0.798799 0.734052
0.565873 0.798828 0.734574
0.580581 0.803043 0.740772
0.728601 0.856348 0.818031
0.924150 0.873541 0.915235
0.842139 0.912085 0.888932
0.843898 0.912692 0.889865
0.846329 0.913520 0.891165
0.863164 0.918888 0.899729
0.933182 0.929988 0.925817
