luts/film/portra800.cube
TITLE "spektrafilm negative scan kodak_portra_160 {"black": 0.0, "blue_rot": -8, "cast_a": 0.0, "cast_b": 0.003, "contrast": 2.8, "crossover": 0.4, "density": 0.2, "dir": 1.3, "ev": 1.0, "flare": 0.12, "green": 0.8, "green_dark": 0.03, "green_hue": 125, "green_rot": 12, "green_width": 55, "grey": 0.58, "peak": 24.0, "red_hue": 0, "red_rot": 0, "red_width": 40, "sat": 0.85, "sky_rot": 14, "sky_sat": 1.6} display=apple fit=partner-scans:024374ff987f 800=contrast0.9,black+0.02,chroma0.9"
# film: spektrafilm by Andrea Volpato / https://github.com/andreavolpato/spektrafilm / CC BY-SA 4.0
LUT_3D_SIZE 65
# fit 0-9: 0.431195 0.430242 0.427804 0.423418 0.455337 0.593385 0.704584 -0.188797 -0.978293 1.814358
# fit 10-19: 1.380962 0.46007 0.558762 0.490401 0.957156 0.47949 -0.605748 -0.539783 0.091469 0.866042
# fit 20-29: 0.736283 0.039137 0.186413 -0.084922 0.309282 0.432111 0.118449 -0.250942 0.292885 0.181173
# fit 30-39: 0.033686 0.175148 -0.040051 0.201144 -0.069371 0.359628 0.787995 0.450128 0.620556 0.605018
# fit 40-49: 0.659458 1.169412 0.773952 -0.525722 -0.500742 0.458299 -0.019493 -0.240407 -0.061149 -0.056571
# fit 50-59: -0.001992 -0.000631 0.260688 0.035744 -0.016396 -1.459415 0.230954 -1.162796 2.472001 0.168247
# fit 60-69: -0.570035 -1.203383 -2.261787 -3.784558 -2.745374 -0.717734 -0.96348 -0.30455 -1.339504 -2.345355
# fit 70-79: -0.132375 -0.059793 1.881056 -0.845045
0.028288 0.028280 0.028274
0.028288 0.028280 0.028274
0.028288 0.028280 0.028274
0.028288 0.028280 0.028274
0.028288 0.028280 0.028274
0.028288 0.028280 0.028274
0.028288 0.028280 0.028274
0.028288 0.028280 0.028274
0.028288 0.028280 0.028274
0.028288 0.028280 0.028274
0.028288 0.028280 0.028274
0.028288 0.028280 0.028274
0.028288 0.028280 0.028274
0.028288 0.028280 0.028274
0.028288 0.028280 0.028274
0.028288 0.028280 0.028274
0.028288 0.028280 0.028274
0.028288 0.028280 0.028274
0.028288 0.028280 0.028274
0.028288 0.028280 0.028274
0.028288 0.028280 0.028274
0.028288 0.028280 0.028274
0.028288 0.028280 0.028274
0.028288 0.028280 0.028274
0.028288 0.028280 0.028274
0.028288 0.028280 0.028274
0.028288 0.028280 0.028274
0.028288 0.028280 0.028274
0.028288 0.028280 0.028274
0.028288 0.028280 0.028274
0.028288 0.028280 0.028274
0.028288 0.028280 0.028274
0.028288 0.028280 0.028274
0.027488 0.029523 0.041828
0.039797 0.049582 0.091083
0.181182 0.424256 0.241613
0.269979 0.520089 0.229871
0.341721 0.306698 0.176211
0.522957 0.196202 0.282340
0.391130 0.103459 0.387462
0.319612 0.137530 0.500483
0.366868 0.168416 0.563186
0.470135 0.195973 0.594983
0.544172 0.221988 0.610460
0.578453 0.236270 0.619204
0.603632 0.250249 0.625990
0.622656 0.262964 0.629576
0.641934 0.276381 0.632788
0.664499 0.293083 0.636537
0.685438 0.309852 0.640733
0.700954 0.323142 0.644530
0.714491 0.335132 0.647053
0.723978 0.343737 0.647663
0.732603 0.351878 0.648002
0.741476 0.360551 0.647002
0.749373 0.368680 0.644870
0.753232 0.372881 0.641214
0.756556 0.376743 0.637484
0.764238 0.387375 0.622410
0.756519 0.391378 0.554918
0.748601 0.389553 0.518796
0.746877 0.389138 0.510782
0.749212 0.389697 0.521620
0.754570 0.390928 0.546078
0.758462 0.413342 0.594156
0.028288 0.028280 0.028274
0.028288 0.028280 0.028274
0.028288 0.028280 0.028274
0.028288 0.028280 0.028274
0.028288 0.028280 0.028274
0.028288 0.028280 0.028274
0.028288 0.028280 0.028274
0.028288 0.028280 0.028274
0.028288 0.028280 0.028274
0.028288 0.028280 0.028274
0.028288 0.028280 0.028274
0.028288 0.028280 0.028274
0.028288 0.028280 0.028274
0.028288 0.028280 0.028274
0.028288 0.028280 0.028274
0.028288 0.028280 0.028274
0.028288 0.028280 0.028274
0.028288 0.028280 0.028274
0.028288 0.028280 0.028274
0.028288 0.028280 0.028274
0.028288 0.028280 0.028274
0.028288 0.028280 0.028274
0.028288 0.028280 0.028274
0.028288 0.028280 0.028274
0.028288 0.028280 0.028274
0.028288 0.028280 0.028274
0.028288 0.028280 0.028274
0.028288 0.028280 0.028274
0.028288 0.028280 0.028274
0.028288 0.028280 0.028274
0.028288 0.028280 0.028274
0.028288 0.028280 0.028274
0.017509 0.057621 0.013653
0.061389 0.266596 0.039935
0.233912 0.482405 0.211246
0.186028 0.429770 0.155421
0.323372 0.284516 0.170147
0.486384 0.203454 0.273411
0.378018 0.102014 0.361158
0.286630 0.120201 0.456429
0.317256 0.151893 0.529493
0.405873 0.172394 0.569444
0.508810 0.202904 0.592607
0.560700 0.223826 0.605122
0.591690 0.238800 0.613708
0.620432 0.257334 0.617379
0.638300 0.269948 0.620023
0.660904 0.287248 0.624512
0.680127 0.302949 0.628503
0.697277 0.317796 0.632150
0.712132 0.330951 0.631889
0.725847 0.343957 0.629938
0.735586 0.353923 0.626411
0.743622 0.362796 0.623508
0.747945 0.367936 0.620410
0.751486 0.372412 0.617158
0.754232 0.376412 0.611695
0.756609 0.380312 0.605569
0.761239 0.391847 0.579289
0.750325 0.389956 0.526735
0.745889 0.388894 0.506145
0.745658 0.388836 0.505058
0.748345 0.389492 0.517612
0.753786 0.390749 0.542520
0.757100 0.416044 0.592817
0.028288 0.028280 0.028274
0.028288 0.028280 0.028274
0.028288 0.028280 0.028274
0.028288 0.028280 0.028274
0.028288 0.028280 0.028274
0.028288 0.028280 0.028274
0.028288 0.028280 0.028274
0.028288 0.028280 0.028274
0.028288 0.028280 0.028274
0.028288 0.028280 0.028274
0.028288 0.028280 0.028274
0.028288 0.028280 0.028274
0.028288 0.028280 0.028274
0.028288 0.028280 0.028274
0.028288 0.028280 0.028274
0.028288 0.028280 0.028274
0.028288 0.028280 0.028274
0.028288 0.028280 0.028274
0.028288 0.028280 0.028274
0.028288 0.028280 0.028274
0.028288 0.028280 0.028274
0.028288 0.028280 0.028274
0.028288 0.028280 0.028274
0.028288 0.028280 0.028274
0.028288 0.028280 0.028274
0.028288 0.028280 0.028274
0.028288 0.028280 0.028274
0.028288 0.028280 0.028274
0.028288 0.028280 0.028274
0.028288 0.028280 0.028274
0.028288 0.028280 0.028274
0.028280 0.028286 0.028273
0.026020 0.136950 0.022329
0.157478 0.396726 0.102807
0.316032 0.566887 0.275477
0.175474 0.347696 0.085838
0.481219 0.208362 0.222378
0.477591 0.165794 0.307903
0.283794 0.090890 0.394309
0.253391 0.134371 0.488125
0.333092 0.155364 0.537497
0.435347 0.176333 0.570278
0.526121 0.205951 0.589504
0.569082 0.224648 0.600952
0.599052 0.240682 0.607474
0.629833 0.261421 0.610611
0.647535 0.274672 0.613563
0.669510 0.292528 0.618857
0.687531 0.307742 0.621341
0.703908 0.322418 0.622902
0.718856 0.336521 0.619414
0.731926 0.350192 0.615558
0.740255 0.359735 0.611828
0.745643 0.366440 0.608000
0.748647 0.370593 0.604043
0.751545 0.374789 0.600183
0.753532 0.378848 0.591699
0.755805 0.383137 0.585319
0.757559 0.391623 0.559637
0.747713 0.389341 0.514679
0.744814 0.388622 0.501061
0.745151 0.388708 0.502660
0.747940 0.389395 0.515735
0.753408 0.390663 0.540806
0.756399 0.417394 0.592118
0.028288 0.028280 0.028274
0.028288 0.028280 0.028274
0.028288 0.028280 0.028274
0.028288 0.028280 0.028274
0.028288 0.028280 0.028274
0.028288 0.028280 0.028274
0.028288 0.028280 0.028274
0.028288 0.028280 0.028274
0.028288 0.028280 0.028274
0.028288 0.028280 0.028274
0.028288 0.028280 0.028274
0.028288 0.028280 0.028274
0.028288 0.028280 0.028274
0.028288 0.028280 0.028274
0.028288 0.028280 0.028274
0.028288 0.028280 0.028274
0.028288 0.028280 0.028274
0.028288 0.028280 0.028274
0.028288 0.028280 0.028274
0.028288 0.028280 0.028274
0.028288 0.028280 0.028274
0.028288 0.028280 0.028274
0.028288 0.028280 0.028274
0.028288 0.028280 0.028274
0.028288 0.028280 0.028274
0.028288 0.028280 0.028274
0.028288 0.028280 0.028274
0.028288 0.028280 0.028274
0.028288 0.028280 0.028274
0.028288 0.028280 0.028274
0.028288 0.028280 0.028274
0.025250 0.033696 0.025972
0.037612 0.210784 0.031917
0.216841 0.463803 0.172022
0.234531 0.482860 0.191654
0.304677 0.274554 0.139237
0.482920 0.175476 0.225531
0.376294 0.109548 0.337383
0.228982 0.107523 0.427895
0.252489 0.139198 0.498265
0.350563 0.155864 0.539738
0.457916 0.179329 0.569228
0.537829 0.208268 0.586543
0.574978 0.225270 0.597348
0.604591 0.242060 0.601380
0.635991 0.264217 0.605130
0.655670 0.279688 0.608994
0.675252 0.296233 0.613923
0.693183 0.311747 0.614302
0.709135 0.326644 0.613419
0.723758 0.341578 0.608670
0.735784 0.355249 0.604085
0.742286 0.363367 0.600187
0.745732 0.368273 0.595445
0.748311 0.372579 0.589273
0.751231 0.377070 0.585532
0.753423 0.381332 0.579054
0.755309 0.385522 0.571853
0.754441 0.390899 0.545494
0.746220 0.388976 0.507701
0.744207 0.388465 0.498172
0.744852 0.388632 0.501243
0.747686 0.389334 0.514552
0.753162 0.390607 0.539684
0.755883 0.418427 0.591680
0.028288 0.028280 0.028274
0.028288 0.028280 0.028274
0.028288 0.028280 0.028274
0.028288 0.028280 0.028274
0.028288 0.028280 0.028274
0.028288 0.028280 0.028274
0.028288 0.028280 0.028274
0.028288 0.028280 0.028274
0.028288 0.028280 0.028274
0.028288 0.028280 0.028274
0.028288 0.028280 0.028274
0.028288 0.028280 0.028274
0.028288 0.028280 0.028274
0.028288 0.028280 0.028274
0.028288 0.028280 0.028274
0.028288 0.028280 0.028274
0.028288 0.028280 0.028274
0.028288 0.028280 0.028274
0.028288 0.028280 0.028274
0.028288 0.028280 0.028274
0.028288 0.028280 0.028274
0.028288 0.028280 0.028274
0.028288 0.028280 0.028274
0.028288 0.028280 0.028274
0.028288 0.028280 0.028274
0.028288 0.028280 0.028274
0.028288 0.028280 0.028274
0.028288 0.028280 0.028274
0.028288 0.028280 0.028274
0.028288 0.028280 0.028274
0.028288 0.028280 0.028274
0.016774 0.071629 0.014631
0.074399 0.288410 0.043214
0.268984 0.519036 0.227082
0.139998 0.375785 0.093545
0.421437 0.237758 0.215994
0.475390 0.165554 0.263788
0.286130 0.071910 0.337550
0.202546 0.118898 0.451016
0.261330 0.141751 0.504448
0.366231 0.156132 0.540649
0.476853 0.182338 0.567525
0.546326 0.209772 0.583589
0.580227 0.225780 0.593385
0.610556 0.244233 0.595883
0.640463 0.266318 0.600364
0.661534 0.283407 0.604466
0.680290 0.299633 0.608228
0.698502 0.316025 0.606774
0.714035 0.331403 0.603924
0.727456 0.346214 0.598449
0.738214 0.359394 0.593140
0.742389 0.365289 0.588175
0.745623 0.370022 0.584538
0.748498 0.374761 0.579376
0.751276 0.379507 0.574396
0.753093 0.383593 0.567320
0.754568 0.387455 0.559770
0.751964 0.390333 0.534232
0.745164 0.388711 0.502722
0.743765 0.388349 0.496054
0.744621 0.388572 0.500143
0.747481 0.389285 0.513602
0.752961 0.390561 0.538772
0.755417 0.419410 0.591364
0.028288 0.028280 0.028274
0.028288 0.028280 0.028274
0.028288 0.028280 0.028274
0.028288 0.028280 0.028274
0.028288 0.028280 0.028274
0.028288 0.028280 0.028274
0.028288 0.028280 0.028274
0.028288 0.028280 0.028274
0.028288 0.028280 0.028274
0.028288 0.028280 0.028274
0.028288 0.028280 0.028274
0.028288 0.028280 0.028274
0.028288 0.028280 0.028274
0.028288 0.028280 0.028274
0.028288 0.028280 0.028274
0.028288 0.028280 0.028274
0.028288 0.028280 0.028274
0.028288 0.028280 0.028274
0.028288 0.028280 0.028274
0.028288 0.028280 0.028274
0.028288 0.028280 0.028274
0.028288 0.028280 0.028274
0.028288 0.028280 0.028274
0.028288 0.028280 0.028274
0.028288 0.028280 0.028274
0.028288 0.028280 0.028274
0.028288 0.028280 0.028274
0.028288 0.028280 0.028274
0.028288 0.028280 0.028274
0.028288 0.028280 0.028274
0.028282 0.028287 0.028273
0.024105 0.123999 0.020739
0.126896 0.359563 0.070132
0.283241 0.533708 0.242019
0.195524 0.292645 0.050454
0.488978 0.186383 0.211693
0.444083 0.150911 0.300886
0.230580 0.079869 0.365617
0.191557 0.125406 0.465946
0.276030 0.142362 0.507142
0.381000 0.156091 0.540864
0.491646 0.184948 0.565492
0.551754 0.210032 0.580391
0.585118 0.226088 0.588662
0.616265 0.246697 0.590826
0.644037 0.268055 0.595899
0.666249 0.286476 0.599537
0.684982 0.303042 0.601393
0.703038 0.320163 0.598568
0.718419 0.336417 0.594615
0.730063 0.350296 0.588218
0.739280 0.362298 0.582927
0.742708 0.367314 0.579183
0.745732 0.371989 0.575351
0.748493 0.376861 0.569683
0.751177 0.381728 0.564258
0.752631 0.385551 0.556731
0.753690 0.389017 0.548777
0.749898 0.389857 0.524776
0.744373 0.388508 0.498962
0.743424 0.388259 0.494417
0.744432 0.388524 0.499245
0.747305 0.389242 0.512780
0.752789 0.390522 0.537988
0.755029 0.420192 0.591059
0.028288 0.028280 0.028274
0.028288 0.028280 0.028274
0.028288 0.028280 0.028274
0.028288 0.028280 0.028274
0.028288 0.028280 0.028274
0.028288 0.028280 0.028274
0.028288 0.028280 0.028274
0.028288 0.028280 0.028274
0.028288 0.028280 0.028274
0.028288 0.028280 0.028274
0.028288 0.028280 0.028274
0.028288 0.028280 0.028274
0.028288 0.028280 0.028274
0.028288 0.028280 0.028274
0.028288 0.028280 0.028274
0.028288 0.028280 0.028274
0.028288 0.028280 0.028274
0.028288 0.028280 0.028274
0.028288 0.028280 0.028274
0.028288 0.028280 0.028274
0.028288 0.028280 0.028274
0.028288 0.028280 0.028274
0.028288 0.028280 0.028274
0.028288 0.028280 0.028274
0.028288 0.028280 0.028274
0.028288 0.028280 0.028274
0.028288 0.028280 0.028274
0.028288 0.028280 0.028274
0.028288 0.028280 0.028274
0.028257 0.028308 0.028268
0.027873 0.028965 0.028031
0.032312 0.177883 0.027540
0.173132 0.414962 0.119121
0.233546 0.481799 0.189630
0.284873 0.263544 0.111738
0.416420 0.143263 0.172097
0.332971 0.095719 0.300799
0.170692 0.093977 0.392927
0.181598 0.130117 0.478536
0.291838 0.142313 0.508702
0.395690 0.155856 0.540305
0.501319 0.186137 0.563068
0.556865 0.210408 0.577114
0.589812 0.227118 0.583326
0.621427 0.249119 0.585868
0.649334 0.271383 0.591490
0.670714 0.289585 0.593950
0.689628 0.306886 0.593869
0.707034 0.324396 0.589773
0.721959 0.341232 0.584894
0.732012 0.353920 0.579304
0.739556 0.364128 0.574856
0.742893 0.369316 0.570481
0.745802 0.374096 0.566106
0.748315 0.378896 0.559935
0.750781 0.383677 0.554076
0.751983 0.387200 0.546639
0.752870 0.390309 0.539263
0.748144 0.389444 0.516681
0.743754 0.388346 0.496000
0.743151 0.388186 0.493103
0.744276 0.388483 0.498497
0.747150 0.389204 0.512054
0.752636 0.390487 0.537293
0.754694 0.420839 0.590766
0.028288 0.028280 0.028274
0.028288 0.028280 0.028274
0.028288 0.028280 0.028274
0.028288 0.028280 0.028274
0.028288 0.028280 0.028274
0.028288 0.028280 0.028274
0.028288 0.028280 0.028274
0.028288 0.028280 0.028274
0.028288 0.028280 0.028274
0.028288 0.028280 0.028274
0.028288 0.028280 0.028274
0.028288 0.028280 0.028274
0.028288 0.028280 0.028274
0.028288 0.028280 0.028274
0.028288 0.028280 0.028274
0.028288 0.028280 0.028274
0.028288 0.028280 0.028274
0.028288 0.028280 0.028274
0.028288 0.028280 0.028274
0.028288 0.028280 0.028274
0.028288 0.028280 0.028274
0.028288 0.028280 0.028274
0.028288 0.028280 0.028274
0.028288 0.028280 0.028274
0.028288 0.028280 0.028274
0.028288 0.028280 0.028274
0.028288 0.028280 0.028274
0.028288 0.028280 0.028274
0.028288 0.028280 0.028274
0.028107 0.028563 0.028176
0.024820 0.034527 0.025551
0.048611 0.239618 0.035996
0.208042 0.454188 0.162278
0.130073 0.363529 0.071868
0.347283 0.227564 0.185528
0.416597 0.140264 0.208140
0.269392 0.063240 0.296730
0.113140 0.107487 0.429203
0.191664 0.132295 0.483325
0.306911 0.142140 0.509761
0.410787 0.156075 0.539246
0.509831 0.187277 0.560493
0.561588 0.210791 0.573622
0.594149 0.228375 0.577948
0.625664 0.251134 0.580797
0.654248 0.274555 0.585926
0.675223 0.293049 0.587520
0.694427 0.311458 0.586691
0.710620 0.328818 0.580859
0.724849 0.345750 0.576121
0.733711 0.357315 0.571835
0.739598 0.365840 0.566687
0.743103 0.371339 0.562510
0.746048 0.376286 0.558095
0.748113 0.380818 0.550926
0.750171 0.385321 0.544194
0.751286 0.388567 0.537477
0.751137 0.390144 0.530456
0.746679 0.389089 0.509853
0.743251 0.388213 0.493582
0.742930 0.388127 0.492035
0.744138 0.388447 0.497837
0.747011 0.389171 0.511407
0.752500 0.390456 0.536674
0.754384 0.421445 0.590514
0.028288 0.028280 0.028274
0.028288 0.028280 0.028274
0.028288 0.028280 0.028274
0.028288 0.028280 0.028274
0.028288 0.028280 0.028274
0.028288 0.028280 0.028274
0.028288 0.028280 0.028274
0.028288 0.028280 0.028274
0.028288 0.028280 0.028274
0.028288 0.028280 0.028274
0.028288 0.028280 0.028274
0.028288 0.028280 0.028274
0.028288 0.028280 0.028274
0.028288 0.028280 0.028274
0.028288 0.028280 0.028274
0.028288 0.028280 0.028274
0.028288 0.028280 0.028274
0.028288 0.028280 0.028274
0.028288 0.028280 0.028274
0.028288 0.028280 0.028274
0.028288 0.028280 0.028274
0.028288 0.028280 0.028274
0.028288 0.028280 0.028274
0.028288 0.028280 0.028274
0.028288 0.028280 0.028274
0.028288 0.028280 0.028274
0.028288 0.028280 0.028274
0.028288 0.028280 0.028274
0.028288 0.028280 0.028274
0.026598 0.031202 0.027115
0.016717 0.066794 0.014071
0.083328 0.301251 0.045179
0.249126 0.498317 0.206256
0.068002 0.278902 0.042569
0.480046 0.197404 0.214023
0.443812 0.150848 0.267379
0.220631 0.062683 0.313120
0.090825 0.115268 0.451510
0.205630 0.132836 0.484533
0.321747 0.141966 0.510202
0.427367 0.157584 0.538124
0.518017 0.188588 0.557730
0.566030 0.210993 0.569336
0.598128 0.229606 0.572406
0.629050 0.252737 0.575564
0.658585 0.277524 0.579421
0.679656 0.296866 0.580060
0.699174 0.316579 0.578621
0.713880 0.333378 0.572400
0.726922 0.349531 0.568269
0.734953 0.360310 0.564544
0.739653 0.367576 0.559061
0.743179 0.373344 0.554304
0.746069 0.378403 0.549466
0.747775 0.382551 0.542138
0.749557 0.386675 0.535517
0.750575 0.389652 0.529317
0.749405 0.389742 0.522510
0.745604 0.388822 0.504799
0.742849 0.388105 0.491643
0.742747 0.388077 0.491151
0.744016 0.388415 0.497256
0.746886 0.389140 0.510824
0.752379 0.390428 0.536125
0.754098 0.422010 0.590289
0.028288 0.028280 0.028274
0.028288 0.028280 0.028274
0.028288 0.028280 0.028274
0.028288 0.028280 0.028274
0.028288 0.028280 0.028274
0.028288 0.028280 0.028274
0.028288 0.028280 0.028274
0.028288 0.028280 0.028274
0.028288 0.028280 0.028274
0.028288 0.028280 0.028274
0.028288 0.028280 0.028274
0.028288 0.028280 0.028274
0.028288 0.028280 0.028274
0.028288 0.028280 0.028274
0.028288 0.028280 0.028274
0.028288 0.028280 0.028274
0.028288 0.028280 0.028274
0.028288 0.028280 0.028274
0.028288 0.028280 0.028274
0.028288 0.028280 0.028274
0.028288 0.028280 0.028274
0.028288 0.028280 0.028274
0.028288 0.028280 0.028274
0.028288 0.028280 0.028274
0.028288 0.028280 0.028274
0.028288 0.028280 0.028274
0.028288 0.028280 0.028274
0.028288 0.028280 0.028274
0.028287 0.028280 0.028274
0.023946 0.036284 0.024627
0.023242 0.118075 0.020022
0.123394 0.355151 0.065824
0.239772 0.488428 0.196213
0.213602 0.252751 0.054349
0.446726 0.157725 0.179262
0.366063 0.117956 0.281525
0.139164 0.073531 0.338747
0.071947 0.121437 0.469557
0.221187 0.132892 0.484556
0.337160 0.141359 0.510195
0.442090 0.159372 0.536911
0.526074 0.190239 0.554993
0.570431 0.211116 0.564199
0.601774 0.230659 0.565914
0.632100 0.254264 0.569955
0.662869 0.280887 0.573202
0.684015 0.301150 0.572470
0.703369 0.321751 0.570132
0.716834 0.337806 0.565409
0.728215 0.352592 0.560463
0.735222 0.362158 0.557446
0.739849 0.369453 0.552021
0.743164 0.375288 0.546162
0.745882 0.380308 0.540774
0.747402 0.384059 0.534129
0.748972 0.387777 0.527961
0.749282 0.389713 0.521943
0.747901 0.389386 0.515553
0.744713 0.388596 0.500581
0.742515 0.388014 0.490025
0.742591 0.388034 0.490391
0.743906 0.388386 0.496730
0.746770 0.389112 0.510281
0.752267 0.390402 0.535611
0.753827 0.422544 0.590081
0.028288 0.028280 0.028274
0.028288 0.028280 0.028274
0.028288 0.028280 0.028274
0.028288 0.028280 0.028274
0.028288 0.028280 0.028274
0.028288 0.028280 0.028274
0.028288 0.028280 0.028274
0.028288 0.028280 0.028274
0.028288 0.028280 0.028274
0.028288 0.028280 0.028274
0.028288 0.028280 0.028274
0.028288 0.028280 0.028274
0.028288 0.028280 0.028274
0.028288 0.028280 0.028274
0.028288 0.028280 0.028274
0.028288 0.028280 0.028274
0.028288 0.028280 0.028274
0.028288 0.028280 0.028274
0.028288 0.028280 0.028274
0.028288 0.028280 0.028274
0.028288 0.028280 0.028274
0.028288 0.028280 0.028274
0.028288 0.028280 0.028274
0.028288 0.028280 0.028274
0.028288 0.028280 0.028274
0.028288 0.028280 0.028274
0.028288 0.028280 0.028274
0.028288 0.028280 0.028274
0.028268 0.028297 0.028271
0.022011 0.040685 0.022545
0.029952 0.162797 0.025588
0.160012 0.399708 0.104363
0.171810 0.413439 0.117327
0.267063 0.229633 0.130197
0.372688 0.125626 0.158700
0.294785 0.080160 0.282789
0.075090 0.087659 0.380671
0.069202 0.124879 0.478790
0.236653 0.132572 0.484554
0.352176 0.140601 0.510089
0.455413 0.161325 0.535552
0.533706 0.192041 0.552139
0.574549 0.211101 0.558216
0.604946 0.231628 0.559147
0.635070 0.255959 0.564143
0.667416 0.284904 0.566580
0.688365 0.305953 0.565013
0.707183 0.326882 0.562915
0.719199 0.341803 0.558494
0.729276 0.355231 0.554124
0.735521 0.364081 0.550600
0.740063 0.371475 0.544733
0.743124 0.377163 0.538350
0.745663 0.381997 0.532849
0.747012 0.385382 0.526741
0.748427 0.388738 0.521114
0.747856 0.389375 0.515345
0.746656 0.389084 0.509747
0.743970 0.388403 0.497037
0.742230 0.387936 0.488640
0.742451 0.387996 0.489712
0.743805 0.388360 0.496244
0.746662 0.389085 0.509777
0.752160 0.390378 0.535128
0.753569 0.423055 0.589889
0.028288 0.028280 0.028274
0.028288 0.028280 0.028274
0.028288 0.028280 0.028274
0.028288 0.028280 0.028274
0.028288 0.028280 0.028274
0.028288 0.028280 0.028274
0.028288 0.028280 0.028274
0.028288 0.028280 0.028274
0.028288 0.028280 0.028274
0.028288 0.028280 0.028274
0.028288 0.028280 0.028274
0.028288 0.028280 0.028274
0.028288 0.028280 0.028274
0.028288 0.028280 0.028274
0.028288 0.028280 0.028274
0.028288 0.028280 0.028274
0.028288 0.028280 0.028274
0.028288 0.028280 0.028274
0.028288 0.028280 0.028274
0.028288 0.028280 0.028274
0.028288 0.028280 0.028274
0.028288 0.028280 0.028274
0.028288 0.028280 0.028274
0.028288 0.028280 0.028274
0.028288 0.028280 0.028274
0.028288 0.028280 0.028274
0.028288 0.028280 0.028274
0.028288 0.028280 0.028274
0.027844 0.029014 0.028012
0.020041 0.046447 0.020058
0.039210 0.214829 0.032485
0.189748 0.433859 0.139938
0.095276 0.318184 0.047805
0.343074 0.208924 0.177716
0.365457 0.120172 0.186506
0.238324 0.053709 0.264151
0.030450 0.099212 0.418688
0.082103 0.126037 0.480383
0.251552 0.131976 0.484740
0.366012 0.140230 0.510682
0.467944 0.163459 0.533909
0.541208 0.193992 0.548896
0.578623 0.211518 0.551802
0.608143 0.233005 0.552841
0.637802 0.257707 0.558138
0.672296 0.289710 0.560250
0.692923 0.311342 0.559009
0.710180 0.331574 0.554881
0.721055 0.345404 0.551536
0.730277 0.357730 0.548532
0.735769 0.366039 0.543607
0.740225 0.373525 0.537235
0.743066 0.378926 0.530972
0.745412 0.383478 0.525576
0.746628 0.386549 0.519951
0.747719 0.389342 0.514707
0.746582 0.389066 0.509400
0.745580 0.388816 0.504690
0.743342 0.388237 0.494022
0.741976 0.387865 0.487400
0.742324 0.387961 0.489095
0.743710 0.388335 0.495793
0.746562 0.389061 0.509308
0.752061 0.390355 0.534674
0.753322 0.423544 0.589709
0.028288 0.028280 0.028274
0.028288 0.028280 0.028274
0.028288 0.028280 0.028274
0.028288 0.028280 0.028274
0.028288 0.028280 0.028274
0.028288 0.028280 0.028274
0.028288 0.028280 0.028274
0.028288 0.028280 0.028274
0.028288 0.028280 0.028274
0.028288 0.028280 0.028274
0.028288 0.028280 0.028274
0.028288 0.028280 0.028274
0.028288 0.028280 0.028274
0.028288 0.028280 0.028274
0.028288 0.028280 0.028274
0.028288 0.028280 0.028274
0.028288 0.028280 0.028274
0.028288 0.028280 0.028274
0.028288 0.028280 0.028274
0.028288 0.028280 0.028274
0.028288 0.028280 0.028274
0.028288 0.028280 0.028274
0.028288 0.028280 0.028274
0.028288 0.028280 0.028274
0.028288 0.028280 0.028274
0.028288 0.028280 0.028274
0.028288 0.028280 0.028274
0.028288 0.028280 0.028274
0.025273 0.033652 0.025977
0.017062 0.062437 0.013569
0.063471 0.269671 0.040399
0.215618 0.462470 0.170279
0.046500 0.236271 0.035502
0.450476 0.182998 0.195384
0.381491 0.127759 0.231987
0.164606 0.050832 0.260113
0.026456 0.106599 0.438542
0.104512 0.125734 0.477452
0.266553 0.131198 0.484789
0.378603 0.140018 0.510965
0.480195 0.165905 0.531927
0.547893 0.195456 0.544618
0.582685 0.212952 0.545156
0.611284 0.234757 0.547549
0.640305 0.259542 0.552483
0.677491 0.295242 0.554875
0.696917 0.316540 0.552575
0.712511 0.335678 0.547478
0.722580 0.348668 0.544997
0.730977 0.359936 0.542815
0.735967 0.368000 0.536531
0.740337 0.375490 0.529909
0.742958 0.380523 0.523983
0.745144 0.384758 0.518961
0.746291 0.387583 0.513866
0.746431 0.389028 0.508692
0.745471 0.388789 0.504173
