luts/film/portra160.cube
TITLE "spektrafilm negative scan kodak_portra_160 {"black": 0.0, "blue_rot": -8, "cast_a": 0.0, "cast_b": 0.003, "contrast": 2.8, "crossover": 0.4, "density": 0.2, "dir": 1.3, "ev": 1.0, "flare": 0.12, "green": 0.8, "green_dark": 0.03, "green_hue": 125, "green_rot": 12, "green_width": 55, "grey": 0.58, "peak": 24.0, "red_hue": 0, "red_rot": 0, "red_width": 40, "sat": 0.85, "sky_rot": 14, "sky_sat": 1.6} display=apple1.961 from=adobergb-power fit=partner-scans:024374ff987f"
# film: spektrafilm by Andrea Volpato / https://github.com/andreavolpato/spektrafilm / CC BY-SA 4.0
LUT_3D_SIZE 9
# fit 0-9: 0.431195 0.430242 0.427804 0.423418 0.455337 0.593385 0.704584 -0.188797 -0.978293 1.814358
# fit 10-19: 1.380962 0.46007 0.558762 0.490401 0.957156 0.47949 -0.605748 -0.539783 0.091469 0.866042
# fit 20-29: 0.736283 0.039137 0.186413 -0.084922 0.309282 0.432111 0.118449 -0.250942 0.292885 0.181173
# fit 30-39: 0.033686 0.175148 -0.040051 0.201144 -0.069371 0.359628 0.787995 0.450128 0.620556 0.605018
# fit 40-49: 0.659458 1.169412 0.773952 -0.525722 -0.500742 0.458299 -0.019493 -0.240407 -0.061149 -0.056571
# fit 50-59: -0.001992 -0.000631 0.260688 0.035744 -0.016396 -1.459415 0.230954 -1.162796 2.472001 0.168247
# fit 60-69: -0.570035 -1.203383 -2.261787 -3.784558 -2.745374 -0.717734 -0.96348 -0.30455 -1.339504 -2.345355
# fit 70-79: -0.132375 -0.059793 1.881056 -0.845045
0.004168 0.004166 0.004164
0.004168 0.004166 0.004164
0.004168 0.004166 0.004164
0.004168 0.004166 0.004164
0.004168 0.004166 0.004164
0.250087 0.054649 0.442960
0.640566 0.217569 0.610263
0.749595 0.307565 0.618882
0.757008 0.354456 0.564357
0.004168 0.004166 0.004164
0.004168 0.004166 0.004164
0.004168 0.004166 0.004164
0.004168 0.004166 0.004164
0.172678 0.448825 0.128483
0.364825 0.072877 0.488415
0.700052 0.263429 0.536947
0.746083 0.327383 0.488553
0.752015 0.364527 0.559929
0.004168 0.004166 0.004164
0.004168 0.004166 0.004164
0.004168 0.004166 0.004164
0.004168 0.004166 0.004164
0.362036 0.094811 0.109123
0.463632 0.089950 0.473532
0.716288 0.293598 0.478182
0.735912 0.325586 0.442870
0.749858 0.368884 0.558407
0.004168 0.004166 0.004164
0.004168 0.004166 0.004164
0.004168 0.004166 0.004164
0.000000 0.021686 0.000000
0.004345 0.008025 0.253708
0.544192 0.142440 0.367645
0.728650 0.322202 0.416895
0.731810 0.324524 0.424278
0.746576 0.375622 0.556597
0.004168 0.004166 0.004164
0.084439 0.341288 0.031477
0.014939 0.220182 0.000000
0.192518 0.123232 0.052969
0.561487 0.178730 0.269297
0.708838 0.304296 0.388910
0.730716 0.324217 0.419205
0.731728 0.324501 0.423900
0.737945 0.394311 0.554738
0.446023 0.736486 0.397432
0.451973 0.742409 0.403659
0.450203 0.740659 0.401989
0.443773 0.734332 0.396573
0.411925 0.703567 0.383923
0.616926 0.660150 0.378615
0.656571 0.543582 0.484647
0.686293 0.435513 0.468348
0.703277 0.489450 0.574753
0.464347 0.754875 0.419534
0.464458 0.755045 0.420631
0.464367 0.754998 0.421247
0.464219 0.754939 0.422555
0.463803 0.754941 0.429076
0.550798 0.774986 0.479413
0.713579 0.811969 0.526221
0.763519 0.803001 0.522068
0.726371 0.660089 0.572139
0.468955 0.759889 0.431682
0.469280 0.760309 0.433674
0.469420 0.760504 0.434730
0.469681 0.760861 0.436659
0.470609 0.762114 0.443191
0.515867 0.775879 0.477813
0.703331 0.838682 0.552410
0.753155 0.851722 0.567737
0.801611 0.775689 0.564434
0.712522 0.855157 0.568934
0.713070 0.855444 0.569276
0.713298 0.855565 0.569417
0.713636 0.855741 0.569627
0.714479 0.856183 0.570150
0.717108 0.857561 0.571778
0.723849 0.861039 0.575810
0.733544 0.865788 0.581028
0.820449 0.906370 0.633005
0.004168 0.004166 0.004164
0.004168 0.004166 0.004164
0.004168 0.004166 0.004164
0.004168 0.004166 0.004164
0.009221 0.016300 0.069318
0.457427 0.086708 0.470219
0.715766 0.293714 0.475125
0.735638 0.325519 0.441643
0.749744 0.369019 0.558212
0.004168 0.004166 0.004164
0.004168 0.004166 0.004164
0.004168 0.004166 0.004164
0.036502 0.010810 0.021697
0.202729 0.007781 0.185279
0.655316 0.254412 0.341922
0.730522 0.324161 0.418300
0.731720 0.324499 0.423866
0.744242 0.380403 0.555536
0.004168 0.004166 0.004164
0.004168 0.004166 0.004164
0.020915 0.006140 0.007954
0.313642 0.056692 0.081259
0.613846 0.219466 0.305948
0.715368 0.310456 0.396381
0.730802 0.324242 0.419604
0.731746 0.324506 0.423983
0.741841 0.385526 0.554878
0.004168 0.004166 0.004164
0.002376 0.160478 0.000000
0.034318 0.267366 0.000000
0.153698 0.097567 0.033236
0.554045 0.173560 0.262752
0.708561 0.304036 0.388592
0.730712 0.324216 0.419185
0.731725 0.324500 0.423886
0.738241 0.393534 0.554597
0.213861 0.495359 0.171026
0.403703 0.694110 0.353464
0.404406 0.694817 0.354198
0.345449 0.635123 0.298893
0.403823 0.470952 0.189882
0.666078 0.342091 0.390116
0.730339 0.324109 0.417440
0.731649 0.324479 0.423532
0.727286 0.420376 0.558218
0.453437 0.743867 0.405220
0.456285 0.746702 0.408277
0.455639 0.746073 0.407827
0.452922 0.743432 0.405987
0.439466 0.730758 0.404654
0.618154 0.725548 0.433692
0.690128 0.641265 0.471181
0.661429 0.551128 0.497142
0.695033 0.522525 0.580649
0.464653 0.755216 0.420462
0.464729 0.755349 0.421496
0.464678 0.755340 0.422140
0.464605 0.755353 0.423489
0.464372 0.755503 0.429615
0.538849 0.773653 0.477213
0.712155 0.818335 0.532740
0.761974 0.813162 0.530377
0.739242 0.679217 0.567675
0.468886 0.759852 0.432141
0.469188 0.760251 0.434104
0.469339 0.760454 0.435170
0.469622 0.760839 0.437188
0.470611 0.762150 0.443766
0.514259 0.775481 0.477334
0.701839 0.838470 0.552024
0.751433 0.852609 0.568597
0.805581 0.786256 0.565373
0.712364 0.855063 0.568828
0.712894 0.855341 0.569158
0.713121 0.855459 0.569299
0.713458 0.855636 0.569509
0.714301 0.856077 0.570032
0.716917 0.857448 0.571653
0.723696 0.860953 0.575727
0.733507 0.865763 0.581022
0.821381 0.906942 0.634925
0.004168 0.004166 0.004164
0.004168 0.004166 0.004164
0.004168 0.004166 0.004164
0.004168 0.004166 0.004165
0.004369 0.005671 0.263270
0.499965 0.106598 0.480007
0.726789 0.311217 0.457237
0.733595 0.325002 0.432451
0.746507 0.375619 0.556384
0.004168 0.004166 0.004164
0.004168 0.004166 0.004164
0.005223 0.004590 0.018611
0.007660 0.008935 0.042032
0.466673 0.108839 0.252529
0.700015 0.295778 0.380652
0.730662 0.324201 0.418951
0.731742 0.324505 0.423967
0.740791 0.387770 0.554648
0.004168 0.004166 0.004164
0.002767 0.006927 0.003110
0.004646 0.004565 0.004384
0.217988 0.036871 0.045328
0.566129 0.182057 0.273037
0.709975 0.305364 0.390208
0.730720 0.324218 0.419220
0.731728 0.324501 0.423897
0.738298 0.393359 0.554540
0.004168 0.004166 0.004164
0.154412 0.427578 0.109134
0.055145 0.302100 0.010510
0.106895 0.095974 0.000000
0.510755 0.145962 0.221013
0.702092 0.298002 0.381239
0.730568 0.324174 0.418511
0.731685 0.324489 0.423699
0.734092 0.403372 0.555380
0.346819 0.636451 0.298593
0.399072 0.689441 0.348648
0.376060 0.666198 0.325930
0.309233 0.597714 0.264801
0.356809 0.426299 0.155537
0.654667 0.342816 0.385880
0.730257 0.324085 0.417056
0.731644 0.324478 0.423515
0.722186 0.433691 0.561148
0.451936 0.742377 0.403689
0.451746 0.742193 0.403573
0.450028 0.740497 0.402012
0.445640 0.736187 0.398447
0.426534 0.717827 0.391381
0.610460 0.711539 0.420027
0.685872 0.635215 0.471273
0.661225 0.549488 0.496711
0.693057 0.534060 0.582010
0.463495 0.754062 0.419163
0.463455 0.754083 0.420135
0.463398 0.754070 0.420792
0.463230 0.753990 0.422076
0.462900 0.754053 0.428269
0.540233 0.772278 0.476059
0.711105 0.815392 0.529638
0.761079 0.809643 0.527105
0.744340 0.686412 0.566503
0.468476 0.759436 0.431578
0.468794 0.759859 0.433686
0.468976 0.760098 0.434855
0.469280 0.760510 0.437002
0.470235 0.761796 0.443701
0.515701 0.775315 0.477279
0.701547 0.837636 0.551215
0.750754 0.850946 0.566927
0.806835 0.788077 0.567240
0.712278 0.855012 0.568771
0.712813 0.855293 0.569105
0.713040 0.855413 0.569246
0.713378 0.855589 0.569456
0.714222 0.856032 0.569981
0.716829 0.857398 0.571597
0.723643 0.860924 0.575703
0.733502 0.865758 0.581031
0.821796 0.907197 0.635779
0.004168 0.004166 0.004164
0.004168 0.004166 0.004164
0.004051 0.004260 0.005140
0.008092 0.008236 0.028910
0.004740 0.037414 0.487660
0.451466 0.124690 0.566828
0.746538 0.307889 0.579505
0.749802 0.328528 0.502578
0.746001 0.380585 0.561016
0.004168 0.004166 0.004164
0.010557 0.020902 0.076918
0.013303 0.042803 0.149775
0.020983 0.011107 0.218337
0.519251 0.115806 0.391873
0.703156 0.282661 0.459482
0.736049 0.325620 0.443480
0.733975 0.325101 0.434171
0.740515 0.392664 0.559943
0.004161 0.004166 0.004204
0.011666 0.029918 0.110794
0.009099 0.013463 0.051008
0.174648 0.011167 0.153461
0.520228 0.144189 0.275266
0.701334 0.293682 0.400229
0.731906 0.324549 0.424722
0.732581 0.324733 0.427825
0.737956 0.398702 0.560205
0.000251 0.027484 0.023054
0.067696 0.321344 0.168910
0.010880 0.211371 0.064316
0.098494 0.070042 0.035126
0.473998 0.124737 0.188579
0.694994 0.291191 0.374796
0.730567 0.324174 0.418509
0.731873 0.324541 0.424570
0.733829 0.409124 0.561713
0.334082 0.623384 0.286757
0.341716 0.631460 0.298956
0.309515 0.598145 0.268334
0.220166 0.502505 0.182630
0.333670 0.353043 0.087444
0.657344 0.311940 0.369718
0.730049 0.324024 0.416078
0.731575 0.324458 0.423192
0.722434 0.439547 0.568444
0.444352 0.734825 0.395763
0.441478 0.731969 0.392888
0.438261 0.728775 0.389798
0.430788 0.721378 0.383174
0.406888 0.698127 0.371867
0.598619 0.686670 0.396204
0.672361 0.613589 0.474570
0.661004 0.527858 0.492984
0.695545 0.536363 0.588804
0.462046 0.752615 0.417510
0.461985 0.752624 0.418599
0.461913 0.752600 0.419314
0.461734 0.752514 0.420666
0.461129 0.752328 0.427010
0.540743 0.769972 0.473865
0.708741 0.810309 0.524267
0.759594 0.804359 0.522280
0.744463 0.684048 0.574799
0.467967 0.758934 0.431064
0.468253 0.759331 0.433258
0.468410 0.759549 0.434455
0.468712 0.759961 0.436656
0.469518 0.761103 0.443281
0.518697 0.775376 0.477516
0.700695 0.836098 0.549681
0.749745 0.848524 0.564502
0.808534 0.786967 0.572581
0.712150 0.854938 0.568689
0.712689 0.855221 0.569026
0.712917 0.855340 0.569166
0.713251 0.855516 0.569375
0.714091 0.855956 0.569897
0.716716 0.857330 0.571528
0.723570 0.860885 0.575675
0.733491 0.865750 0.581049
0.822540 0.907686 0.637609
0.009415 0.012978 0.036989
0.020011 0.085995 0.249212
0.022576 0.096140 0.267137
0.018267 0.080611 0.245139
0.008900 0.089277 0.588908
0.504512 0.159338 0.610773
0.756182 0.315921 0.671062
0.780593 0.338113 0.663058
0.758467 0.377293 0.594910
0.019165 0.082513 0.243394
0.025590 0.106868 0.286389
0.025071 0.105033 0.282907
0.014746 0.081401 0.293626
0.503291 0.110805 0.491188
0.703330 0.263424 0.580894
0.766658 0.326183 0.611882
0.768245 0.332741 0.581912
0.752893 0.387619 0.589387
0.023261 0.099239 0.274122
0.037020 0.139348 0.345052
0.027610 0.113771 0.299742
0.013597 0.070223 0.260471
0.491340 0.095667 0.447853
0.704394 0.268604 0.532925
0.760707 0.327255 0.564131
0.759115 0.330398 0.541896
0.750910 0.392510 0.589054
0.101340 0.223546 0.409177
0.153666 0.276568 0.426318
0.089030 0.208647 0.395162
0.017473 0.087549 0.284669
0.450560 0.083096 0.390461
0.693404 0.267898 0.474802
0.752001 0.328823 0.512347
0.748486 0.328272 0.497039
0.747652 0.401048 0.589356
0.347698 0.641855 0.421738
0.336392 0.623790 0.512230
0.293260 0.581519 0.446605
0.193525 0.472547 0.335226
0.370857 0.340205 0.297158
0.648699 0.283847 0.397727
0.735334 0.325407 0.440454
0.736165 0.325648 0.443995
0.737881 0.427866 0.593063
0.428742 0.720369 0.399618
0.424011 0.716368 0.408528
0.418851 0.711158 0.402755
0.408850 0.700972 0.390349
0.374356 0.666236 0.360051
0.577901 0.643756 0.364158
0.653417 0.571792 0.479750
0.670749 0.480484 0.483861
0.708482 0.526483 0.612528
0.459034 0.749639 0.414580
0.458526 0.749240 0.415831
0.458184 0.748959 0.416473
0.457554 0.748442 0.417640
0.456334 0.747695 0.424320
0.535752 0.761728 0.466113
0.701401 0.796727 0.510187
0.755763 0.791962 0.511788
0.747572 0.679762 0.600981
0.466469 0.757446 0.429484
0.466675 0.757779 0.431846
0.466787 0.757958 0.433098
0.466993 0.758284 0.435348
0.467567 0.759203 0.441865
0.518995 0.773433 0.475814
0.697814 0.831795 0.545419
0.746473 0.842045 0.558111
0.814044 0.785539 0.588621
0.711793 0.854734 0.568471
0.712348 0.855025 0.568818
0.712581 0.855148 0.568964
0.712924 0.855328 0.569179
0.713788 0.855781 0.569720
0.716518 0.857216 0.571433
0.723507 0.860848 0.575707
0.733474 0.865744 0.581168
0.824667 0.909088 0.642843
0.126901 0.256355 0.454053
0.072150 0.200616 0.444126
0.055264 0.179052 0.425406
0.033273 0.130035 0.328885
0.013691 0.118675 0.643207
0.638628 0.227936 0.649689
0.761600 0.323488 0.691999
0.780507 0.340803 0.701123
0.786406 0.386943 0.694232
0.131337 0.260519 0.454150
0.119591 0.250069 0.457311
0.096187 0.227782 0.458930
0.041741 0.153347 0.380463
0.015433 0.124862 0.621906
0.661652 0.240165 0.644048
0.766545 0.327002 0.688026
0.783099 0.342556 0.697012
0.784926 0.393041 0.691382
0.173899 0.299140 0.450199
0.164468 0.290372 0.449820
0.136795 0.265216 0.452037
0.059268 0.184458 0.430202
0.019175 0.137239 0.605182
0.657641 0.236154 0.638937
0.767021 0.327121 0.685911
0.783545 0.342734 0.695028
0.784212 0.395821 0.690205
0.247429 0.378182 0.453137
0.226398 0.351349 0.444488
0.189163 0.313036 0.447347
0.115211 0.245448 0.454780
0.037038 0.172222 0.544230
0.647780 0.227379 0.630023
0.766718 0.325992 0.678743
0.783857 0.342621 0.691056
0.783063 0.400724 0.688827
0.367137 0.595904 0.600159
0.349041 0.564821 0.578487
0.321282 0.510623 0.539963
0.263889 0.403535 0.465157
0.170320 0.289662 0.399888
0.626687 0.267002 0.614686
0.763697 0.321490 0.655636
0.782520 0.340086 0.667837
0.779628 0.417328 0.687593
0.459242 0.741689 0.664239
0.450505 0.733173 0.654755
0.444135 0.727182 0.647261
0.433120 0.716516 0.634927
0.397662 0.680337 0.599069
0.657875 0.652707 0.692998
0.721723 0.555168 0.677969
0.737670 0.448690 0.613160
0.764190 0.497038 0.700339
0.482745 0.778965 0.586958
0.481198 0.777406 0.587283
0.479910 0.776129 0.585413
0.477691 0.773927 0.581969
0.469344 0.765622 0.569032
0.595295 0.781021 0.584849
0.719113 0.791503 0.564145
0.777831 0.778658 0.554219
0.772659 0.670342 0.704594
0.470486 0.764637 0.491635
0.470817 0.765221 0.497388
0.470764 0.765253 0.499173
0.470548 0.765147 0.501393
0.469462 0.764296 0.505613
0.549235 0.781400 0.532458
0.700825 0.828584 0.574824
0.752737 0.836241 0.573607
0.836523 0.781513 0.664575
0.711335 0.854514 0.568660
0.711926 0.854828 0.569070
0.712177 0.854962 0.569242
0.712548 0.855158 0.569496
0.713474 0.855651 0.570133
0.716367 0.857192 0.572126
0.723710 0.861071 0.577147
0.734277 0.866336 0.583530
0.833395 0.914783 0.664125
0.259346 0.395162 0.461791
0.264022 0.402208 0.465818
0.233796 0.360287 0.446633
0.171278 0.296497 0.448762
0.090971 0.229509 0.497801
0.550534 0.213318 0.640288
0.755533 0.319846 0.698381
0.778076 0.339943 0.708858
0.798757 0.445116 0.749139
0.303853 0.469163 0.511902
0.295799 0.454809 0.501277
0.280993 0.429380 0.483211
0.228364 0.353668 0.445012
0.135508 0.268809 0.478652
0.550025 0.235937 0.631621
0.754946 0.319507 0.697319
0.778247 0.339908 0.707816
0.798697 0.447203 0.749241
0.326611 0.510859 0.543433
0.312129 0.484220 0.523216
0.297282 0.457457 0.503207
0.255753 0.389915 0.458921
0.159868 0.287982 0.460910
0.551094 0.251209 0.625096
0.754598 0.322369 0.697574
0.778151 0.340023 0.707340
0.798685 0.448286 0.749357
0.352686 0.558633 0.579186
0.337298 0.530615 0.558349
0.323741 0.505631 0.539441
0.285972 0.437818 0.489042
0.194310 0.317765 0.445599
0.555336 0.280575 0.611833
0.754107 0.329155 0.698639
0.778074 0.343573 0.707599
0.798685 0.450158 0.749627
0.399232 0.643272 0.634037
0.382015 0.614251 0.616057
0.369519 0.591436 0.601362
0.349380 0.553082 0.574945
0.275650 0.420170 0.477314
0.580849 0.375248 0.586821
0.752937 0.355843 0.704258
0.778417 0.359719 0.710839
0.798837 0.457173 0.751124
0.458283 0.731829 0.678690
0.451940 0.723985 0.674030
0.447840 0.718752 0.671097
0.440334 0.708892 0.665751
0.420312 0.679645 0.651578
0.591107 0.626597 0.707598
0.778512 0.561835 0.774965
0.788877 0.501316 0.759993
0.801531 0.500340 0.765308
0.506524 0.791162 0.706043
0.504625 0.789139 0.704523
0.503638 0.788070 0.703778
0.501809 0.786064 0.702455
0.495832 0.779346 0.698495
0.621777 0.805929 0.753903
0.846273 0.835266 0.857060
0.901936 0.806161 0.868201
0.828094 0.638282 0.823054
0.521215 0.809016 0.709898
0.520664 0.808419 0.709544
0.520427 0.808156 0.709416
0.520076 0.807755 0.709268
0.518998 0.806505 0.708881
0.636884 0.842394 0.758254
0.804844 0.887366 0.841981
0.890637 0.886828 0.847475
0.894057 0.777660 0.859475
0.716378 0.858781 0.586367
0.717174 0.859248 0.587289
0.717512 0.859446 0.587681
0.718011 0.859740 0.588268
0.719262 0.860477 0.589750
0.723058 0.862699 0.594089
0.733422 0.868279 0.603594
0.745834 0.874930 0.615120
0.869965 0.936751 0.750251
0.359433 0.570742 0.587990
0.358436 0.568962 0.586705
0.349816 0.553287 0.575315
0.320075 0.498748 0.534255
0.236790 0.364010 0.447926
0.407180 0.289604 0.468278
0.737009 0.334913 0.701893
0.774621 0.351169 0.714618
0.814039 0.536834 0.791852
0.381040 0.610041 0.614642
0.375980 0.600803 0.608681
0.368559 0.587354 0.599617
0.350199 0.554058 0.575855
0.278147 0.424409 0.480010
0.425760 0.329391 0.466819
0.736596 0.350222 0.705043
0.774938 0.359670 0.716824
0.814320 0.538682 0.792548
0.390743 0.627232 0.625417
0.383527 0.614640 0.617502
0.376535 0.601966 0.609373
0.360170 0.572358 0.589031
0.293950 0.451195 0.498805
0.432097 0.346116 0.472097
0.736725 0.359534 0.707049
0.775211 0.364066 0.718086
0.814465 0.539583 0.792897
0.404639 0.650370 0.639447
0.395064 0.634797 0.629942
0.388344 0.623283 0.622849
0.374451 0.598186 0.606876
0.316181 0.491098 0.528618
0.440281 0.372542 0.484700
0.737559 0.377922 0.711156
0.775654 0.371437 0.720250
0.814712 0.541058 0.793481
0.427257 0.686189 0.658935
0.419681 0.674459 0.652868
0.415118 0.667261 0.648990
0.405317 0.651712 0.640057
0.361981 0.574496 0.591015
0.458697 0.461709 0.545604
0.743546 0.440623 0.726967
0.777244 0.396968 0.728013
0.815520 0.545675 0.795353
0.464670 0.738573 0.684732
0.459344 0.731777 0.681131
0.456107 0.727558 0.678953
0.450199 0.719670 0.674987
0.437437 0.700887 0.666809
0.505126 0.624921 0.667407
0.792300 0.623382 0.799435
0.800417 0.556774 0.789452
0.820161 0.568694 0.805168
0.506009 0.788504 0.711090
0.504480 0.786705 0.710211
0.503562 0.785616 0.709697
0.501786 0.783497 0.708712
0.496564 0.777045 0.706140
0.571251 0.784625 0.741151
0.803459 0.833108 0.876416
0.902038 0.810460 0.893562
0.846208 0.654125 0.844686
0.522029 0.806723 0.721051
0.521626 0.806180 0.721059
0.521455 0.805934 0.721103
0.521176 0.805529 0.721186
0.520266 0.804236 0.721352
0.616741 0.832425 0.765028
0.803086 0.891667 0.869913
0.910923 0.889791 0.896597
0.901294 0.770697 0.889746
0.749874 0.885809 0.700307
0.751480 0.886797 0.703299
0.752149 0.887207 0.704530
0.753129 0.887805 0.706318
0.755511 0.889251 0.710595
0.762409 0.893260 0.721225
0.776884 0.901315 0.740385
0.795987 0.910599 0.757411
0.919566 0.960209 0.844168
0.527926 0.810887 0.731433
0.528039 0.810897 0.731803
0.528072 0.810881 0.731957
0.528116 0.810850 0.732182
0.528185 0.810723 0.732729
0.528319 0.809994 0.734880
0.709679 0.875040 0.828171
0.775448 0.896752 0.881395
0.968909 0.891642 0.959623
0.528273 0.811227 0.731789
0.528368 0.811216 0.732148
0.528403 0.811203 0.732299
0.528448 0.811175 0.732522
0.528531 0.811061 0.733080
0.529177 0.810552 0.735452
0.710946 0.875992 0.828929
0.777018 0.898176 0.882045
0.969394 0.892881 0.959998
0.528409 0.811359 0.731931
0.528505 0.811350 0.732290
0.528541 0.811337 0.732441
0.528584 0.811309 0.732660
0.528674 0.811202 0.733229
0.531759 0.811449 0.736526
0.711478 0.876388 0.829247
0.777657 0.898758 0.882307
0.969596 0.893398 0.960154
0.528609 0.811555 0.732139
0.528706 0.811546 0.732497
0.528743 0.811536 0.732647
0.528784 0.811505 0.732864
0.528883 0.811407 0.733446
0.535607 0.812790 0.738139
0.712239 0.876940 0.829707
0.778574 0.899595 0.882681
0.969891 0.894157 0.960381
0.529102 0.812036 0.732647
0.529196 0.812025 0.732997
0.529229 0.812013 0.733143
0.529274 0.811987 0.733361
0.529387 0.811891 0.733977
0.545757 0.816343 0.742436
0.714068 0.878250 0.830815
0.780702 0.901555 0.883541
0.970624 0.896050 0.960947
0.530486 0.813387 0.734071
0.530585 0.813377 0.734438
0.530632 0.813374 0.734607
0.530693 0.813358 0.734860
0.530857 0.813312 0.735525
0.568945 0.824971 0.752881
0.719265 0.881913 0.833973
0.785800 0.906226 0.885631
0.972736 0.901597 0.962572
0.533538 0.816288 0.737409
0.533686 0.816315 0.737850
0.533753 0.816328 0.738047
0.533855 0.816347 0.738348
0.551492 0.821736 0.745769
0.608579 0.841060 0.772367
0.732390 0.890163 0.842712
0.794590 0.913828 0.889738
0.977130 0.913645 0.965945
0.563551 0.827642 0.751431
0.573675 0.830979 0.755986
0.577882 0.832392 0.757919
0.584214 0.834546 0.760861
0.600017 0.840069 0.768427
0.659033 0.862503 0.798867
0.746441 0.898436 0.852472
0.802979 0.920357 0.894263
0.981257 0.925745 0.969036
0.874434 0.962025 0.932988
0.876027 0.962595 0.933843
0.876652 0.962817 0.934183
0.877547 0.963133 0.934672
0.879718 0.963896 0.935849
0.886097 0.966088 0.939251
0.900976 0.970904 0.946833
0.916412 0.975374 0.954087
0.989726 0.985695 0.980433
