luts/film/portra160.cube
TITLE "spektrafilm negative scan kodak_portra_160 {"black": 0.0, "blue_rot": -8, "cast_a": 0.0, "cast_b": 0.003, "contrast": 2.8, "crossover": 0.4, "density": 0.2, "dir": 1.3, "ev": 1.0, "flare": 0.12, "green": 0.8, "green_dark": 0.03, "green_hue": 125, "green_rot": 12, "green_width": 55, "grey": 0.58, "peak": 24.0, "red_hue": 0, "red_rot": 0, "red_width": 40, "sat": 0.85, "sky_rot": 14, "sky_sat": 1.6} display=apple1.961 from=adobergb-power fit=partner-scans:024374ff987f"
# film: spektrafilm by Andrea Volpato / https://github.com/andreavolpato/spektrafilm / CC BY-SA 4.0
LUT_3D_SIZE 5
# fit 0-9: 0.431195 0.430242 0.427804 0.423418 0.455337 0.593385 0.704584 -0.188797 -0.978293 1.814358
# fit 10-19: 1.380962 0.46007 0.558762 0.490401 0.957156 0.47949 -0.605748 -0.539783 0.091469 0.866042
# fit 20-29: 0.736283 0.039137 0.186413 -0.084922 0.309282 0.432111 0.118449 -0.250942 0.292885 0.181173
# fit 30-39: 0.033686 0.175148 -0.040051 0.201144 -0.069371 0.359628 0.787995 0.450128 0.620556 0.605018
# fit 40-49: 0.659458 1.169412 0.773952 -0.525722 -0.500742 0.458299 -0.019493 -0.240407 -0.061149 -0.056571
# fit 50-59: -0.001992 -0.000631 0.260688 0.035744 -0.016396 -1.459415 0.230954 -1.162796 2.472001 0.168247
# fit 60-69: -0.570035 -1.203383 -2.261787 -3.784558 -2.745374 -0.717734 -0.96348 -0.30455 -1.339504 -2.345355
# fit 70-79: -0.132375 -0.059793 1.881056 -0.845045
0.004168 0.004166 0.004164
0.004168 0.004166 0.004164
0.004168 0.004166 0.004164
0.640566 0.217569 0.610263
0.757008 0.354456 0.564357
0.004168 0.004166 0.004164
0.004168 0.004166 0.004164
0.362036 0.094811 0.109123
0.716288 0.293598 0.478182
0.749858 0.368884 0.558407
0.004168 0.004166 0.004164
0.014939 0.220182 0.000000
0.561487 0.178730 0.269297
0.730716 0.324217 0.419205
0.737945 0.394311 0.554738
0.464347 0.754875 0.419534
0.464367 0.754998 0.421247
0.463803 0.754941 0.429076
0.713579 0.811969 0.526221
0.726371 0.660089 0.572139
0.712522 0.855157 0.568934
0.713298 0.855565 0.569417
0.714479 0.856183 0.570150
0.723849 0.861039 0.575810
0.820449 0.906370 0.633005
0.004168 0.004166 0.004164
0.004168 0.004166 0.004164
0.004369 0.005671 0.263270
0.726789 0.311217 0.457237
0.746507 0.375619 0.556384
0.004168 0.004166 0.004164
0.004646 0.004565 0.004384
0.566129 0.182057 0.273037
0.730720 0.324218 0.419220
0.738298 0.393359 0.554540
0.346819 0.636451 0.298593
0.376060 0.666198 0.325930
0.356809 0.426299 0.155537
0.730257 0.324085 0.417056
0.722186 0.433691 0.561148
0.463495 0.754062 0.419163
0.463398 0.754070 0.420792
0.462900 0.754053 0.428269
0.711105 0.815392 0.529638
0.744340 0.686412 0.566503
0.712278 0.855012 0.568771
0.713040 0.855413 0.569246
0.714222 0.856032 0.569981
0.723643 0.860924 0.575703
0.821796 0.907197 0.635779
0.009415 0.012978 0.036989
0.022576 0.096140 0.267137
0.008900 0.089277 0.588908
0.756182 0.315921 0.671062
0.758467 0.377293 0.594910
0.023261 0.099239 0.274122
0.027610 0.113771 0.299742
0.491340 0.095667 0.447853
0.760707 0.327255 0.564131
0.750910 0.392510 0.589054
0.347698 0.641855 0.421738
0.293260 0.581519 0.446605
0.370857 0.340205 0.297158
0.735334 0.325407 0.440454
0.737881 0.427866 0.593063
0.459034 0.749639 0.414580
0.458184 0.748959 0.416473
0.456334 0.747695 0.424320
0.701401 0.796727 0.510187
0.747572 0.679762 0.600981
0.711793 0.854734 0.568471
0.712581 0.855148 0.568964
0.713788 0.855781 0.569720
0.723507 0.860848 0.575707
0.824667 0.909088 0.642843
0.259346 0.395162 0.461791
0.233796 0.360287 0.446633
0.090971 0.229509 0.497801
0.755533 0.319846 0.698381
0.798757 0.445116 0.749139
0.326611 0.510859 0.543433
0.297282 0.457457 0.503207
0.159868 0.287982 0.460910
0.754598 0.322369 0.697574
0.798685 0.448286 0.749357
0.399232 0.643272 0.634037
0.369519 0.591436 0.601362
0.275650 0.420170 0.477314
0.752937 0.355843 0.704258
0.798837 0.457173 0.751124
0.506524 0.791162 0.706043
0.503638 0.788070 0.703778
0.495832 0.779346 0.698495
0.846273 0.835266 0.857060
0.828094 0.638282 0.823054
0.716378 0.858781 0.586367
0.717512 0.859446 0.587681
0.719262 0.860477 0.589750
0.733422 0.868279 0.603594
0.869965 0.936751 0.750251
0.527926 0.810887 0.731433
0.528072 0.810881 0.731957
0.528185 0.810723 0.732729
0.709679 0.875040 0.828171
0.968909 0.891642 0.959623
0.528409 0.811359 0.731931
0.528541 0.811337 0.732441
0.528674 0.811202 0.733229
0.711478 0.876388 0.829247
0.969596 0.893398 0.960154
0.529102 0.812036 0.732647
0.529229 0.812013 0.733143
0.529387 0.811891 0.733977
0.714068 0.878250 0.830815
0.970624 0.896050 0.960947
0.533538 0.816288 0.737409
0.533753 0.816328 0.738047
0.551492 0.821736 0.745769
0.732390 0.890163 0.842712
0.977130 0.913645 0.965945
0.874434 0.962025 0.932988
0.876652 0.962817 0.934183
0.879718 0.963896 0.935849
0.900976 0.970904 0.946833
0.989726 0.985695 0.980433
