luts/film/portra800.cube
TITLE "spektrafilm negative scan kodak_portra_160 {"black": 0.0, "blue_rot": -8, "cast_a": 0.0, "cast_b": 0.003, "contrast": 2.8, "crossover": 0.4, "density": 0.2, "dir": 1.3, "ev": 1.0, "flare": 0.12, "green": 0.8, "green_dark": 0.03, "green_hue": 125, "green_rot": 12, "green_width": 55, "grey": 0.58, "peak": 24.0, "red_hue": 0, "red_rot": 0, "red_width": 40, "sat": 0.85, "sky_rot": 14, "sky_sat": 1.6} display=apple fit=partner-scans:024374ff987f 800=contrast0.9,black+0.02,chroma0.9"
# film: spektrafilm by Andrea Volpato / https://github.com/andreavolpato/spektrafilm / CC BY-SA 4.0
LUT_3D_SIZE 9
# fit 0-9: 0.431195 0.430242 0.427804 0.423418 0.455337 0.593385 0.704584 -0.188797 -0.978293 1.814358
# fit 10-19: 1.380962 0.46007 0.558762 0.490401 0.957156 0.47949 -0.605748 -0.539783 0.091469 0.866042
# fit 20-29: 0.736283 0.039137 0.186413 -0.084922 0.309282 0.432111 0.118449 -0.250942 0.292885 0.181173
# fit 30-39: 0.033686 0.175148 -0.040051 0.201144 -0.069371 0.359628 0.787995 0.450128 0.620556 0.605018
# fit 40-49: 0.659458 1.169412 0.773952 -0.525722 -0.500742 0.458299 -0.019493 -0.240407 -0.061149 -0.056571
# fit 50-59: -0.001992 -0.000631 0.260688 0.035744 -0.016396 -1.459415 0.230954 -1.162796 2.472001 0.168247
# fit 60-69: -0.570035 -1.203383 -2.261787 -3.784558 -2.745374 -0.717734 -0.96348 -0.30455 -1.339504 -2.345355
# fit 70-79: -0.132375 -0.059793 1.881056 -0.845045
0.028288 0.028280 0.028274
0.028288 0.028280 0.028274
0.028288 0.028280 0.028274
0.028288 0.028280 0.028274
0.028288 0.028280 0.028274
0.319612 0.137530 0.500483
0.664499 0.293083 0.636537
0.753232 0.372881 0.641214
0.758462 0.413342 0.594156
0.028288 0.028280 0.028274
0.028288 0.028280 0.028274
0.028288 0.028280 0.028274
0.028288 0.028280 0.028274
0.249126 0.498317 0.206256
0.427367 0.157584 0.538124
0.713880 0.333378 0.572400
0.750575 0.389652 0.529317
0.754098 0.422010 0.590289
0.028288 0.028280 0.028274
0.028288 0.028280 0.028274
0.028288 0.028280 0.028274
0.028288 0.028280 0.028274
0.429111 0.170467 0.180412
0.516623 0.174366 0.523025
0.726911 0.359813 0.520921
0.742421 0.387988 0.489569
0.752208 0.425761 0.588950
0.028288 0.028280 0.028274
0.028288 0.028280 0.028274
0.028288 0.028280 0.028274
0.016973 0.073034 0.014797
0.022078 0.063161 0.333948
0.586777 0.221485 0.426347
0.736610 0.384984 0.466816
0.739131 0.387036 0.473279
0.749327 0.431562 0.587345
0.028288 0.028280 0.028274
0.164322 0.404753 0.108857
0.078126 0.294046 0.044073
0.266194 0.195875 0.121002
0.601059 0.254535 0.335344
0.720808 0.369118 0.442308
0.738254 0.386764 0.468822
0.739065 0.387016 0.472947
0.741710 0.447648 0.585589
0.491790 0.736013 0.449150
0.496849 0.740762 0.454515
0.495346 0.739359 0.453076
0.489880 0.734280 0.448404
0.462718 0.709451 0.437406
0.635755 0.672695 0.432687
0.670748 0.575061 0.524372
0.698041 0.483073 0.511066
0.710584 0.529016 0.601701
0.507353 0.750731 0.468146
0.507451 0.750865 0.469084
0.507375 0.750824 0.469612
0.507253 0.750772 0.470730
0.506919 0.750751 0.476306
0.579829 0.766273 0.519099
0.713990 0.794989 0.558322
0.754806 0.787560 0.554786
0.726443 0.671482 0.597654
0.511273 0.754715 0.478537
0.511552 0.755046 0.480239
0.511673 0.755199 0.481141
0.511897 0.755478 0.482788
0.512696 0.756461 0.488363
0.550686 0.767194 0.517777
0.705384 0.816330 0.580200
0.745848 0.826430 0.592868
0.786102 0.765275 0.590284
0.712756 0.829369 0.593921
0.713202 0.829595 0.594205
0.713387 0.829688 0.594322
0.713660 0.829827 0.594495
0.714344 0.830173 0.594928
0.716476 0.831251 0.596275
0.721938 0.833973 0.599608
0.729787 0.837684 0.603914
0.799663 0.869268 0.646606
0.028288 0.028280 0.028274
0.028288 0.028280 0.028274
0.028288 0.028280 0.028274
0.028288 0.028280 0.028274
0.042466 0.061568 0.142262
0.511256 0.171245 0.520265
0.726489 0.359903 0.518258
0.742200 0.387927 0.488495
0.752111 0.425876 0.588782
0.028288 0.028280 0.028274
0.028288 0.028280 0.028274
0.028288 0.028280 0.028274
0.100024 0.047700 0.071189
0.282188 0.057525 0.261486
0.677816 0.324364 0.400893
0.738098 0.386715 0.468026
0.739059 0.387015 0.472916
0.747278 0.435678 0.586396
0.028288 0.028280 0.028274
0.028288 0.028280 0.028274
0.071718 0.035006 0.039657
0.386561 0.131318 0.151009
0.644123 0.292448 0.368646
0.726020 0.374587 0.448855
0.738322 0.386786 0.469172
0.739079 0.387021 0.473019
0.745161 0.440088 0.585789
0.028288 0.028280 0.028274
0.047322 0.236297 0.035521
0.110152 0.338103 0.050953
0.227946 0.169275 0.094170
0.594885 0.249653 0.329310
0.720586 0.368887 0.442030
0.738250 0.386763 0.468804
0.739062 0.387016 0.472934
0.741975 0.446980 0.585477
0.287298 0.537857 0.246379
0.455582 0.701893 0.411006
0.456186 0.702465 0.411647
0.405062 0.653927 0.362904
0.455334 0.515540 0.263645
0.683936 0.401967 0.443330
0.737951 0.386668 0.467270
0.739001 0.386997 0.472624
0.732202 0.470045 0.588318
0.498093 0.741930 0.455858
0.500510 0.744200 0.458486
0.499963 0.743696 0.458099
0.497659 0.741577 0.456514
0.486247 0.731367 0.455338
0.636118 0.726011 0.480142
0.696923 0.656431 0.512191
0.674644 0.581361 0.535029
0.703016 0.557015 0.606352
0.507614 0.751002 0.468940
0.507681 0.751105 0.469825
0.507640 0.751096 0.470375
0.507581 0.751102 0.471528
0.507400 0.751200 0.476768
0.569867 0.765272 0.517248
0.712768 0.800076 0.563777
0.753428 0.795691 0.561739
0.736715 0.687143 0.593709
0.511216 0.754684 0.478930
0.511475 0.754997 0.480606
0.511605 0.755157 0.481517
0.511849 0.755459 0.483240
0.512699 0.756487 0.488854
0.549342 0.766883 0.517374
0.704167 0.816171 0.579880
0.744441 0.827143 0.593584
0.789165 0.773764 0.591019
0.712629 0.829296 0.593834
0.713059 0.829513 0.594107
0.713242 0.829606 0.594223
0.713517 0.829745 0.594398
0.714199 0.830090 0.594830
0.716321 0.831163 0.596172
0.721814 0.833906 0.599540
0.729757 0.837665 0.603911
0.800407 0.869709 0.648184
0.028288 0.028280 0.028274
0.028288 0.028280 0.028274
0.028288 0.028280 0.028274
0.028287 0.028280 0.028278
0.020801 0.059897 0.343260
0.548103 0.190177 0.527853
0.735219 0.375336 0.502352
0.740563 0.387464 0.480448
0.749272 0.431559 0.587164
0.028288 0.028280 0.028274
0.028288 0.028280 0.028274
0.031229 0.030443 0.066892
0.037997 0.043799 0.109118
0.521391 0.187546 0.320883
0.713757 0.361535 0.435077
0.738210 0.386750 0.468598
0.739076 0.387020 0.473005
0.744235 0.442019 0.585573
0.028288 0.028280 0.028274
0.023542 0.037170 0.024568
0.029897 0.029626 0.029011
0.296751 0.103280 0.110037
0.604902 0.257667 0.338778
0.721716 0.370067 0.443448
0.738256 0.386765 0.468834
0.739064 0.387016 0.472944
0.742027 0.446828 0.585430
0.028288 0.028280 0.028274
0.231945 0.480086 0.187774
0.135060 0.369703 0.075204
0.178404 0.168424 0.030416
0.558701 0.223262 0.290292
0.715416 0.363517 0.435571
0.738134 0.386726 0.468212
0.739030 0.387006 0.472770
0.738283 0.455440 0.586056
0.406253 0.655020 0.362656
0.451594 0.698117 0.406798
0.431708 0.679270 0.386859
0.373201 0.623214 0.332388
0.414043 0.477285 0.231200
0.674341 0.402547 0.439623
0.737885 0.386647 0.466933
0.738998 0.386996 0.472609
0.727630 0.481461 0.590688
0.496818 0.740735 0.454539
0.496657 0.740588 0.454439
0.495197 0.739228 0.453095
0.491467 0.735768 0.450020
0.475209 0.720971 0.443884
0.629834 0.714690 0.468439
0.693498 0.651448 0.512300
0.674505 0.579983 0.534673
0.701139 0.566738 0.607379
0.506633 0.750079 0.467826
0.506602 0.750093 0.468658
0.506556 0.750080 0.469220
0.506417 0.750012 0.470318
0.506155 0.750040 0.475616
0.571022 0.764157 0.516268
0.711936 0.797734 0.561185
0.752742 0.792885 0.559003
0.740781 0.693017 0.592656
0.510868 0.754353 0.478449
0.511142 0.754684 0.480249
0.511298 0.754872 0.481248
0.511560 0.755195 0.483081
0.512381 0.756204 0.488799
0.550546 0.766741 0.517325
0.703936 0.815509 0.579207
0.743905 0.825826 0.592200
0.790153 0.775218 0.592569
0.712559 0.829256 0.593787
0.712993 0.829476 0.594063
0.713177 0.829569 0.594180
0.713451 0.829708 0.594354
0.714136 0.830054 0.594788
0.716250 0.831123 0.596126
0.721771 0.833882 0.599519
0.729753 0.837661 0.603917
0.800738 0.869906 0.648886
0.028288 0.028280 0.028274
0.028288 0.028280 0.028274
0.027865 0.028608 0.031581
0.039549 0.041243 0.087359
0.026986 0.129037 0.544037
0.503295 0.207668 0.603729
0.750969 0.372927 0.607795
0.753545 0.390694 0.541429
0.748700 0.435850 0.591063
0.028288 0.028280 0.028274
0.046180 0.071008 0.150404
0.053925 0.109475 0.227603
0.061117 0.063324 0.298991
0.565801 0.197095 0.448968
0.716406 0.350024 0.504818
0.742531 0.388018 0.490101
0.740867 0.387552 0.481955
0.743854 0.446242 0.590037
0.028262 0.028280 0.028414
0.049349 0.088978 0.187233
0.042149 0.054699 0.120746
0.254303 0.060316 0.229550
0.566696 0.221895 0.341475
0.714842 0.359680 0.452487
0.739208 0.387060 0.473668
0.739749 0.387224 0.476392
0.741580 0.451435 0.590204
0.020748 0.083408 0.073788
0.149553 0.385915 0.240806
0.072010 0.284832 0.134586
0.170663 0.139270 0.095428
0.527587 0.202532 0.259337
0.709736 0.357442 0.429918
0.738134 0.386726 0.468210
0.739181 0.387052 0.473535
0.737891 0.460393 0.591392
0.395095 0.644321 0.352103
0.401809 0.650915 0.362918
0.373465 0.623555 0.335518
0.293113 0.543860 0.257043
0.393934 0.413084 0.166384
0.677585 0.375387 0.425440
0.737718 0.386593 0.466072
0.738942 0.386979 0.472325
0.727664 0.486477 0.596828
0.490367 0.734680 0.447710
0.487920 0.732387 0.445228
0.485180 0.729822 0.442559
0.478806 0.723871 0.436826
0.458370 0.705083 0.426963
0.620174 0.694509 0.447935
0.682649 0.633574 0.515243
0.674752 0.561763 0.531650
0.703142 0.568661 0.613086
0.505405 0.748923 0.466409
0.505356 0.748926 0.467341
0.505297 0.748904 0.467953
0.505150 0.748830 0.469110
0.504655 0.748658 0.474537
0.571447 0.762301 0.514408
0.710050 0.793689 0.556691
0.751597 0.788669 0.554967
0.740913 0.691058 0.599647
0.510438 0.753950 0.478009
0.510684 0.754261 0.479883
0.510820 0.754432 0.480905
0.511080 0.754756 0.482785
0.511776 0.755650 0.488441
0.553049 0.766773 0.517523
0.703251 0.814290 0.577931
0.743109 0.823909 0.590188
0.791544 0.774301 0.597029
0.712455 0.829198 0.593719
0.712893 0.829419 0.593997
0.713077 0.829512 0.594114
0.713348 0.829650 0.594287
0.714030 0.829995 0.594719
0.716158 0.831071 0.596068
0.721713 0.833851 0.599497
0.729744 0.837655 0.603932
0.801331 0.870284 0.650389
0.043224 0.052986 0.100470
0.070284 0.160115 0.324508
0.075686 0.170911 0.341216
0.066582 0.154523 0.320853
0.043174 0.181557 0.629325
0.548747 0.240164 0.639842
0.758069 0.380509 0.684952
0.777692 0.399780 0.677665
0.758901 0.433130 0.619849
0.068448 0.156382 0.319060
0.081983 0.182174 0.359002
0.080709 0.180252 0.355791
0.059475 0.157365 0.367119
0.550738 0.194254 0.537542
0.716275 0.333710 0.610062
0.766878 0.389116 0.634854
0.768202 0.394685 0.609304
0.754067 0.441987 0.615072
0.077118 0.174230 0.347728
0.101481 0.215401 0.412258
0.085838 0.189367 0.371268
0.056317 0.144702 0.336187
0.541314 0.179486 0.499776
0.717384 0.337948 0.568816
0.762244 0.389811 0.594279
0.760973 0.392466 0.575210
0.752307 0.446188 0.614741
0.174152 0.295594 0.467079
0.226544 0.344120 0.480469
0.161383 0.281632 0.455029
0.065431 0.163043 0.358345
0.506514 0.165488 0.449256
0.708621 0.336944 0.518483
0.755304 0.390983 0.549852
0.752494 0.390454 0.536646
0.749397 0.453519 0.614911
0.407475 0.658957 0.470205
0.397735 0.643745 0.548400
0.359749 0.608993 0.492287
0.269606 0.517576 0.394919
0.428011 0.400262 0.360842
0.671069 0.350397 0.450715
0.741957 0.387828 0.487456
0.742624 0.388043 0.490552
0.740636 0.476508 0.617779
0.477114 0.722995 0.450983
0.473110 0.719727 0.458647
0.468693 0.715531 0.453669
0.460109 0.707322 0.442949
0.430363 0.679164 0.416579
0.603231 0.659428 0.420098
0.667594 0.598776 0.519974
0.683933 0.521561 0.524161
0.714003 0.560291 0.633150
0.502852 0.746540 0.463894
0.502426 0.746215 0.464965
0.502139 0.745987 0.465514
0.501609 0.745566 0.466512
0.500595 0.744942 0.472231
0.567282 0.755695 0.507836
0.704171 0.782869 0.544891
0.748631 0.778763 0.546178
0.743500 0.687465 0.621638
0.509170 0.752762 0.476658
0.509350 0.753020 0.478676
0.509448 0.753160 0.479746
0.509627 0.753414 0.481668
0.510128 0.754129 0.487232
0.553293 0.765210 0.516080
0.700930 0.810880 0.574383
0.740514 0.818777 0.584883
0.796017 0.773078 0.610402
0.712166 0.829038 0.593538
0.712616 0.829266 0.593825
0.712805 0.829362 0.593947
0.713083 0.829503 0.594124
0.713784 0.829858 0.594572
0.715998 0.830981 0.595989
0.721662 0.833823 0.599524
0.729730 0.837650 0.604032
0.803026 0.871366 0.654687
0.200080 0.326124 0.505908
0.143717 0.275116 0.499291
0.125495 0.254801 0.483481
0.095626 0.206014 0.397729
0.055702 0.209566 0.674254
0.662167 0.302699 0.669756
0.762192 0.387230 0.702286
0.777278 0.402323 0.709433
0.781064 0.441873 0.702952
0.204503 0.329891 0.505837
0.192753 0.320473 0.509036
0.168929 0.300248 0.511339
0.108422 0.229645 0.444051
0.060301 0.213680 0.656113
0.681372 0.313554 0.664510
0.766217 0.390264 0.698864
0.779398 0.403820 0.705955
0.779721 0.447070 0.700502
0.246180 0.364602 0.500947
0.237055 0.356740 0.500912
0.209923 0.334113 0.503786
0.130001 0.259918 0.487544
0.069038 0.223532 0.641542
0.678146 0.309940 0.660310
0.766623 0.390356 0.697091
0.779775 0.403963 0.704294
0.779076 0.449440 0.699486
0.315689 0.434657 0.501203
0.296081 0.411011 0.494269
0.260839 0.377002 0.497955
0.188335 0.316247 0.506969
0.101992 0.252029 0.588122
0.670138 0.302035 0.653042
0.766455 0.389332 0.691120
0.780063 0.403844 0.700981
0.778024 0.453621 0.698276
0.423853 0.620171 0.623507
0.407902 0.594322 0.605707
0.383129 0.548775 0.573828
0.330913 0.456840 0.511169
0.242806 0.355781 0.456324
0.651420 0.336362 0.639648
0.764250 0.385273 0.671850
0.779193 0.401519 0.681621
0.774816 0.467783 0.697036
0.503342 0.739279 0.674834
0.495940 0.732443 0.667081
0.490535 0.727630 0.660934
0.481166 0.719043 0.650808
0.450816 0.689776 0.621297
0.669764 0.665467 0.699015
0.724192 0.584306 0.687486
0.739873 0.494322 0.634503
0.760273 0.535415 0.706611
0.523182 0.769494 0.609883
0.521881 0.768245 0.610172
0.520796 0.767228 0.608618
0.518926 0.765475 0.605753
0.511878 0.758857 0.594973
0.616885 0.770537 0.607826
0.718738 0.778398 0.590154
0.766762 0.767807 0.581775
0.763990 0.679440 0.707796
0.512704 0.758321 0.529587
0.512995 0.758770 0.534466
0.512954 0.758789 0.535980
0.512776 0.758697 0.537862
0.511869 0.758000 0.541445
0.578585 0.771266 0.563925
0.703433 0.808199 0.598952
0.745670 0.814062 0.597809
0.814183 0.769525 0.673372
0.711794 0.828864 0.593698
0.712274 0.829110 0.594036
0.712478 0.829214 0.594179
0.712778 0.829368 0.594390
0.713530 0.829754 0.594917
0.715875 0.830961 0.596567
0.721826 0.833994 0.600721
0.730379 0.838108 0.605991
0.809974 0.875758 0.672133
0.326707 0.449527 0.508406
0.331014 0.455676 0.511774
0.303002 0.418907 0.495924
0.243651 0.362224 0.499763
0.163572 0.302515 0.545510
0.587194 0.288844 0.663225
0.757219 0.384096 0.707729
0.775241 0.401620 0.715909
0.789512 0.491651 0.747482
0.367333 0.513480 0.550456
0.360041 0.501180 0.541549
0.346568 0.479269 0.526377
0.297923 0.413062 0.494669
0.208647 0.337663 0.527181
0.586324 0.308652 0.655483
0.756751 0.383791 0.706855
0.775390 0.401584 0.715041
0.789416 0.493419 0.747536
0.387800 0.548937 0.576778
0.374800 0.526330 0.559921
0.361386 0.503454 0.543168
0.323392 0.444940 0.506007
0.232575 0.354691 0.510821
0.586959 0.322065 0.649658
0.756393 0.386256 0.707028
0.775312 0.401679 0.714644
0.789382 0.494338 0.747616
0.410996 0.589102 0.606386
0.397339 0.565604 0.589162
0.385231 0.544513 0.573454
0.351110 0.486557 0.531276
0.265753 0.381209 0.496252
0.590060 0.347889 0.637804
0.755813 0.392105 0.707818
0.775162 0.404728 0.714807
0.789340 0.495923 0.747810
0.451803 0.659204 0.651180
0.436813 0.635316 0.636576
0.425859 0.616429 0.624584
0.408074 0.584461 0.602884
0.341679 0.471291 0.521430
0.609969 0.430910 0.614558
0.754165 0.415099 0.712099
0.775034 0.418602 0.717255
0.789301 0.501864 0.748938
0.502473 0.731253 0.686962
0.497086 0.724926 0.683221
0.493599 0.720699 0.680869
0.487200 0.712722 0.676584
0.470039 0.688960 0.665250
0.614292 0.644247 0.711832
0.770414 0.589774 0.767130
0.780158 0.539105 0.755661
0.790509 0.538290 0.759944
0.543152 0.778858 0.708664
0.541562 0.777245 0.707442
0.540735 0.776392 0.706844
0.539201 0.774792 0.705784
0.534186 0.769426 0.702618
0.638655 0.789984 0.747364
0.821045 0.812146 0.829759
0.866031 0.788641 0.838806
0.809293 0.652880 0.804934
0.555441 0.793103 0.711577
0.554982 0.792628 0.711296
0.554784 0.792419 0.711193
0.554490 0.792099 0.711077
0.553590 0.791104 0.710777
0.650962 0.819059 0.750431
0.787183 0.853772 0.817180
0.855982 0.852932 0.821251
0.860157 0.765828 0.832170
0.715878 0.832179 0.608411
0.716523 0.832543 0.609174
0.716797 0.832698 0.609498
0.717201 0.832928 0.609984
0.718214 0.833504 0.611210
0.721288 0.835239 0.614799
0.729674 0.839595 0.622641
0.739700 0.844780 0.632135
0.838993 0.892660 0.742226
0.416955 0.599209 0.613635
0.416076 0.597725 0.612578
0.408455 0.584629 0.603194
0.381942 0.538678 0.569134
0.305795 0.422191 0.496967
0.460911 0.354666 0.515184
0.741495 0.396981 0.710622
0.772085 0.411272 0.720564
0.799853 0.568894 0.781065
0.435938 0.631828 0.635454
0.431507 0.624185 0.630591
0.424992 0.613031 0.623177
0.408795 0.585276 0.603639
0.343965 0.474966 0.523692
0.476689 0.390321 0.512961
0.740764 0.410189 0.713007
0.772129 0.418578 0.722263
0.800043 0.570437 0.781605
0.444408 0.646011 0.644217
0.438113 0.635628 0.637781
0.431994 0.625148 0.631154
0.417608 0.600557 0.614488
0.358360 0.498074 0.539479
0.481961 0.405204 0.517233
0.740636 0.418215 0.714528
0.772240 0.422356 0.723241
0.800141 0.571189 0.781877
0.456474 0.665015 0.655588
0.448170 0.652235 0.647887
0.442319 0.642758 0.642128
0.430167 0.622018 0.629115
0.378440 0.532180 0.564436
0.488660 0.428573 0.527720
0.740869 0.434040 0.717645
0.772415 0.428684 0.724920
0.800310 0.572421 0.782331
0.475975 0.694266 0.671270
0.469461 0.684710 0.666403
0.465529 0.678835 0.663284
0.457062 0.666117 0.656077
0.419194 0.602333 0.616128
0.503341 0.506111 0.578760
0.744314 0.487699 0.729716
0.773075 0.450563 0.730951
0.800871 0.576272 0.783786
0.507882 0.736676 0.691861
0.503365 0.731200 0.688984
0.500615 0.727797 0.687245
0.495591 0.721424 0.684080
0.484695 0.706207 0.677585
0.541861 0.643364 0.678899
0.780506 0.640728 0.786148
0.788361 0.585533 0.778910
0.804165 0.595428 0.791428
0.542713 0.776712 0.712857
0.541431 0.775276 0.712161
0.540660 0.774405 0.711753
0.539171 0.772711 0.710975
0.534786 0.767551 0.708952
0.596932 0.773169 0.737380
0.786539 0.810596 0.845567
0.865993 0.792050 0.859129
0.823624 0.665821 0.822143
0.556111 0.791233 0.720777
0.555774 0.790800 0.720792
0.555631 0.790604 0.720831
0.555397 0.790280 0.720905
0.554637 0.789248 0.721060
0.634428 0.811195 0.756152
0.785693 0.857134 0.839617
0.872046 0.855099 0.860558
0.865977 0.760176 0.856578
0.742888 0.853143 0.702230
0.744180 0.853911 0.704670
0.744719 0.854228 0.705673
0.745507 0.854693 0.707129
0.747423 0.855815 0.710613
0.752970 0.858928 0.719253
0.764594 0.865180 0.734781
0.779911 0.872381 0.748499
0.878166 0.910629 0.817731
0.561021 0.794516 0.729234
0.561115 0.794522 0.729537
0.561143 0.794509 0.729664
0.561179 0.794484 0.729849
0.561236 0.794381 0.730299
0.561344 0.793791 0.732073
0.710256 0.844505 0.806562
0.763350 0.861273 0.848892
0.917946 0.856221 0.910522
0.561310 0.794786 0.729521
0.561389 0.794775 0.729815
0.561418 0.794765 0.729940
0.561455 0.794741 0.730122
0.561523 0.794649 0.730582
0.562058 0.794232 0.732532
0.711279 0.845252 0.807158
0.764606 0.862390 0.849389
0.918314 0.857198 0.910802
0.561424 0.794891 0.729636
0.561504 0.794882 0.729930
0.561533 0.794872 0.730054
0.561569 0.794848 0.730235
0.561643 0.794761 0.730701
0.564204 0.794934 0.733393
0.711709 0.845562 0.807409
0.765118 0.862847 0.849590
0.918466 0.857605 0.910919
0.561591 0.795046 0.729803
0.561671 0.795037 0.730096
0.561701 0.795029 0.730220
0.561735 0.795003 0.730398
0.561818 0.794922 0.730876
0.567399 0.795984 0.734685
0.712325 0.845996 0.807771
0.765851 0.863504 0.849876
0.918690 0.858202 0.911089
0.562001 0.795427 0.730213
0.562079 0.795418 0.730499
0.562106 0.795407 0.730619
0.562143 0.795385 0.730799
0.562236 0.795307 0.731304
0.575821 0.798765 0.738129
0.713804 0.847023 0.808643
0.767552 0.865040 0.850533
0.919244 0.859695 0.911512
0.563153 0.796499 0.731360
0.563236 0.796490 0.731660
0.563274 0.796487 0.731800
0.563326 0.796474 0.732006
0.563461 0.796435 0.732552
0.595020 0.805521 0.746491
0.718004 0.849895 0.811130
0.771624 0.868701 0.852131
0.920839 0.864063 0.912725
0.565694 0.798799 0.734052
0.565817 0.798818 0.734412
0.565873 0.798828 0.734574
0.565957 0.798842 0.734820
0.580581 0.803043 0.740772
0.627695 0.818115 0.762063
0.728601 0.856348 0.818031
0.778643 0.874651 0.855293
0.924150 0.873541 0.915235
0.590565 0.807688 0.745292
0.598932 0.810290 0.748941
0.602405 0.811392 0.750488
0.607630 0.813072 0.752843
0.620649 0.817379 0.758894
0.669021 0.834868 0.783173
0.739924 0.862803 0.825742
0.785336 0.879750 0.858804
0.927252 0.883047 0.917524
0.842139 0.912085 0.888932
0.843402 0.912522 0.889599
0.843898 0.912692 0.889865
0.844608 0.912935 0.890246
0.846329 0.913520 0.891165
0.851383 0.915201 0.893820
0.863164 0.918888 0.899729
0.875369 0.922302 0.905374
0.933182 0.929988 0.925817
