luts/film/portra160.cube
TITLE "spektrafilm negative scan kodak_portra_160 {"black": 0.0, "blue_rot": -8, "cast_a": 0.0, "cast_b": 0.003, "contrast": 2.8, "crossover": 0.4, "density": 0.2, "dir": 1.3, "ev": 1.0, "flare": 0.12, "green": 0.8, "green_dark": 0.03, "green_hue": 125, "green_rot": 12, "green_width": 55, "grey": 0.58, "peak": 24.0, "red_hue": 0, "red_rot": 0, "red_width": 40, "sat": 0.85, "sky_rot": 14, "sky_sat": 1.6} display=apple1.961 from=adobergb-power fit=partner-scans:024374ff987f"
# film: spektrafilm by Andrea Volpato / https://github.com/andreavolpato/spektrafilm / CC BY-SA 4.0
LUT_3D_SIZE 65
# fit 0-9: 0.431195 0.430242 0.427804 0.423418 0.455337 0.593385 0.704584 -0.188797 -0.978293 1.814358
# fit 10-19: 1.380962 0.46007 0.558762 0.490401 0.957156 0.47949 -0.605748 -0.539783 0.091469 0.866042
# fit 20-29: 0.736283 0.039137 0.186413 -0.084922 0.309282 0.432111 0.118449 -0.250942 0.292885 0.181173
# fit 30-39: 0.033686 0.175148 -0.040051 0.201144 -0.069371 0.359628 0.787995 0.450128 0.620556 0.605018
# fit 40-49: 0.659458 1.169412 0.773952 -0.525722 -0.500742 0.458299 -0.019493 -0.240407 -0.061149 -0.056571
# fit 50-59: -0.001992 -0.000631 0.260688 0.035744 -0.016396 -1.459415 0.230954 -1.162796 2.472001 0.168247
# fit 60-69: -0.570035 -1.203383 -2.261787 -3.784558 -2.745374 -0.717734 -0.96348 -0.30455 -1.339504 -2.345355
# fit 70-79: -0.132375 -0.059793 1.881056 -0.845045
0.004168 0.004166 0.004164
0.004168 0.004166 0.004164
0.004168 0.004166 0.004164
0.004168 0.004166 0.004164
0.004168 0.004166 0.004164
0.004168 0.004166 0.004164
0.004168 0.004166 0.004164
0.004168 0.004166 0.004164
0.004168 0.004166 0.004164
0.004168 0.004166 0.004164
0.004168 0.004166 0.004164
0.004168 0.004166 0.004164
0.004168 0.004166 0.004164
0.004168 0.004166 0.004164
0.004168 0.004166 0.004164
0.004168 0.004166 0.004164
0.004168 0.004166 0.004164
0.004168 0.004166 0.004164
0.004168 0.004166 0.004164
0.004168 0.004166 0.004164
0.004168 0.004166 0.004164
0.004168 0.004166 0.004164
0.004168 0.004166 0.004164
0.004168 0.004166 0.004164
0.004168 0.004166 0.004164
0.004168 0.004166 0.004164
0.004168 0.004166 0.004164
0.004168 0.004166 0.004164
0.004168 0.004166 0.004164
0.004168 0.004166 0.004164
0.004168 0.004166 0.004164
0.004168 0.004166 0.004164
0.004168 0.004166 0.004164
0.003966 0.004501 0.008515
0.008083 0.011580 0.031281
0.100240 0.364241 0.169238
0.195063 0.474385 0.153500
0.274505 0.236890 0.103259
0.468566 0.118181 0.212331
0.320334 0.027910 0.319325
0.250087 0.054649 0.442960
0.301401 0.084419 0.516144
0.414080 0.112434 0.555699
0.498151 0.139855 0.575834
0.537982 0.155054 0.587054
0.567655 0.170221 0.595804
0.590280 0.184210 0.600658
0.613355 0.199032 0.605084
0.640566 0.217569 0.610263
0.666028 0.236269 0.615931
0.685027 0.251156 0.620956
0.701669 0.264648 0.624410
0.713360 0.274373 0.625464
0.724023 0.283600 0.626168
0.735012 0.293464 0.625301
0.744816 0.302742 0.623063
0.749595 0.307565 0.618882
0.753722 0.312006 0.614601
0.763278 0.324279 0.597136
0.753525 0.329252 0.518238
0.743621 0.327303 0.476422
0.741471 0.326852 0.467198
0.744385 0.327459 0.479678
0.751083 0.328777 0.507970
0.757008 0.354456 0.564357
0.004168 0.004166 0.004164
0.004168 0.004166 0.004164
0.004168 0.004166 0.004164
0.004168 0.004166 0.004164
0.004168 0.004166 0.004164
0.004168 0.004166 0.004164
0.004168 0.004166 0.004164
0.004168 0.004166 0.004164
0.004168 0.004166 0.004164
0.004168 0.004166 0.004164
0.004168 0.004166 0.004164
0.004168 0.004166 0.004164
0.004168 0.004166 0.004164
0.004168 0.004166 0.004164
0.004168 0.004166 0.004164
0.004168 0.004166 0.004164
0.004168 0.004166 0.004164
0.004168 0.004166 0.004164
0.004168 0.004166 0.004164
0.004168 0.004166 0.004164
0.004168 0.004166 0.004164
0.004168 0.004166 0.004164
0.004168 0.004166 0.004164
0.004168 0.004166 0.004164
0.004168 0.004166 0.004164
0.004168 0.004166 0.004164
0.004168 0.004166 0.004164
0.004168 0.004166 0.004164
0.004168 0.004166 0.004164
0.004168 0.004166 0.004164
0.004168 0.004166 0.004164
0.004168 0.004166 0.004164
0.000638 0.014604 0.000107
0.007328 0.191470 0.000000
0.156284 0.430425 0.134793
0.106304 0.369806 0.077071
0.254447 0.213429 0.097868
0.427630 0.127355 0.202886
0.305741 0.028446 0.290950
0.215190 0.040980 0.392597
0.248889 0.068522 0.476153
0.342954 0.088129 0.524241
0.457253 0.119660 0.553899
0.516948 0.141771 0.569983
0.553229 0.157810 0.580945
0.587295 0.178156 0.586199
0.608672 0.192064 0.589902
0.635944 0.211212 0.595945
0.659312 0.228681 0.601301
0.680294 0.245278 0.606192
0.698514 0.260085 0.606402
0.715411 0.274796 0.604588
0.727453 0.286124 0.600785
0.737438 0.296228 0.597663
0.742817 0.302103 0.594182
0.747232 0.307229 0.590495
0.750651 0.311832 0.584192
0.753619 0.316327 0.577110
0.759446 0.329669 0.546642
0.745774 0.327738 0.485582
0.740238 0.326585 0.461870
0.739950 0.326522 0.460621
0.743303 0.327237 0.475060
0.750102 0.328586 0.503843
0.755449 0.357596 0.562820
0.004168 0.004166 0.004164
0.004168 0.004166 0.004164
0.004168 0.004166 0.004164
0.004168 0.004166 0.004164
0.004168 0.004166 0.004164
0.004168 0.004166 0.004164
0.004168 0.004166 0.004164
0.004168 0.004166 0.004164
0.004168 0.004166 0.004164
0.004168 0.004166 0.004164
0.004168 0.004166 0.004164
0.004168 0.004166 0.004164
0.004168 0.004166 0.004164
0.004168 0.004166 0.004164
0.004168 0.004166 0.004164
0.004168 0.004166 0.004164
0.004168 0.004166 0.004164
0.004168 0.004166 0.004164
0.004168 0.004166 0.004164
0.004168 0.004166 0.004164
0.004168 0.004166 0.004164
0.004168 0.004166 0.004164
0.004168 0.004166 0.004164
0.004168 0.004166 0.004164
0.004168 0.004166 0.004164
0.004168 0.004166 0.004164
0.004168 0.004166 0.004164
0.004168 0.004166 0.004164
0.004168 0.004166 0.004164
0.004168 0.004166 0.004164
0.004168 0.004166 0.004164
0.004166 0.004168 0.004164
0.000000 0.065595 0.000000
0.077523 0.332268 0.027211
0.245372 0.529889 0.202350
0.100895 0.278628 0.018474
0.421837 0.132535 0.150708
0.416248 0.087643 0.238112
0.209568 0.021654 0.323876
0.183944 0.052384 0.427667
0.265360 0.071756 0.485683
0.374840 0.092097 0.525914
0.476762 0.122859 0.550724
0.526495 0.142650 0.565312
0.561703 0.159965 0.573855
0.598311 0.182761 0.578553
0.619588 0.197384 0.582613
0.646226 0.217163 0.589580
0.668189 0.234126 0.593120
0.688263 0.250574 0.595527
0.706631 0.266499 0.591956
0.722797 0.281994 0.587901
0.733146 0.292850 0.583833
0.739862 0.300503 0.579550
0.743608 0.305261 0.575031
0.747236 0.310069 0.570628
0.749718 0.314754 0.560804
0.752579 0.319688 0.553458
0.754828 0.329511 0.523729
0.742513 0.327072 0.471682
0.738897 0.326286 0.456033
0.739317 0.326382 0.457868
0.742797 0.327132 0.472898
0.749630 0.328494 0.501857
0.754644 0.359165 0.562018
0.004168 0.004166 0.004164
0.004168 0.004166 0.004164
0.004168 0.004166 0.004164
0.004168 0.004166 0.004164
0.004168 0.004166 0.004164
0.004168 0.004166 0.004164
0.004168 0.004166 0.004164
0.004168 0.004166 0.004164
0.004168 0.004166 0.004164
0.004168 0.004166 0.004164
0.004168 0.004166 0.004164
0.004168 0.004166 0.004164
0.004168 0.004166 0.004164
0.004168 0.004166 0.004164
0.004168 0.004166 0.004164
0.004168 0.004166 0.004164
0.004168 0.004166 0.004164
0.004168 0.004166 0.004164
0.004168 0.004166 0.004164
0.004168 0.004166 0.004164
0.004168 0.004166 0.004164
0.004168 0.004166 0.004164
0.004168 0.004166 0.004164
0.004168 0.004166 0.004164
0.004168 0.004166 0.004164
0.004168 0.004166 0.004164
0.004168 0.004166 0.004164
0.004168 0.004166 0.004164
0.004168 0.004166 0.004164
0.004168 0.004166 0.004164
0.004168 0.004166 0.004164
0.003289 0.005801 0.003515
0.000000 0.135012 0.000000
0.138496 0.408722 0.092809
0.157140 0.430810 0.113251
0.234670 0.202735 0.067387
0.422051 0.097796 0.153928
0.303735 0.035456 0.266056
0.158211 0.032298 0.359621
0.183457 0.056627 0.439191
0.283453 0.072052 0.488605
0.399531 0.095120 0.525248
0.490026 0.125322 0.547586
0.533219 0.143330 0.561251
0.568071 0.161570 0.566889
0.605538 0.185927 0.572331
0.629281 0.203008 0.577524
0.653097 0.221353 0.583979
0.674975 0.238693 0.585045
0.694555 0.255430 0.584573
0.712585 0.272315 0.579534
0.727513 0.287829 0.574609
0.735620 0.297074 0.570293
0.739921 0.302687 0.564885
0.743145 0.307631 0.557788
0.746814 0.312771 0.553539
0.749574 0.317668 0.546089
0.751960 0.322487 0.537799
0.750921 0.328745 0.507293
0.740650 0.326675 0.463656
0.738140 0.326115 0.452720
0.738945 0.326297 0.456243
0.742480 0.327065 0.471536
0.749321 0.328435 0.500557
0.754054 0.360365 0.561517
0.004168 0.004166 0.004164
0.004168 0.004166 0.004164
0.004168 0.004166 0.004164
0.004168 0.004166 0.004164
0.004168 0.004166 0.004164
0.004168 0.004166 0.004164
0.004168 0.004166 0.004164
0.004168 0.004166 0.004164
0.004168 0.004166 0.004164
0.004168 0.004166 0.004164
0.004168 0.004166 0.004164
0.004168 0.004166 0.004164
0.004168 0.004166 0.004164
0.004168 0.004166 0.004164
0.004168 0.004166 0.004164
0.004168 0.004166 0.004164
0.004168 0.004166 0.004164
0.004168 0.004166 0.004164
0.004168 0.004166 0.004164
0.004168 0.004166 0.004164
0.004168 0.004166 0.004164
0.004168 0.004166 0.004164
0.004168 0.004166 0.004164
0.004168 0.004166 0.004164
0.004168 0.004166 0.004164
0.004168 0.004166 0.004164
0.004168 0.004166 0.004164
0.004168 0.004166 0.004164
0.004168 0.004166 0.004164
0.004168 0.004166 0.004164
0.004168 0.004166 0.004164
0.000000 0.020999 0.000000
0.013122 0.214242 0.000000
0.194004 0.473132 0.150462
0.059957 0.308944 0.022042
0.357335 0.164619 0.144191
0.413386 0.087711 0.192614
0.209438 0.012840 0.263246
0.134513 0.040074 0.384907
0.192273 0.058942 0.446403
0.299801 0.072145 0.489971
0.420450 0.098203 0.523756
0.499671 0.126926 0.544371
0.539203 0.143904 0.556761
0.574987 0.164042 0.560656
0.610788 0.188315 0.566901
0.636272 0.207196 0.572420
0.659123 0.225217 0.577474
0.681383 0.243573 0.576410
0.700492 0.260887 0.573631
0.717096 0.277653 0.567721
0.730493 0.292623 0.561922
0.735706 0.299353 0.556294
0.739758 0.304758 0.552180
0.743369 0.310182 0.546286
0.746869 0.315617 0.540606
0.749168 0.320313 0.532468
0.751045 0.324755 0.523781
0.747823 0.328143 0.494246
0.739334 0.326385 0.457939
0.737588 0.325986 0.450294
0.738656 0.326232 0.454981
0.742225 0.327012 0.470441
0.749070 0.328386 0.499501
0.753525 0.361506 0.561159
0.004168 0.004166 0.004164
0.004168 0.004166 0.004164
0.004168 0.004166 0.004164
0.004168 0.004166 0.004164
0.004168 0.004166 0.004164
0.004168 0.004166 0.004164
0.004168 0.004166 0.004164
0.004168 0.004166 0.004164
0.004168 0.004166 0.004164
0.004168 0.004166 0.004164
0.004168 0.004166 0.004164
0.004168 0.004166 0.004164
0.004168 0.004166 0.004164
0.004168 0.004166 0.004164
0.004168 0.004166 0.004164
0.004168 0.004166 0.004164
0.004168 0.004166 0.004164
0.004168 0.004166 0.004164
0.004168 0.004166 0.004164
0.004168 0.004166 0.004164
0.004168 0.004166 0.004164
0.004168 0.004166 0.004164
0.004168 0.004166 0.004164
0.004168 0.004166 0.004164
0.004168 0.004166 0.004164
0.004168 0.004166 0.004164
0.004168 0.004166 0.004164
0.004168 0.004166 0.004164
0.004168 0.004166 0.004164
0.004168 0.004166 0.004164
0.004166 0.004168 0.004164
0.000000 0.054158 0.000000
0.047682 0.290916 0.008343
0.209448 0.490447 0.166361
0.123884 0.219973 0.001648
0.429335 0.108986 0.139978
0.378346 0.073598 0.230149
0.156904 0.017152 0.291691
0.124954 0.044740 0.401482
0.206777 0.059462 0.449740
0.315323 0.071900 0.490521
0.436908 0.100902 0.521789
0.505800 0.127194 0.540785
0.544767 0.144273 0.551383
0.581640 0.166825 0.554942
0.614983 0.190297 0.561803
0.641890 0.210669 0.566817
0.664736 0.229106 0.569639
0.686857 0.248308 0.566979
0.705836 0.266631 0.562920
0.720284 0.282362 0.555894
0.731794 0.296000 0.550078
0.736089 0.301720 0.545853
0.739887 0.307057 0.541515
0.743364 0.312634 0.535042
0.746753 0.318205 0.528855
0.748604 0.322599 0.520200
0.749961 0.326586 0.511054
0.745242 0.327632 0.483319
0.738347 0.326161 0.453627
0.737163 0.325886 0.448419
0.738421 0.326178 0.453950
0.742004 0.326966 0.469496
0.748855 0.328344 0.498592
0.753081 0.362415 0.560810
0.004168 0.004166 0.004164
0.004168 0.004166 0.004164
0.004168 0.004166 0.004164
0.004168 0.004166 0.004164
0.004168 0.004166 0.004164
0.004168 0.004166 0.004164
0.004168 0.004166 0.004164
0.004168 0.004166 0.004164
0.004168 0.004166 0.004164
0.004168 0.004166 0.004164
0.004168 0.004166 0.004164
0.004168 0.004166 0.004164
0.004168 0.004166 0.004164
0.004168 0.004166 0.004164
0.004168 0.004166 0.004164
0.004168 0.004166 0.004164
0.004168 0.004166 0.004164
0.004168 0.004166 0.004164
0.004168 0.004166 0.004164
0.004168 0.004166 0.004164
0.004168 0.004166 0.004164
0.004168 0.004166 0.004164
0.004168 0.004166 0.004164
0.004168 0.004166 0.004164
0.004168 0.004166 0.004164
0.004168 0.004166 0.004164
0.004168 0.004166 0.004164
0.004168 0.004166 0.004164
0.004168 0.004166 0.004164
0.004160 0.004174 0.004162
0.004051 0.004365 0.004097
0.000000 0.103241 0.000000
0.093370 0.352824 0.039724
0.156105 0.429569 0.111079
0.213959 0.191048 0.042044
0.346659 0.067429 0.101232
0.257018 0.027768 0.226972
0.103600 0.024371 0.320077
0.116297 0.048100 0.415512
0.222494 0.059309 0.451806
0.330860 0.071438 0.490184
0.447688 0.102108 0.519230
0.511583 0.127596 0.537108
0.550128 0.145477 0.545314
0.587669 0.169564 0.549336
0.621272 0.194039 0.556840
0.647216 0.214200 0.560449
0.670315 0.233491 0.561021
0.691695 0.253156 0.556871
0.710168 0.272154 0.551734
0.722684 0.286537 0.545606
0.732126 0.298135 0.540718
0.736315 0.304053 0.535767
0.739975 0.309513 0.530804
0.743150 0.315006 0.523755
0.746272 0.320478 0.517071
0.747809 0.324525 0.508531
0.748954 0.328097 0.500063
0.743052 0.327184 0.473987
0.737574 0.325982 0.450231
0.736823 0.325806 0.446914
0.738225 0.326133 0.453093
0.741811 0.326924 0.468661
0.748664 0.328307 0.497788
0.752697 0.363166 0.560475
0.004168 0.004166 0.004164
0.004168 0.004166 0.004164
0.004168 0.004166 0.004164
0.004168 0.004166 0.004164
0.004168 0.004166 0.004164
0.004168 0.004166 0.004164
0.004168 0.004166 0.004164
0.004168 0.004166 0.004164
0.004168 0.004166 0.004164
0.004168 0.004166 0.004164
0.004168 0.004166 0.004164
0.004168 0.004166 0.004164
0.004168 0.004166 0.004164
0.004168 0.004166 0.004164
0.004168 0.004166 0.004164
0.004168 0.004166 0.004164
0.004168 0.004166 0.004164
0.004168 0.004166 0.004164
0.004168 0.004166 0.004164
0.004168 0.004166 0.004164
0.004168 0.004166 0.004164
0.004168 0.004166 0.004164
0.004168 0.004166 0.004164
0.004168 0.004166 0.004164
0.004168 0.004166 0.004164
0.004168 0.004166 0.004164
0.004168 0.004166 0.004164
0.004168 0.004166 0.004164
0.004168 0.004166 0.004164
0.004118 0.004248 0.004137
0.003160 0.006065 0.003396
0.002749 0.163834 0.000000
0.129296 0.397637 0.082725
0.050519 0.295282 0.009031
0.277307 0.154822 0.113973
0.346896 0.064466 0.136304
0.191318 0.010113 0.220528
0.055575 0.030879 0.359012
0.125617 0.050020 0.421111
0.237630 0.059009 0.453295
0.346958 0.071464 0.489301
0.457206 0.103280 0.516474
0.516931 0.128018 0.533179
0.555096 0.146943 0.539201
0.592615 0.171858 0.543580
0.627101 0.197628 0.550528
0.652606 0.218135 0.553116
0.676121 0.238689 0.552831
0.696060 0.258217 0.546637
0.713726 0.277333 0.541653
0.724792 0.290438 0.537006
0.732172 0.300135 0.531257
0.736580 0.306403 0.526549
0.740294 0.312049 0.521549
0.742911 0.317240 0.513345
0.745526 0.322396 0.505653
0.746956 0.326119 0.497957
0.746790 0.327940 0.489878
0.741222 0.326799 0.466130
0.736947 0.325835 0.447463
0.736547 0.325740 0.445692
0.738053 0.326094 0.452337
0.741637 0.326887 0.467916
0.748493 0.328274 0.497071
0.752344 0.363872 0.560187
0.004168 0.004166 0.004164
0.004168 0.004166 0.004164
0.004168 0.004166 0.004164
0.004168 0.004166 0.004164
0.004168 0.004166 0.004164
0.004168 0.004166 0.004164
0.004168 0.004166 0.004164
0.004168 0.004166 0.004164
0.004168 0.004166 0.004164
0.004168 0.004166 0.004164
0.004168 0.004166 0.004164
0.004168 0.004166 0.004164
0.004168 0.004166 0.004164
0.004168 0.004166 0.004164
0.004168 0.004166 0.004164
0.004168 0.004166 0.004164
0.004168 0.004166 0.004164
0.004168 0.004166 0.004164
0.004168 0.004166 0.004164
0.004168 0.004166 0.004164
0.004168 0.004166 0.004164
0.004168 0.004166 0.004164
0.004168 0.004166 0.004164
0.004168 0.004166 0.004164
0.004168 0.004166 0.004164
0.004168 0.004166 0.004164
0.004168 0.004166 0.004164
0.004168 0.004166 0.004164
0.004168 0.004166 0.004164
0.003686 0.005030 0.003840
0.000130 0.018700 0.000000
0.017449 0.227810 0.000000
0.172678 0.448825 0.128483
0.010078 0.204276 0.000268
0.419922 0.120999 0.142297
0.377698 0.073834 0.195802
0.145148 0.010187 0.236068
0.039682 0.035024 0.383577
0.138538 0.050664 0.422721
0.252656 0.058707 0.454089
0.364825 0.072877 0.488415
0.466395 0.104652 0.513500
0.521947 0.128263 0.528329
0.559657 0.148383 0.532902
0.596555 0.173702 0.537618
0.632241 0.201005 0.543118
0.657919 0.222480 0.544602
0.681887 0.244512 0.543629
0.700052 0.263429 0.536947
0.716291 0.281667 0.532634
0.726341 0.293883 0.528612
0.732243 0.302155 0.522442
0.736685 0.308729 0.517073
0.740335 0.314502 0.511592
0.742506 0.319253 0.503207
0.744777 0.323973 0.495645
0.746083 0.327383 0.488553
0.744627 0.327507 0.480705
0.739882 0.326507 0.460324
0.736446 0.325715 0.445243
0.736319 0.325685 0.444680
0.737901 0.326059 0.451670
0.741482 0.326855 0.467247
0.748343 0.328244 0.496435
0.752015 0.364527 0.559929
0.004168 0.004166 0.004164
0.004168 0.004166 0.004164
0.004168 0.004166 0.004164
0.004168 0.004166 0.004164
0.004168 0.004166 0.004164
0.004168 0.004166 0.004164
0.004168 0.004166 0.004164
0.004168 0.004166 0.004164
0.004168 0.004166 0.004164
0.004168 0.004166 0.004164
0.004168 0.004166 0.004164
0.004168 0.004166 0.004164
0.004168 0.004166 0.004164
0.004168 0.004166 0.004164
0.004168 0.004166 0.004164
0.004168 0.004166 0.004164
0.004168 0.004166 0.004164
0.004168 0.004166 0.004164
0.004168 0.004166 0.004164
0.004168 0.004166 0.004164
0.004168 0.004166 0.004164
0.004168 0.004166 0.004164
0.004168 0.004166 0.004164
0.004168 0.004166 0.004164
0.004168 0.004166 0.004164
0.004168 0.004166 0.004164
0.004168 0.004166 0.004164
0.004168 0.004166 0.004164
0.004168 0.004166 0.004164
0.002894 0.006633 0.003132
0.000000 0.049407 0.000000
0.044690 0.286052 0.006205
0.162711 0.437283 0.117949
0.142111 0.179039 0.005876
0.380679 0.080762 0.108014
0.292323 0.044645 0.208487
0.074349 0.015132 0.261237
0.028224 0.038515 0.403647
0.153081 0.050906 0.423024
0.268400 0.057903 0.454382
0.380827 0.074608 0.487392
0.475483 0.106399 0.510563
0.526909 0.128438 0.522500
0.563818 0.149645 0.525505
0.600103 0.175468 0.531222
0.637347 0.204819 0.536056
0.663173 0.227348 0.535958
0.687005 0.250399 0.533944
0.703697 0.268475 0.528966
0.717894 0.285187 0.523658
0.726676 0.296026 0.520423
0.732496 0.304327 0.514325
0.736679 0.310981 0.507687
0.740120 0.316709 0.501574
0.742057 0.321001 0.493982
0.744060 0.325253 0.486947
0.744473 0.327477 0.480051
0.742748 0.327122 0.472688
0.738770 0.326259 0.455482
0.736029 0.325615 0.443392
0.736124 0.325638 0.443811
0.737764 0.326027 0.451067
0.741337 0.326824 0.466622
0.748202 0.328217 0.495841
0.751706 0.365148 0.559693
0.004168 0.004166 0.004164
0.004168 0.004166 0.004164
0.004168 0.004166 0.004164
0.004168 0.004166 0.004164
0.004168 0.004166 0.004164
0.004168 0.004166 0.004164
0.004168 0.004166 0.004164
0.004168 0.004166 0.004164
0.004168 0.004166 0.004164
0.004168 0.004166 0.004164
0.004168 0.004166 0.004164
0.004168 0.004166 0.004164
0.004168 0.004166 0.004164
0.004168 0.004166 0.004164
0.004168 0.004166 0.004164
0.004168 0.004166 0.004164
0.004168 0.004166 0.004164
0.004168 0.004166 0.004164
0.004168 0.004166 0.004164
0.004168 0.004166 0.004164
0.004168 0.004166 0.004164
0.004168 0.004166 0.004164
0.004168 0.004166 0.004164
0.004168 0.004166 0.004164
0.004168 0.004166 0.004164
0.004168 0.004166 0.004164
0.004168 0.004166 0.004164
0.004168 0.004166 0.004164
0.004163 0.004171 0.004163
0.002282 0.008119 0.002534
0.000000 0.089096 0.000000
0.080087 0.335610 0.028192
0.092029 0.351097 0.038195
0.194700 0.156722 0.060647
0.298539 0.052064 0.088599
0.216985 0.019656 0.207480
0.029710 0.019771 0.305102
0.026563 0.040805 0.414066
0.167732 0.050726 0.423293
0.283879 0.056890 0.454556
0.395416 0.076538 0.486177
0.484123 0.108322 0.507488
0.531535 0.128482 0.515701
0.567429 0.150822 0.517793
0.603564 0.177423 0.524603
0.642795 0.209362 0.528554
0.668447 0.232793 0.527488
0.691689 0.256226 0.525739
0.706624 0.273037 0.521065
0.719219 0.288215 0.516382
0.727056 0.298248 0.512537
0.732776 0.306662 0.505935
0.736647 0.313148 0.498695
0.739865 0.318663 0.492455
0.741587 0.322534 0.485485
0.743394 0.326369 0.479075
0.742693 0.327110 0.472449
0.741195 0.326793 0.466009
0.737844 0.326046 0.451420
0.735674 0.325528 0.441808
0.735949 0.325595 0.443034
0.737637 0.325997 0.450512
0.741203 0.326795 0.466043
0.748069 0.328190 0.495282
0.751412 0.365741 0.559474
0.004168 0.004166 0.004164
0.004168 0.004166 0.004164
0.004168 0.004166 0.004164
0.004168 0.004166 0.004164
0.004168 0.004166 0.004164
0.004168 0.004166 0.004164
0.004168 0.004166 0.004164
0.004168 0.004166 0.004164
0.004168 0.004166 0.004164
0.004168 0.004166 0.004164
0.004168 0.004166 0.004164
0.004168 0.004166 0.004164
0.004168 0.004166 0.004164
0.004168 0.004166 0.004164
0.004168 0.004166 0.004164
0.004168 0.004166 0.004164
0.004168 0.004166 0.004164
0.004168 0.004166 0.004164
0.004168 0.004166 0.004164
0.004168 0.004166 0.004164
0.004168 0.004166 0.004164
0.004168 0.004166 0.004164
0.004168 0.004166 0.004164
0.004168 0.004166 0.004164
0.004168 0.004166 0.004164
0.004168 0.004166 0.004164
0.004168 0.004166 0.004164
0.004168 0.004166 0.004164
0.004043 0.004379 0.004092
0.001609 0.010200 0.001809
0.000316 0.139010 0.000000
0.110358 0.374324 0.059340
0.024235 0.245874 0.000000
0.271973 0.135978 0.106467
0.290732 0.047543 0.114962
0.159791 0.007130 0.186726
0.006556 0.023728 0.346077
0.034203 0.042027 0.416035
0.182029 0.050204 0.423763
0.298295 0.056215 0.455509
0.409226 0.078682 0.484625
0.492643 0.110423 0.503969
0.536129 0.129021 0.508426
0.571100 0.152438 0.510634
0.606754 0.179442 0.517767
0.648683 0.214779 0.521419
0.674020 0.238877 0.520723
0.695381 0.261570 0.516580
0.708930 0.277149 0.513111
0.720475 0.291079 0.509974
0.727376 0.300508 0.504494
0.732996 0.309025 0.497317
0.736594 0.315183 0.490217
0.739570 0.320374 0.484099
0.741125 0.323883 0.477687
0.742521 0.327074 0.471714
0.741102 0.326773 0.465609
0.739852 0.326500 0.460198
0.737061 0.325862 0.447967
0.735358 0.325450 0.440391
0.735791 0.325556 0.442329
0.737520 0.325970 0.449994
0.741078 0.326767 0.465504
0.747945 0.328166 0.494757
0.751129 0.366309 0.559270
0.004168 0.004166 0.004164
0.004168 0.004166 0.004164
0.004168 0.004166 0.004164
0.004168 0.004166 0.004164
0.004168 0.004166 0.004164
0.004168 0.004166 0.004164
0.004168 0.004166 0.004164
0.004168 0.004166 0.004164
0.004168 0.004166 0.004164
0.004168 0.004166 0.004164
0.004168 0.004166 0.004164
0.004168 0.004166 0.004164
0.004168 0.004166 0.004164
0.004168 0.004166 0.004164
0.004168 0.004166 0.004164
0.004168 0.004166 0.004164
0.004168 0.004166 0.004164
0.004168 0.004166 0.004164
0.004168 0.004166 0.004164
0.004168 0.004166 0.004164
0.004168 0.004166 0.004164
0.004168 0.004166 0.004164
0.004168 0.004166 0.004164
0.004168 0.004166 0.004164
0.004168 0.004166 0.004164
0.004168 0.004166 0.004164
0.004168 0.004166 0.004164
0.004168 0.004166 0.004164
0.003296 0.005788 0.003517
0.000361 0.016708 0.000000
0.008254 0.194661 0.000000
0.137220 0.407180 0.090973
0.001981 0.160441 0.000000
0.386246 0.106979 0.123759
0.308595 0.053576 0.159344
0.092295 0.007180 0.180796
0.004442 0.027550 0.368108
0.049598 0.042477 0.413010
0.196587 0.049466 0.424083
0.311512 0.055719 0.456093
0.422809 0.081182 0.482688
0.500221 0.112021 0.499240
0.540752 0.130711 0.500920
0.574742 0.154449 0.504655
0.609686 0.181550 0.511342
0.654996 0.220993 0.515409
0.678919 0.244755 0.513453
0.698265 0.266244 0.508141
0.710834 0.280877 0.505641
0.721357 0.293609 0.503421
0.727637 0.302768 0.496368
0.733156 0.311289 0.488909
0.736478 0.317024 0.482195
0.739254 0.321850 0.476508
0.740719 0.325076 0.470710
0.740914 0.326732 0.464796
0.739717 0.326470 0.459605
