luts/film/pro400h.cube
TITLE "spektrafilm negative scan fujifilm_pro_400h {"black": 0.035, "blue_rot": -12, "contrast": 1.9, "crossover": 1, "density": 0.4, "dir": 1.2, "ev": 1.0, "flare": 0.008, "green": 0.7, "green_dark": 0.1, "green_hue": 130, "green_width": 55, "grey": 0.46, "peak": 16.0, "red_hue": 0, "red_rot": 12, "red_width": 40, "sat": 1.1} display=apple"
# film: spektrafilm by Andrea Volpato / https://github.com/andreavolpato/spektrafilm / CC BY-SA 4.0
LUT_3D_SIZE 65
0.001928 0.001962 0.002121
0.001928 0.001962 0.002121
0.001928 0.001962 0.002121
0.001928 0.001962 0.002121
0.001928 0.001962 0.002121
0.001928 0.001962 0.002121
0.001928 0.001962 0.002121
0.001928 0.001962 0.002121
0.001928 0.001962 0.002121
0.001928 0.001962 0.002121
0.001928 0.001962 0.002121
0.001928 0.001962 0.002121
0.001928 0.001962 0.002121
0.001928 0.001962 0.002121
0.001928 0.001962 0.002121
0.001928 0.001962 0.002121
0.001928 0.001962 0.002121
0.001928 0.001962 0.002121
0.001928 0.001962 0.002121
0.001928 0.001962 0.002121
0.001928 0.001962 0.002121
0.001928 0.001962 0.002121
0.001928 0.001962 0.002121
0.001928 0.001962 0.002121
0.001928 0.001962 0.002121
0.001928 0.001962 0.002121
0.001928 0.001962 0.002121
0.001928 0.001962 0.002121
0.001928 0.001962 0.002121
0.001442 0.009029 0.019840
0.001442 0.072994 0.182981
0.044763 0.535209 0.038768
0.058687 0.290578 0.033926
0.417514 0.032873 0.001442
0.231590 0.001442 0.022338
0.194217 0.001442 0.428556
0.191970 0.001442 0.613602
0.238503 0.001442 0.665177
0.308399 0.001442 0.652431
0.372710 0.001442 0.632627
0.427308 0.001442 0.607504
0.484884 0.001442 0.581118
0.544900 0.001442 0.524077
0.600699 0.001442 0.456230
0.643042 0.001442 0.395580
0.682450 0.001442 0.309547
0.723674 0.001442 0.222941
0.749336 0.001442 0.178268
0.769815 0.001442 0.142115
0.788806 0.001442 0.106657
0.802571 0.001442 0.076814
0.812227 0.001442 0.055098
0.818564 0.001442 0.044324
0.823824 0.001442 0.041122
0.827176 0.001442 0.043228
0.830246 0.001442 0.052080
0.833462 0.001442 0.065110
0.836110 0.001442 0.081692
0.839271 0.001442 0.098518
0.844255 0.001442 0.115955
0.851232 0.001442 0.135599
0.860719 0.001442 0.157317
0.871499 0.001442 0.176886
0.885612 0.001442 0.200132
0.905189 0.001442 0.233200
0.001928 0.001962 0.002121
0.001928 0.001962 0.002121
0.001928 0.001962 0.002121
0.001928 0.001962 0.002121
0.001928 0.001962 0.002121
0.001928 0.001962 0.002121
0.001928 0.001962 0.002121
0.001928 0.001962 0.002121
0.001928 0.001962 0.002121
0.001928 0.001962 0.002121
0.001928 0.001962 0.002121
0.001928 0.001962 0.002121
0.001928 0.001962 0.002121
0.001928 0.001962 0.002121
0.001928 0.001962 0.002121
0.001928 0.001962 0.002121
0.001928 0.001962 0.002121
0.001928 0.001962 0.002121
0.001928 0.001962 0.002121
0.001928 0.001962 0.002121
0.001928 0.001962 0.002121
0.001928 0.001962 0.002121
0.001928 0.001962 0.002121
0.001928 0.001962 0.002121
0.001928 0.001962 0.002121
0.001928 0.001962 0.002121
0.001928 0.001962 0.002121
0.001928 0.001962 0.002121
0.012062 0.066505 0.010902
0.037100 0.325928 0.032273
0.044127 0.509910 0.038215
0.075458 0.206328 0.031188
0.416225 0.032597 0.001442
0.196513 0.001442 0.038365
0.161406 0.001442 0.411091
0.168481 0.001442 0.582871
0.208960 0.001442 0.631267
0.278000 0.001442 0.611958
0.340389 0.001442 0.592982
0.399539 0.001442 0.567573
0.453464 0.001442 0.541152
0.521023 0.001442 0.483224
0.578446 0.001442 0.412942
0.624338 0.001442 0.349798
0.667258 0.001442 0.259524
0.708761 0.001442 0.189778
0.735052 0.001442 0.150376
0.759288 0.001442 0.116734
0.780058 0.001442 0.082238
0.797207 0.001442 0.053222
0.807348 0.001442 0.035497
0.815056 0.001442 0.024460
0.820531 0.001442 0.023293
0.824863 0.001442 0.025178
0.827646 0.001442 0.032209
0.830681 0.001442 0.043573
0.833729 0.001442 0.058765
0.836485 0.001442 0.075875
0.840030 0.001442 0.094470
0.845692 0.001442 0.112220
0.852943 0.001442 0.131859
0.862960 0.001442 0.153189
0.873915 0.001442 0.172893
0.888662 0.001442 0.196314
0.910003 0.001442 0.229047
0.001928 0.001962 0.002121
0.001928 0.001962 0.002121
0.001928 0.001962 0.002121
0.001928 0.001962 0.002121
0.001928 0.001962 0.002121
0.001928 0.001962 0.002121
0.001928 0.001962 0.002121
0.001928 0.001962 0.002121
0.001928 0.001962 0.002121
0.001928 0.001962 0.002121
0.001928 0.001962 0.002121
0.001928 0.001962 0.002121
0.001928 0.001962 0.002121
0.001928 0.001962 0.002121
0.001928 0.001962 0.002121
0.001928 0.001962 0.002121
0.001928 0.001962 0.002121
0.001928 0.001962 0.002121
0.001928 0.001962 0.002121
0.001928 0.001962 0.002121
0.001928 0.001962 0.002121
0.001928 0.001962 0.002121
0.001928 0.001962 0.002121
0.001928 0.001962 0.002121
0.001928 0.001962 0.002121
0.001928 0.001962 0.002121
0.001928 0.001962 0.002121
0.002028 0.002543 0.002143
0.026347 0.194063 0.023192
0.038328 0.401714 0.033280
0.042753 0.474717 0.037028
0.243768 0.027005 0.001442
0.360799 0.026742 0.001442
0.151702 0.001442 0.247757
0.142106 0.001442 0.507194
0.175309 0.001442 0.593969
0.226015 0.001442 0.610752
0.293962 0.001442 0.586353
0.357011 0.001442 0.564788
0.411378 0.001442 0.538607
0.471378 0.001442 0.500095
0.539972 0.001442 0.430600
0.590145 0.001442 0.366185
0.635660 0.001442 0.286999
0.680831 0.001442 0.204923
0.715561 0.001442 0.155950
0.739810 0.001442 0.124124
0.765477 0.001442 0.090131
0.785255 0.001442 0.056896
0.799732 0.001442 0.035160
0.809350 0.001442 0.021303
0.815998 0.001442 0.014167
0.821320 0.001442 0.015701
0.825170 0.001442 0.019818
0.827830 0.001442 0.028238
0.830865 0.001442 0.040862
0.833864 0.001442 0.056531
0.836703 0.001442 0.073781
0.840420 0.001442 0.092790
0.846259 0.001442 0.110633
0.853742 0.001442 0.130161
0.863916 0.001442 0.151297
0.874992 0.001442 0.171185
0.889977 0.001442 0.194704
0.912172 0.001442 0.227199
0.001928 0.001962 0.002121
0.001928 0.001962 0.002121
0.001928 0.001962 0.002121
0.001928 0.001962 0.002121
0.001928 0.001962 0.002121
0.001928 0.001962 0.002121
0.001928 0.001962 0.002121
0.001928 0.001962 0.002121
0.001928 0.001962 0.002121
0.001928 0.001962 0.002121
0.001928 0.001962 0.002121
0.001928 0.001962 0.002121
0.001928 0.001962 0.002121
0.001928 0.001962 0.002121
0.001928 0.001962 0.002121
0.001928 0.001962 0.002121
0.001928 0.001962 0.002121
0.001928 0.001962 0.002121
0.001928 0.001962 0.002121
0.001928 0.001962 0.002121
0.001928 0.001962 0.002121
0.001928 0.001962 0.002121
0.001928 0.001962 0.002121
0.001928 0.001962 0.002121
0.001928 0.001962 0.002121
0.001928 0.001962 0.002121
0.001928 0.001962 0.002121
0.007016 0.028371 0.006485
0.033841 0.272135 0.029542
0.041663 0.453791 0.036112
0.044881 0.220094 0.027716
0.360312 0.026786 0.001442
0.169601 0.001442 0.014031
0.137342 0.001442 0.351426
0.138628 0.001442 0.543552
0.181959 0.001442 0.598103
0.243325 0.001442 0.583968
0.306951 0.001442 0.564303
0.366373 0.001442 0.540581
0.423664 0.001442 0.514251
0.487443 0.001442 0.459139
0.552635 0.001442 0.388110
0.599813 0.001442 0.322516
0.645656 0.001442 0.236636
0.690004 0.001442 0.171188
0.719310 0.001442 0.133659
0.745393 0.001442 0.103579
0.769997 0.001442 0.067234
0.789226 0.001442 0.040429
0.801626 0.001442 0.022656
0.810707 0.001442 0.010567
0.816738 0.001442 0.005945
0.821880 0.001442 0.009851
0.825391 0.001442 0.015985
0.827967 0.001442 0.025577
0.831007 0.001442 0.039037
0.833979 0.001442 0.054885
0.836872 0.001442 0.072246
0.840748 0.001442 0.091463
0.846715 0.001442 0.109359
0.854454 0.001442 0.128771
0.864675 0.001442 0.149821
0.875849 0.001442 0.169855
0.891012 0.001442 0.193463
0.913859 0.001442 0.225760
0.001928 0.001962 0.002121
0.001928 0.001962 0.002121
0.001928 0.001962 0.002121
0.001928 0.001962 0.002121
0.001928 0.001962 0.002121
0.001928 0.001962 0.002121
0.001928 0.001962 0.002121
0.001928 0.001962 0.002121
0.001928 0.001962 0.002121
0.001928 0.001962 0.002121
0.001928 0.001962 0.002121
0.001928 0.001962 0.002121
0.001928 0.001962 0.002121
0.001928 0.001962 0.002121
0.001928 0.001962 0.002121
0.001928 0.001962 0.002121
0.001928 0.001962 0.002121
0.001928 0.001962 0.002121
0.001928 0.001962 0.002121
0.001928 0.001962 0.002121
0.001928 0.001962 0.002121
0.001928 0.001962 0.002121
0.001928 0.001962 0.002121
0.001928 0.001962 0.002121
0.001928 0.001962 0.002121
0.001928 0.001962 0.002121
0.001928 0.001962 0.002121
0.016813 0.109575 0.015018
0.037170 0.327728 0.032332
0.043356 0.488736 0.037555
0.152099 0.066658 0.001442
0.432831 0.034416 0.001442
0.140340 0.001442 0.153795
0.122748 0.001442 0.427233
0.144369 0.001442 0.553055
0.191833 0.001442 0.589584
0.255624 0.001442 0.564103
0.318922 0.001442 0.543163
0.374839 0.001442 0.518626
0.434867 0.001442 0.486740
0.502892 0.001442 0.420486
0.561341 0.001442 0.352861
0.608207 0.001442 0.275548
0.655830 0.001442 0.201232
0.695951 0.001442 0.146413
0.723088 0.001442 0.117139
0.750893 0.001442 0.083859
0.773867 0.001442 0.050407
0.792402 0.001442 0.027736
0.803196 0.001442 0.012329
0.810768 0.009856 0.001442
0.816044 0.011477 0.001442
0.822261 0.001442 0.003688
0.825559 0.001442 0.012822
0.828082 0.001442 0.023594
0.831130 0.001442 0.037633
0.834082 0.001442 0.053543
0.837033 0.001442 0.070978
0.841069 0.001442 0.090286
0.847119 0.001442 0.108235
0.855082 0.001442 0.127572
0.865336 0.001442 0.148559
0.876586 0.001442 0.168721
0.891897 0.001442 0.192404
0.915295 0.001442 0.224536
0.001928 0.001962 0.002121
0.001928 0.001962 0.002121
0.001928 0.001962 0.002121
0.001928 0.001962 0.002121
0.001928 0.001962 0.002121
0.001928 0.001962 0.002121
0.001928 0.001962 0.002121
0.001928 0.001962 0.002121
0.001928 0.001962 0.002121
0.001928 0.001962 0.002121
0.001928 0.001962 0.002121
0.001928 0.001962 0.002121
0.001928 0.001962 0.002121
0.001928 0.001962 0.002121
0.001928 0.001962 0.002121
0.001928 0.001962 0.002121
0.001928 0.001962 0.002121
0.001928 0.001962 0.002121
0.001928 0.001962 0.002121
0.001928 0.001962 0.002121
0.001928 0.001962 0.002121
0.001928 0.001962 0.002121
0.001928 0.001962 0.002121
0.001928 0.001962 0.002121
0.001928 0.001962 0.002121
0.001928 0.001962 0.002121
0.002187 0.003203 0.002259
0.024673 0.178861 0.021764
0.037871 0.376562 0.032896
0.037972 0.373551 0.032934
0.243079 0.017923 0.001442
0.222761 0.014817 0.001442
0.128139 0.001442 0.245729
0.108498 0.001442 0.484565
0.150106 0.001442 0.559344
0.204791 0.001442 0.569282
0.266163 0.001442 0.545961
0.327968 0.001442 0.523312
0.385177 0.001442 0.499274
0.445897 0.001442 0.454318
0.516499 0.001442 0.383914
0.568948 0.001442 0.317849
0.616007 0.001442 0.237234
0.664914 0.001442 0.171685
0.699740 0.001442 0.128773
0.727531 0.001442 0.101271
0.755975 0.001442 0.065235
0.777250 0.001442 0.037026
0.794670 0.001442 0.017068
0.803973 0.007415 0.001442
0.809214 0.020313 0.001442
0.815052 0.018457 0.001442
0.821467 0.010361 0.001442
0.825677 0.001442 0.010074
0.828183 0.001442 0.021983
0.831238 0.001442 0.036479
0.834185 0.001442 0.052407
0.837185 0.001442 0.069854
0.841378 0.001442 0.089207
0.847488 0.001442 0.107210
0.855656 0.001442 0.126497
0.865922 0.001442 0.147438
0.877268 0.001442 0.167767
0.892691 0.001442 0.191466
0.916574 0.001442 0.223448
0.001928 0.001962 0.002121
0.001928 0.001962 0.002121
0.001928 0.001962 0.002121
0.001928 0.001962 0.002121
0.001928 0.001962 0.002121
0.001928 0.001962 0.002121
0.001928 0.001962 0.002121
0.001928 0.001962 0.002121
0.001928 0.001962 0.002121
0.001928 0.001962 0.002121
0.001928 0.001962 0.002121
0.001928 0.001962 0.002121
0.001928 0.001962 0.002121
0.001928 0.001962 0.002121
0.001928 0.001962 0.002121
0.001928 0.001962 0.002121
0.001928 0.001962 0.002121
0.001928 0.001962 0.002121
0.001928 0.001962 0.002121
0.001928 0.001962 0.002121
0.001928 0.001962 0.002121
0.001928 0.001962 0.002121
0.001928 0.001962 0.002121
0.001928 0.001962 0.002121
0.001928 0.001962 0.002121
0.001928 0.001962 0.002121
0.005388 0.018444 0.005048
0.030710 0.236441 0.026898
0.038867 0.409318 0.033737
0.038327 0.179541 0.023726
0.334608 0.024281 0.001442
0.144038 0.001442 0.011690
0.114891 0.001442 0.320361
0.107111 0.001442 0.506643
0.156824 0.001442 0.561387
0.216773 0.001442 0.548227
0.276784 0.001442 0.527604
0.334250 0.001442 0.504384
0.396003 0.001442 0.479239
0.456902 0.001442 0.421984
0.526563 0.001442 0.350332
0.576463 0.001442 0.280956
0.624319 0.001442 0.207190
0.672217 0.001442 0.147587
0.702911 0.001442 0.114605
0.732228 0.001442 0.084697
0.760366 0.001442 0.050143
0.780636 0.001442 0.025735
0.796573 0.001442 0.006497
0.802572 0.019873 0.001442
0.807857 0.028148 0.001442
0.814236 0.023629 0.001442
0.820650 0.015523 0.001442
0.825775 0.001442 0.007618
0.828276 0.001442 0.020661
0.831335 0.001442 0.035457
0.834296 0.001442 0.051374
0.837332 0.001442 0.068828
0.841671 0.001442 0.088196
0.847832 0.001442 0.106268
0.856191 0.001442 0.125507
0.866424 0.001442 0.146437
0.877894 0.001442 0.166895
0.893661 0.001442 0.190676
0.917740 0.001442 0.222458
0.001928 0.001962 0.002121
0.001928 0.001962 0.002121
0.001928 0.001962 0.002121
0.001928 0.001962 0.002121
0.001928 0.001962 0.002121
0.001928 0.001962 0.002121
0.001928 0.001962 0.002121
0.001928 0.001962 0.002121
0.001928 0.001962 0.002121
0.001928 0.001962 0.002121
0.001928 0.001962 0.002121
0.001928 0.001962 0.002121
0.001928 0.001962 0.002121
0.001928 0.001962 0.002121
0.001928 0.001962 0.002121
0.001928 0.001962 0.002121
0.001928 0.001962 0.002121
0.001928 0.001962 0.002121
0.001928 0.001962 0.002121
0.001928 0.001962 0.002121
0.001928 0.001962 0.002121
0.001928 0.001962 0.002121
0.001928 0.001962 0.002121
0.001928 0.001962 0.002121
0.001928 0.001962 0.002121
0.001928 0.001962 0.002121
0.012176 0.067483 0.011000
0.034508 0.280908 0.030104
0.041226 0.446101 0.035741
0.118146 0.062232 0.001442
0.397885 0.030578 0.001442
0.123338 0.001442 0.110646
0.104681 0.001442 0.373977
0.111319 0.001442 0.515082
0.166460 0.001442 0.554426
0.226479 0.001442 0.531784
0.287106 0.001442 0.509672
0.340812 0.001442 0.485704
0.406595 0.001442 0.455295
0.469210 0.001442 0.389298
0.534528 0.001442 0.317371
0.583052 0.001442 0.247731
0.633480 0.001442 0.178843
0.677722 0.001442 0.129447
0.706367 0.001442 0.101035
0.737076 0.001442 0.067919
0.764282 0.001442 0.037310
0.783777 0.001442 0.015484
0.795656 0.015779 0.001442
0.801145 0.029508 0.001442
0.806763 0.034308 0.001442
0.813387 0.028361 0.001442
0.819980 0.019374 0.001442
0.825864 0.001442 0.005135
0.828359 0.001442 0.019518
0.831425 0.001442 0.034551
0.834402 0.001442 0.050418
0.837479 0.001442 0.067870
0.841955 0.001442 0.087227
0.848159 0.001442 0.105403
0.856698 0.001442 0.124580
0.866893 0.001442 0.145508
0.878478 0.001442 0.166085
0.894575 0.001442 0.189949
0.918820 0.001442 0.221541
0.001928 0.001962 0.002121
0.001928 0.001962 0.002121
0.001928 0.001962 0.002121
0.001928 0.001962 0.002121
0.001928 0.001962 0.002121
0.001928 0.001962 0.002121
0.001928 0.001962 0.002121
0.001928 0.001962 0.002121
0.001928 0.001962 0.002121
0.001928 0.001962 0.002121
0.001928 0.001962 0.002121
0.001928 0.001962 0.002121
0.001928 0.001962 0.002121
0.001928 0.001962 0.002121
0.001928 0.001962 0.002121
0.001928 0.001962 0.002121
0.001928 0.001962 0.002121
0.001928 0.001962 0.002121
0.001928 0.001962 0.002121
0.001928 0.001962 0.002121
0.001928 0.001962 0.002121
0.001928 0.001962 0.002121
0.001928 0.001962 0.002121
0.001928 0.001962 0.002121
0.001928 0.001962 0.002121
0.001977 0.002318 0.002111
0.018871 0.127755 0.016792
0.036763 0.318144 0.031994
0.037799 0.382138 0.032822
0.194868 0.015459 0.001442
0.255437 0.017388 0.001442
0.110666 0.001442 0.195999
0.089279 0.001442 0.432427
0.116030 0.001442 0.521328
0.177913 0.001442 0.538429
0.235195 0.001442 0.516223
0.295768 0.001442 0.491765
0.349165 0.001442 0.468167
0.416490 0.001442 0.427707
0.481069 0.001442 0.355511
0.541436 0.001442 0.287608
0.589648 0.001442 0.219421
0.642095 0.001442 0.154390
0.681459 0.001442 0.115189
0.710523 0.001442 0.086742
0.742242 0.001442 0.053633
0.767535 0.001442 0.026298
0.786609 0.001442 0.004053
0.794007 0.027090 0.001442
0.800028 0.036951 0.001442
0.805903 0.039087 0.001442
0.812602 0.032490 0.001442
0.819418 0.022451 0.001442
0.825864 0.003352 0.001442
0.828436 0.001442 0.018500
0.831511 0.001442 0.033720
0.834509 0.001442 0.049524
0.837631 0.001442 0.066971
0.842231 0.001442 0.086296
0.848475 0.001442 0.104583
0.857184 0.001442 0.123702
0.867331 0.001442 0.144612
0.879029 0.001442 0.165330
0.895437 0.001442 0.189265
0.919831 0.001442 0.220682
0.001928 0.001962 0.002121
0.001928 0.001962 0.002121
0.001928 0.001962 0.002121
0.001928 0.001962 0.002121
0.001928 0.001962 0.002121
0.001928 0.001962 0.002121
0.001928 0.001962 0.002121
0.001928 0.001962 0.002121
0.001928 0.001962 0.002121
0.001928 0.001962 0.002121
0.001928 0.001962 0.002121
0.001928 0.001962 0.002121
0.001928 0.001962 0.002121
0.001928 0.001962 0.002121
0.001928 0.001962 0.002121
0.001928 0.001962 0.002121
0.001928 0.001962 0.002121
0.001928 0.001962 0.002121
0.001928 0.001962 0.002121
0.001928 0.001962 0.002121
0.001928 0.001962 0.002121
0.001928 0.001962 0.002121
0.001928 0.001962 0.002121
0.001928 0.001962 0.002121
0.001928 0.001962 0.002121
0.002799 0.005641 0.002765
0.024484 0.177169 0.021603
0.037873 0.355352 0.032910
0.030290 0.217560 0.025502
0.268878 0.018584 0.001442
0.128289 0.006565 0.001442
0.101306 0.001442 0.258659
0.083423 0.001442 0.460748
0.121880 0.001442 0.524983
0.189697 0.001442 0.518719
0.244111 0.001442 0.499507
0.302108 0.001442 0.474014
0.358821 0.001442 0.451138
0.426616 0.001442 0.397855
0.491365 0.001442 0.321233
0.548359 0.001442 0.258900
0.596965 0.001442 0.191306
0.649622 0.001442 0.134623
0.684540 0.001442 0.102256
0.715426 0.001442 0.071560
0.747135 0.001442 0.040883
0.770593 0.001442 0.016210
0.786149 0.018497 0.001442
0.792620 0.035944 0.001442
0.799143 0.042836 0.001442
0.805219 0.042897 0.001442
0.811939 0.035955 0.001442
0.818953 0.024949 0.001442
0.825454 0.007269 0.001442
0.828516 0.001442 0.017597
0.831592 0.001442 0.032942
0.834610 0.001442 0.048675
0.837780 0.001442 0.066106
0.842502 0.001442 0.085402
0.848778 0.001442 0.103806
0.857649 0.001442 0.122868
0.867744 0.001442 0.143764
0.879555 0.001442 0.164613
0.896252 0.001442 0.188617
0.920783 0.001442 0.219859
0.001928 0.001962 0.002121
0.001928 0.001962 0.002121
0.001928 0.001962 0.002121
0.001928 0.001962 0.002121
0.001928 0.001962 0.002121
0.001928 0.001962 0.002121
0.001928 0.001962 0.002121
0.001928 0.001962 0.002121
0.001928 0.001962 0.002121
0.001928 0.001962 0.002121
0.001928 0.001962 0.002121
0.001928 0.001962 0.002121
0.001928 0.001962 0.002121
0.001928 0.001962 0.002121
0.001928 0.001962 0.002121
0.001928 0.001962 0.002121
0.001928 0.001962 0.002121
0.001928 0.001962 0.002121
0.001928 0.001962 0.002121
0.001928 0.001962 0.002121
0.001928 0.001962 0.002121
0.001928 0.001962 0.002121
0.001928 0.001962 0.002121
0.001928 0.001962 0.002121
0.001928 0.001962 0.002121
0.006423 0.024607 0.005962
0.029353 0.222658 0.025748
0.037667 0.392678 0.032718
0.053233 0.087314 0.017894
0.341363 0.024889 0.001442
0.114721 0.001442 0.029069
0.090691 0.001442 0.313335
0.084964 0.001442 0.471645
0.130283 0.001442 0.522180
0.199159 0.001442 0.502636
0.253361 0.001442 0.482181
0.307760 0.001442 0.456728
0.368953 0.001442 0.431398
0.437256 0.001442 0.365929
0.499346 0.001442 0.293188
0.554490 0.001442 0.232943
0.605357 0.001442 0.165315
0.655847 0.001442 0.118908
0.687680 0.001442 0.089171
0.720658 0.001442 0.057927
0.751636 0.001442 0.029506
0.773530 0.001442 0.005205
0.785068 0.030490 0.001442
0.791622 0.042810 0.001442
0.798400 0.047843 0.001442
0.804647 0.046127 0.001442
0.811355 0.038939 0.001442
0.818507 0.027242 0.001442
0.825090 0.009765 0.001442
0.828599 0.001442 0.016779
0.831670 0.001442 0.032176
0.834705 0.001442 0.047864
0.837929 0.001442 0.065266
0.842771 0.001442 0.084535
0.849071 0.001442 0.103061
0.858100 0.001442 0.122067
0.868143 0.001442 0.142955
0.880056 0.001442 0.163932
0.897027 0.001442 0.188000
0.921362 0.005890 0.219298
0.001928 0.001962 0.002121
0.001928 0.001962 0.002121
0.001928 0.001962 0.002121
0.001928 0.001962 0.002121
0.001928 0.001962 0.002121
0.001928 0.001962 0.002121
0.001928 0.001962 0.002121
0.001928 0.001962 0.002121
0.001928 0.001962 0.002121
0.001928 0.001962 0.002121
0.001928 0.001962 0.002121
0.001928 0.001962 0.002121
0.001928 0.001962 0.002121
0.001928 0.001962 0.002121
0.001928 0.001962 0.002121
0.001928 0.001962 0.002121
0.001928 0.001962 0.002121
0.001928 0.001962 0.002121
0.001928 0.001962 0.002121
0.001928 0.001962 0.002121
0.001928 0.001962 0.002121
0.001928 0.001962 0.002121
0.001928 0.001962 0.002121
0.001928 0.001962 0.002121
0.001924 0.001982 0.002117
0.011876 0.064912 0.010740
0.032764 0.259023 0.028634
0.037575 0.390652 0.032640
0.130769 0.018737 0.001442
0.345957 0.025318 0.001442
0.095380 0.001442 0.127001
0.079771 0.001442 0.360332
0.088147 0.001442 0.478213
0.142099 0.001442 0.510469
0.207410 0.001442 0.487553
0.262175 0.001442 0.465108
0.314700 0.001442 0.439940
0.379335 0.001442 0.406902
0.447901 0.001442 0.331959
0.506251 0.001442 0.267762
0.560464 0.001442 0.206151
0.614314 0.001442 0.142768
0.660365 0.001442 0.105022
0.691378 0.001442 0.075450
0.725866 0.001442 0.045404
0.755740 0.001442 0.019120
0.773236 0.018366 0.001442
0.784117 0.039398 0.001442
0.790827 0.048596 0.001442
0.797838 0.051970 0.001442
0.804136 0.048989 0.001442
0.810836 0.041540 0.001442
0.818053 0.029342 0.001442
0.824768 0.011752 0.001442
0.828678 0.001442 0.016007
0.831745 0.001442 0.031450
0.834802 0.001442 0.047086
0.838077 0.001442 0.064445
0.842995 0.001442 0.083736
0.849359 0.001442 0.102341
0.858477 0.001442 0.121319
0.868526 0.001442 0.142182
0.880538 0.001442 0.163280
0.897772 0.001442 0.187409
0.921335 0.011732 0.219223
0.001928 0.001962 0.002121
0.001928 0.001962 0.002121
0.001928 0.001962 0.002121
0.001928 0.001962 0.002121
0.001928 0.001962 0.002121
0.001928 0.001962 0.002121
0.001928 0.001962 0.002121
0.001928 0.001962 0.002121
0.001928 0.001962 0.002121
0.001928 0.001962 0.002121
0.001928 0.001962 0.002121
0.001928 0.001962 0.002121
0.001928 0.001962 0.002121
0.001928 0.001962 0.002121
0.001928 0.001962 0.002121
0.001928 0.001962 0.002121
0.001928 0.001962 0.002121
0.001928 0.001962 0.002121
0.001928 0.001962 0.002121
0.001928 0.001962 0.002121
0.001928 0.001962 0.002121
0.001928 0.001962 0.002121
0.001928 0.001962 0.002121
0.001928 0.001962 0.002121
0.002039 0.002591 0.002150
0.017386 0.114666 0.015513
0.035246 0.291451 0.030723
0.034870 0.285147 0.030367
0.197618 0.013539 0.001442
0.147842 0.009907 0.001442
0.089690 0.001442 0.193587
0.069424 0.001442 0.401330
0.091464 0.001442 0.483730
0.155825 0.001442 0.491633
0.215229 0.001442 0.472502
0.269083 0.001442 0.448157
0.322938 0.001442 0.423662
0.390335 0.001442 0.377195
0.457080 0.001442 0.302519
0.512913 0.001442 0.244794
0.566950 0.001442 0.179331
0.622768 0.001442 0.125050
0.663877 0.001442 0.092002
0.695918 0.001442 0.062696
0.730693 0.001442 0.033952
0.759363 0.001442 0.008741
0.772593 0.030797 0.001442
0.783351 0.046804 0.001442
0.790272 0.053287 0.001442
0.797421 0.055386 0.001442
0.803703 0.051450 0.001442
0.810397 0.043750 0.001442
0.817652 0.031143 0.001442
0.824479 0.013435 0.001442
0.828754 0.001442 0.015273
0.831818 0.001442 0.030752
0.834889 0.001442 0.046338
0.838225 0.001442 0.063647
0.843203 0.001442 0.082973
0.849640 0.001442 0.101646
0.858838 0.001442 0.120583
0.868897 0.001442 0.141435
0.881005 0.001442 0.162650
0.898486 0.001442 0.186841
0.921309 0.016266 0.219157
0.001928 0.001962 0.002121
0.001928 0.001962 0.002121
0.001928 0.001962 0.002121
0.001928 0.001962 0.002121
0.001928 0.001962 0.002121
0.001928 0.001962 0.002121
0.001928 0.001962 0.002121
0.001928 0.001962 0.002121
0.001928 0.001962 0.002121
0.001928 0.001962 0.002121
0.001928 0.001962 0.002121
0.001928 0.001962 0.002121
0.001928 0.001962 0.002121
0.001928 0.001962 0.002121
0.001928 0.001962 0.002121
0.001928 0.001962 0.002121
0.001928 0.001962 0.002121
0.001928 0.001962 0.002121
0.001928 0.001962 0.002121
0.001928 0.001962 0.002121
0.001928 0.001962 0.002121
0.001928 0.001962 0.002121
0.001928 0.001962 0.002121
0.001928 0.001962 0.002121
0.002908 0.006095 0.002859
0.022160 0.156577 0.019615
