luts/film/pro400h.cube
TITLE "spektrafilm negative scan fujifilm_pro_400h {"black": 0.035, "blue_rot": -12, "contrast": 1.9, "crossover": 1, "density": 0.4, "dir": 1.2, "ev": 1.0, "flare": 0.008, "green": 0.7, "green_dark": 0.1, "green_hue": 130, "green_width": 55, "grey": 0.46, "peak": 16.0, "red_hue": 0, "red_rot": 12, "red_width": 40, "sat": 1.1} display=apple"
# film: spektrafilm by Andrea Volpato / https://github.com/andreavolpato/spektrafilm / CC BY-SA 4.0
LUT_3D_SIZE 9
0.001928 0.001962 0.002121
0.001928 0.001962 0.002121
0.001928 0.001962 0.002121
0.001928 0.001962 0.002121
0.058687 0.290578 0.033926
0.427308 0.001442 0.607504
0.769815 0.001442 0.142115
0.833462 0.001442 0.065110
0.905189 0.001442 0.233200
0.001928 0.001962 0.002121
0.001928 0.001962 0.002121
0.001928 0.001962 0.002121
0.001928 0.001962 0.002121
0.089279 0.001442 0.432427
0.541436 0.001442 0.287608
0.794007 0.027090 0.001442
0.834509 0.001442 0.049524
0.919831 0.001442 0.220682
0.001928 0.001962 0.002121
0.001928 0.001962 0.002121
0.001928 0.001962 0.002121
0.018210 0.121941 0.016223
0.137363 0.001442 0.433669
0.606376 0.001442 0.089908
0.789852 0.066399 0.001442
0.835296 0.001442 0.043029
0.921200 0.032583 0.218936
0.001928 0.001962 0.002121
0.001928 0.001962 0.002121
0.009177 0.002150 0.001442
0.050340 0.001442 0.028745
0.466249 0.037985 0.001442
0.734826 0.077768 0.001442
0.790803 0.081663 0.001442
0.838758 0.001442 0.027353
0.920772 0.092588 0.218938
0.045020 0.580607 0.039019
0.041170 0.673099 0.035892
0.043628 0.641031 0.037645
0.148423 0.511596 0.051528
0.567739 0.358968 0.001442
0.740819 0.160545 0.001442
0.793337 0.118853 0.001442
0.844505 0.075416 0.001442
0.920500 0.201998 0.228393
0.082241 0.757370 0.070240
0.080217 0.754257 0.068630
0.079277 0.751870 0.067459
0.086794 0.744779 0.065268
0.269258 0.717112 0.094100
0.651276 0.661186 0.049946
0.835042 0.539446 0.001442
0.868322 0.377541 0.001442
0.927511 0.406078 0.258832
0.090311 0.767236 0.075788
0.094277 0.766729 0.076069
0.097499 0.766404 0.076350
0.107962 0.765750 0.077520
0.171190 0.764208 0.088161
0.466957 0.764663 0.162507
0.769819 0.790706 0.124685
0.849091 0.754731 0.001487
0.915058 0.715411 0.170057
0.148935 0.771979 0.087593
0.159615 0.772092 0.089603
0.164670 0.772153 0.090587
0.176731 0.772315 0.093018
0.221463 0.773008 0.102852
0.353049 0.775634 0.136944
0.660609 0.801797 0.194642
0.825205 0.835620 0.148455
0.855030 0.834989 0.248923
0.328268 0.780207 0.156907
0.336618 0.780454 0.159037
0.340415 0.780573 0.160067
0.348481 0.780834 0.162313
0.372690 0.781679 0.169272
0.433535 0.784142 0.185883
0.587773 0.796409 0.221787
0.785929 0.838645 0.226733
0.849877 0.857466 0.307326
0.001928 0.001962 0.002121
0.001928 0.001962 0.002121
0.001928 0.001962 0.002121
0.001442 0.002912 0.004639
0.117714 0.001442 0.443529
0.600232 0.001442 0.096250
0.789604 0.066050 0.001442
0.835244 0.001442 0.042953
0.921183 0.031664 0.218729
0.001928 0.001962 0.002121
0.001928 0.001962 0.002121
0.002259 0.002590 0.002183
0.049455 0.001442 0.007548
0.513746 0.044129 0.001442
0.735700 0.077972 0.001442
0.790590 0.082140 0.001442
0.838991 0.001442 0.026135
0.920729 0.095398 0.218775
0.001928 0.001962 0.002121
0.002976 0.006381 0.002918
0.038736 0.006034 0.001442
0.340115 0.024836 0.001442
0.616319 0.058697 0.001442
0.738855 0.078754 0.001442
0.790157 0.084653 0.001442
0.841410 0.001442 0.017439
0.920559 0.118416 0.219273
0.001928 0.001962 0.002121
0.044791 0.536700 0.038791
0.043094 0.476570 0.037128
0.222348 0.265135 0.049961
0.578057 0.110642 0.001442
0.731433 0.084257 0.001442
0.789897 0.091727 0.001442
0.844471 0.027419 0.001442
0.920407 0.159076 0.222321
0.046194 0.693383 0.040141
0.061699 0.722920 0.053176
0.056268 0.712711 0.048528
0.075583 0.658060 0.040433
0.436478 0.529521 0.101672
0.754328 0.335862 0.001442
0.803398 0.181166 0.001442
0.845942 0.136394 0.001442
0.920994 0.248937 0.237353
0.083267 0.759008 0.071109
0.081543 0.755954 0.069523
0.080381 0.753644 0.068382
0.086480 0.748256 0.066735
0.240257 0.726575 0.089426
0.631575 0.683549 0.103205
0.828259 0.591572 0.001442
0.869078 0.435480 0.001442
0.928740 0.435191 0.253342
0.090393 0.766804 0.075621
0.094716 0.766168 0.075891
0.098142 0.765834 0.076198
0.109573 0.765099 0.077485
0.172737 0.763517 0.088203
0.464608 0.764085 0.161806
0.767573 0.790803 0.127135
0.848375 0.758899 0.001442
0.910881 0.725046 0.172254
0.151302 0.771925 0.088477
0.162144 0.772049 0.090541
0.167284 0.772103 0.091547
0.180108 0.772253 0.094168
0.226321 0.772940 0.104465
0.360190 0.775617 0.139421
0.662928 0.801889 0.195429
0.825350 0.835411 0.154973
0.855861 0.835343 0.262270
0.330463 0.780829 0.164784
0.338844 0.781072 0.166885
0.342592 0.781183 0.167828
0.350605 0.781428 0.169900
0.375157 0.782258 0.176670
0.436047 0.784668 0.192913
0.589878 0.796836 0.228289
0.786694 0.838985 0.235398
0.850365 0.857892 0.318427
0.001928 0.001962 0.002121
0.001928 0.001962 0.002121
0.001928 0.001962 0.002121
0.001442 0.027946 0.084817
0.142923 0.001442 0.557233
0.645841 0.001442 0.188565
0.795620 0.052281 0.001442
0.836355 0.001442 0.043277
0.920873 0.072957 0.218449
0.001928 0.001962 0.002121
0.001442 0.012700 0.030040
0.001442 0.038907 0.114254
0.242399 0.001442 0.199494
0.582476 0.001442 0.033819
0.733150 0.073329 0.001442
0.792683 0.075139 0.001442
0.840838 0.001442 0.027230
0.920496 0.127333 0.219577
0.001928 0.001962 0.002121
0.001442 0.056569 0.077790
0.017396 0.017662 0.016625
0.269348 0.016071 0.001442
0.587908 0.053567 0.001442
0.733876 0.076944 0.001442
0.791667 0.079191 0.001442
0.843578 0.001442 0.018710
0.920428 0.146747 0.221078
0.024875 0.180695 0.021973
0.043301 0.488792 0.038572
0.038706 0.375710 0.033590
0.197571 0.221274 0.037404
0.549126 0.094512 0.001442
0.726161 0.082063 0.001442
0.790622 0.089180 0.001442
0.847784 0.026161 0.001442
0.920407 0.183455 0.225285
0.048198 0.697388 0.041842
0.050676 0.702222 0.043959
0.041107 0.677257 0.035713
0.089045 0.612055 0.043481
0.428545 0.489861 0.087810
0.746712 0.312934 0.001442
0.802404 0.177051 0.001442
0.850479 0.136002 0.001442
0.921338 0.267203 0.241085
0.081651 0.756410 0.069763
0.078765 0.751768 0.067385
0.077762 0.748964 0.066032
0.085199 0.741458 0.063685
0.244886 0.716964 0.087295
0.628232 0.670616 0.089629
0.829360 0.581713 0.001442
0.872553 0.429734 0.001442
0.929121 0.446012 0.251838
0.090268 0.766197 0.075367
0.094940 0.765376 0.075602
0.098598 0.765015 0.075930
0.110986 0.764256 0.077360
0.176365 0.762723 0.088658
0.468593 0.763164 0.162482
0.767456 0.789535 0.125711
0.849289 0.757549 0.001570
0.913088 0.724708 0.186117
0.152378 0.771920 0.089106
0.163481 0.772019 0.091231
0.168878 0.772078 0.092302
0.181988 0.772243 0.095013
0.228391 0.772903 0.105451
0.363284 0.775632 0.140861
0.664097 0.801986 0.196304
0.825440 0.835345 0.158986
0.856230 0.835515 0.268049
0.331500 0.781106 0.168181
0.339964 0.781351 0.170316
0.343752 0.781463 0.171275
0.351807 0.781708 0.173352
0.376352 0.782529 0.180037
0.437162 0.784923 0.196282
0.590793 0.797034 0.231452
0.787023 0.839137 0.239443
0.850591 0.858088 0.323411
0.001928 0.001962 0.002121
0.001442 0.046351 0.126293
0.001442 0.085840 0.206142
0.001442 0.144295 0.351884
0.145982 0.001442 0.770817
0.639876 0.001442 0.618542
0.812285 0.001442 0.151747
0.837162 0.001442 0.096473
0.923180 0.057028 0.239526
0.001442 0.036281 0.100235
0.001442 0.162761 0.343386
0.001442 0.143416 0.309579
0.224493 0.001442 0.439048
0.546908 0.001442 0.403714
0.746048 0.001442 0.201439
0.812755 0.001442 0.048238
0.839974 0.001442 0.079684
0.922765 0.113984 0.239641
0.001442 0.111073 0.250972
0.001442 0.141019 0.305536
0.001442 0.089527 0.214880
0.202558 0.001442 0.270490
0.557168 0.001442 0.169023
0.744983 0.001442 0.103949
0.812653 0.001442 0.025024
0.842035 0.001442 0.071533
0.922610 0.134298 0.240317
0.001442 0.210001 0.307151
0.001442 0.433827 0.384625
0.001442 0.317194 0.258232
0.164105 0.174670 0.174294
0.522578 0.001442 0.037020
0.736509 0.011147 0.001442
0.808338 0.025655 0.001442
0.848427 0.001442 0.052776
0.922362 0.172289 0.242944
0.039033 0.663740 0.086571
0.033522 0.650550 0.147719
0.038757 0.614033 0.122363
0.092162 0.538679 0.091263
0.413864 0.427010 0.070678
0.735537 0.259438 0.001442
0.803458 0.144118 0.001442
0.866357 0.065801 0.001442
0.922492 0.258364 0.256857
0.076229 0.748511 0.069683
0.071678 0.740348 0.066790
0.070285 0.735824 0.064664
0.081647 0.725880 0.061256
0.247358 0.693217 0.082476
0.621672 0.647320 0.064493
0.831820 0.563532 0.001581
0.882992 0.406651 0.001442
0.929474 0.437230 0.280538
0.090041 0.764770 0.075315
0.095820 0.763820 0.075713
0.100193 0.763467 0.076181
0.115295 0.762833 0.078157
0.185233 0.760980 0.090604
0.474669 0.760949 0.163803
0.766670 0.786003 0.123488
0.852075 0.755111 0.001675
0.918140 0.724386 0.215109
0.155026 0.771972 0.092242
0.166684 0.772097 0.094635
0.172443 0.772169 0.095856
0.186332 0.772355 0.098825
0.232600 0.772963 0.109479
0.369206 0.775736 0.145309
0.666240 0.802135 0.199484
0.825673 0.835253 0.169005
0.857126 0.835990 0.281780
0.333769 0.781779 0.176233
0.342338 0.782023 0.178379
0.346179 0.782137 0.179354
0.354319 0.782382 0.181440
0.378819 0.783171 0.187842
0.439538 0.785519 0.204031
0.592749 0.797479 0.238769
0.787690 0.839462 0.248533
0.851524 0.858972 0.334555
0.001442 0.216318 0.439247
0.001442 0.226104 0.456759
0.001442 0.230691 0.464988
0.001442 0.224996 0.480792
0.326607 0.001442 0.819233
0.682351 0.001442 0.750664
0.812504 0.001442 0.599759
0.847614 0.001442 0.301456
0.914219 0.001442 0.326874
0.001442 0.228392 0.460935
0.001442 0.229993 0.463858
0.001442 0.220199 0.446335
0.001442 0.192727 0.469952
0.470842 0.001442 0.632054
0.719925 0.001442 0.605046
0.820669 0.001442 0.469036
0.846537 0.001442 0.247090
0.929435 0.001442 0.314506
0.001442 0.232107 0.468079
0.001442 0.241458 0.485705
0.001442 0.215925 0.439755
0.001442 0.176877 0.449965
0.452403 0.001442 0.559636
0.725141 0.001442 0.521677
0.822422 0.001442 0.410546
0.846496 0.001442 0.228579
0.929845 0.037499 0.312141
0.001442 0.291745 0.560243
0.001442 0.365692 0.631613
0.001442 0.293746 0.540390
0.001442 0.200066 0.481635
0.433567 0.001442 0.498175
0.723095 0.001442 0.377867
0.822407 0.001442 0.302459
0.848935 0.001442 0.201274
0.929809 0.097058 0.308966
0.001442 0.716059 0.731676
0.001442 0.689345 0.651310
0.001442 0.647299 0.586476
0.001442 0.561110 0.503344
0.424349 0.422167 0.422442
0.760329 0.151992 0.203078
0.834715 0.001442 0.139427
0.869774 0.001442 0.145887
0.929288 0.209490 0.309492
0.001442 0.777943 0.405424
0.001442 0.758088 0.364249
0.001442 0.747273 0.341730
0.034938 0.725767 0.303993
0.249809 0.673679 0.253128
0.623684 0.627642 0.195750
0.866357 0.505356 0.001442
0.912873 0.332043 0.110031
0.930025 0.416894 0.351845
0.085314 0.767888 0.160668
0.095072 0.766916 0.162182
0.102101 0.766432 0.163178
0.123529 0.765242 0.164407
0.207595 0.761734 0.169077
0.486247 0.756424 0.207298
0.765401 0.777316 0.158162
0.861081 0.749934 0.068177
0.931241 0.723070 0.288654
0.161632 0.773906 0.125945
0.174876 0.774104 0.129481
0.181668 0.774181 0.131010
0.198119 0.774357 0.134504
0.243195 0.774822 0.143712
0.385569 0.777621 0.177266
0.670705 0.802512 0.223515
0.826622 0.835407 0.202718
0.861767 0.839373 0.322963
0.340225 0.784253 0.203403
0.349071 0.784499 0.205700
0.352962 0.784607 0.206692
0.361338 0.784835 0.208790
0.385792 0.785488 0.214371
0.445756 0.787555 0.229438
0.598698 0.798986 0.264026
0.789388 0.840354 0.276783
0.856511 0.863864 0.366633
0.001442 0.255596 0.510832
0.001442 0.251310 0.502701
0.001442 0.245354 0.491390
0.001442 0.243577 0.492464
0.239719 0.001442 0.858725
0.678031 0.001442 0.778233
0.799723 0.001502 0.763317
0.836730 0.001442 0.722082
0.882474 0.001442 0.615317
0.001442 0.274501 0.544504
0.001442 0.277985 0.550022
0.001442 0.263228 0.524901
0.001442 0.242444 0.498815
0.227091 0.001442 0.841353
0.676378 0.001442 0.749619
0.802195 0.001442 0.739335
0.838844 0.001442 0.702283
0.889529 0.001493 0.603743
0.001442 0.302740 0.588113
0.001442 0.304352 0.589410
0.001442 0.282164 0.556086
0.001442 0.251017 0.515825
0.225222 0.001442 0.840204
0.673372 0.001442 0.737571
0.803137 0.001442 0.727563
0.839981 0.001442 0.692626
0.892993 0.001442 0.598570
0.001442 0.396941 0.697816
0.001442 0.374910 0.671471
0.001442 0.342356 0.633927
0.001442 0.290188 0.576059
0.224978 0.001442 0.878581
0.667035 0.001442 0.718667
0.805028 0.001442 0.699913
0.842913 0.001442 0.670515
0.900997 0.001442 0.588050
0.001442 0.660815 0.864317
0.001578 0.605752 0.836188
0.001442 0.568187 0.815117
0.001442 0.496298 0.769983
0.149245 0.365249 0.830476
0.683641 0.087142 0.726527
0.822407 0.001442 0.631216
0.857703 0.001442 0.604974
0.929001 0.016271 0.553197
0.001442 0.834344 0.832463
0.001674 0.818784 0.805692
0.001708 0.810962 0.793489
0.001442 0.795674 0.770830
0.090673 0.762121 0.734417
0.695874 0.685071 0.686831
0.889217 0.440837 0.495888
0.928327 0.223747 0.421820
0.943081 0.316161 0.487145
0.001557 0.869523 0.667981
0.001442 0.865065 0.651246
0.001706 0.862803 0.642390
0.001589 0.859574 0.626810
0.147324 0.846259 0.581725
0.532235 0.806769 0.528126
0.799181 0.798810 0.449834
0.913289 0.761880 0.371915
0.955140 0.713827 0.508232
0.162507 0.807877 0.365034
0.184049 0.807512 0.365795
0.194441 0.807360 0.366328
0.215136 0.806996 0.367335
0.265244 0.805487 0.368267
0.421686 0.798748 0.371147
0.693026 0.816516 0.384291
0.836191 0.842959 0.347362
0.885753 0.860155 0.457134
0.358715 0.796866 0.307830
0.368478 0.796947 0.309877
0.372922 0.796974 0.310749
0.382143 0.797009 0.312439
0.407172 0.797121 0.317187
0.467727 0.797591 0.329198
0.616389 0.806695 0.358985
0.800635 0.849873 0.374741
0.874366 0.881406 0.472242
0.001442 0.373393 0.676935
0.001442 0.344543 0.644285
0.001442 0.330016 0.626433
0.001442 0.301376 0.590731
0.001442 0.242124 0.678864
0.537454 0.001442 0.851630
0.785527 0.001442 0.809546
0.831614 0.001442 0.809208
0.863715 0.001442 0.823766
0.001442 0.432442 0.737962
0.001442 0.387579 0.691091
0.001442 0.371882 0.674594
0.001442 0.340425 0.641566
0.001442 0.259183 0.729450
0.539908 0.001442 0.867893
0.786081 0.001442 0.807702
0.833290 0.001442 0.808207
0.867200 0.001442 0.825233
0.001442 0.456673 0.761124
0.001442 0.413385 0.718280
0.001442 0.393105 0.696901
0.001442 0.359621 0.663383
0.001442 0.274936 0.742686
0.542485 0.001442 0.878737
0.786853 0.001442 0.807743
0.834299 0.001442 0.807895
0.868836 0.001442 0.825881
0.001442 0.509763 0.807361
0.001442 0.465066 0.768090
0.001442 0.448666 0.752688
0.001442 0.403656 0.709950
0.001442 0.317031 0.759290
0.550062 0.001442 0.908609
0.789651 0.001442 0.809657
0.836539 0.001442 0.807232
0.872699 0.001590 0.827535
0.001442 0.633341 0.876625
0.001442 0.594124 0.860571
0.001442 0.575094 0.850531
0.001442 0.542773 0.832125
0.001442 0.458392 0.827726
0.546676 0.229962 0.921112
0.808537 0.001442 0.830495
0.847859 0.001442 0.810743
0.886268 0.001442 0.834443
0.001442 0.792723 0.894726
0.001650 0.774050 0.888166
0.001442 0.766622 0.886198
0.001442 0.748429 0.883519
0.001442 0.717789 0.914713
0.515749 0.636495 0.920839
0.831684 0.403847 0.850845
0.888560 0.161642 0.820440
0.901938 0.177734 0.823035
0.001748 0.894922 0.900359
0.001692 0.894730 0.899015
0.001442 0.894852 0.898671
0.001635 0.895136 0.898013
0.001775 0.900581 0.900843
0.489547 0.896299 0.890651
0.867361 0.858650 0.870531
0.959525 0.750567 0.803923
0.966356 0.641473 0.797483
0.001442 0.936743 0.854984
0.001442 0.938889 0.854075
0.001442 0.939883 0.853525
0.033000 0.941585 0.852392
0.200810 0.942626 0.848145
0.447948 0.942259 0.831640
0.787160 0.913510 0.794345
0.910403 0.912867 0.754196
0.948413 0.912336 0.752481
0.390475 0.902690 0.683644
0.404749 0.902680 0.684319
0.410806 0.902681 0.684641
0.422603 0.902652 0.685237
0.454340 0.902453 0.686779
0.545839 0.901053 0.691427
0.713683 0.897691 0.704547
0.866720 0.910942 0.702882
0.919893 0.925906 0.716456
0.001442 0.594778 0.866981
0.001442 0.577536 0.858268
0.001442 0.570589 0.854709
0.001442 0.554675 0.846623
0.001442 0.497278 0.824908
0.331691 0.314882 0.965976
0.761234 0.048774 0.921654
0.850076 0.001442 0.854797
0.882957 0.001605 0.876000
0.001563 0.619887 0.877751
0.001442 0.603625 0.871750
0.001442 0.596442 0.869048
0.001442 0.578700 0.861900
0.001442 0.530929 0.849927
0.329954 0.362344 0.964560
0.758884 0.119475 0.919860
0.855316 0.001442 0.860819
0.887787 0.001442 0.881338
0.001623 0.630907 0.881547
0.001442 0.614801 0.876489
0.001442 0.607973 0.874355
0.001442 0.590058 0.868217
0.001442 0.544354 0.859306
0.327745 0.386077 0.963653
0.757819 0.144611 0.919012
0.857875 0.001442 0.863785
0.889972 0.001442 0.883751
0.001442 0.650909 0.887126
0.001442 0.637717 0.884378
0.001622 0.631192 0.883108
0.001442 0.613272 0.879089
0.001442 0.569412 0.875665
0.322990 0.430401 0.961409
0.755505 0.190343 0.917136
0.864097 0.001442 0.871102
0.894771 0.001584 0.889024
0.001442 0.691854 0.894129
0.001603 0.682458 0.893992
0.001442 0.677870 0.894124
0.001442 0.665728 0.894743
0.001442 0.631985 0.906088
0.313704 0.524716 0.953411
0.756265 0.296845 0.919314
0.881723 0.030209 0.892208
0.898168 0.072102 0.892662
0.001442 0.781187 0.907176
0.001654 0.772057 0.906423
0.001646 0.768219 0.906640
0.001664 0.761924 0.908682
0.001442 0.741743 0.922098
0.381570 0.702106 0.945637
0.775408 0.542477 0.940674
0.878318 0.322232 0.890844
0.892228 0.248620 0.885951
0.001442 0.882556 0.930779
0.001783 0.881991 0.932605
0.001693 0.881705 0.933555
0.001442 0.881674 0.936273
0.001724 0.883960 0.949404
0.429694 0.873316 0.958965
0.792709 0.847739 0.974059
0.935075 0.742078 0.953537
0.943828 0.623826 0.935615
0.001763 0.940769 0.952419
0.046713 0.942153 0.953842
0.078043 0.942398 0.954007
0.134139 0.942943 0.954382
0.241566 0.944481 0.955513
0.451282 0.949578 0.959558
0.774943 0.954417 0.962874
0.939175 0.942201 0.956515
0.973024 0.920060 0.950206
0.453223 0.967794 0.950776
0.467544 0.968334 0.951095
0.473853 0.968572 0.951234
0.487255 0.969079 0.951531
0.523969 0.970461 0.952349
0.603022 0.973213 0.953477
0.758044 0.976684 0.952613
0.919306 0.967563 0.938775
0.959772 0.964387 0.934570
0.001442 0.791566 0.920741
0.001442 0.788358 0.922513
0.001442 0.786932 0.923481
0.001616 0.784280 0.925839
0.001442 0.777714 0.937924
0.282190 0.750115 0.955959
0.675218 0.661135 0.976919
0.874752 0.502878 0.934354
0.899155 0.383622 0.908064
0.001442 0.796901 0.921997
0.001442 0.793926 0.923809
0.001442 0.792635 0.924756
0.001729 0.790300 0.927115
0.001514 0.784528 0.939275
0.283991 0.758366 0.956811
0.676889 0.677262 0.978988
0.878378 0.521917 0.938360
0.900343 0.396324 0.909427
0.001442 0.799180 0.922541
0.001703 0.796320 0.924358
0.001442 0.795139 0.925308
0.001649 0.792907 0.927667
0.001442 0.787292 0.939828
0.284732 0.762055 0.957164
0.677533 0.683608 0.979726
0.879866 0.529846 0.940010
0.900871 0.401901 0.910035
0.001442 0.803906 0.923663
0.001740 0.801262 0.925485
0.001442 0.800206 0.926422
0.001442 0.798233 0.928804
0.001442 0.793011 0.940952
0.286261 0.769620 0.957844
0.678711 0.696592 0.981087
0.882638 0.544845 0.943096
0.901985 0.413559 0.911317
0.001442 0.815995 0.926534
0.001442 0.814155 0.928378
0.001442 0.813387 0.929332
0.001611 0.811648 0.931819
0.001702 0.807847 0.943777
0.290931 0.788636 0.959378
0.681211 0.727334 0.983381
0.889943 0.585737 0.951257
0.909268 0.456851 0.919199
0.001442 0.843094 0.933652
0.001442 0.842115 0.935648
0.001442 0.841752 0.936662
0.001670 0.841188 0.939455
0.001482 0.840658 0.950846
0.306149 0.829189 0.962368
0.688209 0.794143 0.982400
0.905798 0.685676 0.969120
0.929137 0.559506 0.940715
0.001750 0.891722 0.949469
0.001778 0.892926 0.952721
0.001784 0.893521 0.954243
0.001759 0.894711 0.957307
0.087162 0.895924 0.962757
0.361074 0.893618 0.969146
0.731352 0.884490 0.985013
0.921778 0.831006 0.987010
0.957831 0.750202 0.973559
0.178335 0.939246 0.968575
0.212131 0.939758 0.969261
0.225699 0.939984 0.969562
0.252995 0.940487 0.970216
0.324123 0.942057 0.972189
0.480285 0.946123 0.977378
0.747739 0.949658 0.985281
0.919380 0.943805 0.988145
0.966942 0.924108 0.987037
0.536395 0.968360 0.980211
0.547003 0.968737 0.980549
0.551684 0.968901 0.980697
0.561266 0.969236 0.980998
0.585128 0.970052 0.981716
0.647450 0.972024 0.983442
0.772368 0.974766 0.985665
0.917411 0.973961 0.984828
0.962921 0.972147 0.983529
