luts/film/pro400h.cube
TITLE "spektrafilm negative scan fujifilm_pro_400h {"black": 0.035, "blue_rot": -12, "contrast": 1.9, "crossover": 1, "density": 0.4, "dir": 1.2, "ev": 1.0, "flare": 0.008, "green": 0.7, "green_dark": 0.1, "green_hue": 130, "green_width": 55, "grey": 0.46, "peak": 16.0, "red_hue": 0, "red_rot": 12, "red_width": 40, "sat": 1.1} display=apple"
# film: spektrafilm by Andrea Volpato / https://github.com/andreavolpato/spektrafilm / CC BY-SA 4.0
LUT_3D_SIZE 5
0.001928 0.001962 0.002121
0.001928 0.001962 0.002121
0.058687 0.290578 0.033926
0.769815 0.001442 0.142115
0.905189 0.001442 0.233200
0.001928 0.001962 0.002121
0.001928 0.001962 0.002121
0.137363 0.001442 0.433669
0.789852 0.066399 0.001442
0.921200 0.032583 0.218936
0.045020 0.580607 0.039019
0.043628 0.641031 0.037645
0.567739 0.358968 0.001442
0.793337 0.118853 0.001442
0.920500 0.201998 0.228393
0.090311 0.767236 0.075788
0.097499 0.766404 0.076350
0.171190 0.764208 0.088161
0.769819 0.790706 0.124685
0.915058 0.715411 0.170057
0.328268 0.780207 0.156907
0.340415 0.780573 0.160067
0.372690 0.781679 0.169272
0.587773 0.796409 0.221787
0.849877 0.857466 0.307326
0.001928 0.001962 0.002121
0.001928 0.001962 0.002121
0.142923 0.001442 0.557233
0.795620 0.052281 0.001442
0.920873 0.072957 0.218449
0.001928 0.001962 0.002121
0.017396 0.017662 0.016625
0.587908 0.053567 0.001442
0.791667 0.079191 0.001442
0.920428 0.146747 0.221078
0.048198 0.697388 0.041842
0.041107 0.677257 0.035713
0.428545 0.489861 0.087810
0.802404 0.177051 0.001442
0.921338 0.267203 0.241085
0.090268 0.766197 0.075367
0.098598 0.765015 0.075930
0.176365 0.762723 0.088658
0.767456 0.789535 0.125711
0.913088 0.724708 0.186117
0.331500 0.781106 0.168181
0.343752 0.781463 0.171275
0.376352 0.782529 0.180037
0.590793 0.797034 0.231452
0.850591 0.858088 0.323411
0.001442 0.216318 0.439247
0.001442 0.230691 0.464988
0.326607 0.001442 0.819233
0.812504 0.001442 0.599759
0.914219 0.001442 0.326874
0.001442 0.232107 0.468079
0.001442 0.215925 0.439755
0.452403 0.001442 0.559636
0.822422 0.001442 0.410546
0.929845 0.037499 0.312141
0.001442 0.716059 0.731676
0.001442 0.647299 0.586476
0.424349 0.422167 0.422442
0.834715 0.001442 0.139427
0.929288 0.209490 0.309492
0.085314 0.767888 0.160668
0.102101 0.766432 0.163178
0.207595 0.761734 0.169077
0.765401 0.777316 0.158162
0.931241 0.723070 0.288654
0.340225 0.784253 0.203403
0.352962 0.784607 0.206692
0.385792 0.785488 0.214371
0.598698 0.798986 0.264026
0.856511 0.863864 0.366633
0.001442 0.373393 0.676935
0.001442 0.330016 0.626433
0.001442 0.242124 0.678864
0.785527 0.001442 0.809546
0.863715 0.001442 0.823766
0.001442 0.456673 0.761124
0.001442 0.393105 0.696901
0.001442 0.274936 0.742686
0.786853 0.001442 0.807743
0.868836 0.001442 0.825881
0.001442 0.633341 0.876625
0.001442 0.575094 0.850531
0.001442 0.458392 0.827726
0.808537 0.001442 0.830495
0.886268 0.001442 0.834443
0.001748 0.894922 0.900359
0.001442 0.894852 0.898671
0.001775 0.900581 0.900843
0.867361 0.858650 0.870531
0.966356 0.641473 0.797483
0.390475 0.902690 0.683644
0.410806 0.902681 0.684641
0.454340 0.902453 0.686779
0.713683 0.897691 0.704547
0.919893 0.925906 0.716456
0.001442 0.791566 0.920741
0.001442 0.786932 0.923481
0.001442 0.777714 0.937924
0.675218 0.661135 0.976919
0.899155 0.383622 0.908064
0.001442 0.799180 0.922541
0.001442 0.795139 0.925308
0.001442 0.787292 0.939828
0.677533 0.683608 0.979726
0.900871 0.401901 0.910035
0.001442 0.815995 0.926534
0.001442 0.813387 0.929332
0.001702 0.807847 0.943777
0.681211 0.727334 0.983381
0.909268 0.456851 0.919199
0.001750 0.891722 0.949469
0.001784 0.893521 0.954243
0.087162 0.895924 0.962757
0.731352 0.884490 0.985013
0.957831 0.750202 0.973559
0.536395 0.968360 0.980211
0.551684 0.968901 0.980697
0.585128 0.970052 0.981716
0.772368 0.974766 0.985665
0.962921 0.972147 0.983529
