luts/film/rz67_portra400.cube
TITLE "spektrafilm negative scan kodak_portra_400 {"black": 0.03, "blue_rot": -12, "contrast": 2.0, "crossover": 1, "density": 0.5, "dir": 1.3, "ev": 1.5, "flare": 0.008, "green": 0.5, "green_dark": 0.22, "green_hue": 120, "green_rot": -4, "green_width": 55, "grey": 0.45, "peak": 16.0, "red_hue": 0, "red_rot": 16, "red_width": 40, "sat": 1.15} display=apple"
# film: spektrafilm by Andrea Volpato / https://github.com/andreavolpato/spektrafilm / CC BY-SA 4.0
LUT_3D_SIZE 5
0.001324 0.001221 0.001193
0.001324 0.001221 0.001193
0.072226 0.293941 0.005120
0.840292 0.000996 0.432662
0.833386 0.000996 0.083231
0.001324 0.001221 0.001193
0.001324 0.001221 0.001193
0.522854 0.000996 0.512794
0.803443 0.047961 0.000996
0.831779 0.000996 0.053715
0.143728 0.587321 0.000996
0.155766 0.619896 0.000996
0.577954 0.304307 0.000996
0.780524 0.104269 0.000996
0.834730 0.003251 0.000996
0.242093 0.691713 0.000996
0.252320 0.690986 0.000996
0.309805 0.685001 0.018450
0.702433 0.690207 0.274274
0.865186 0.482103 0.000996
0.600725 0.678555 0.274100
0.602858 0.679165 0.275425
0.608182 0.680698 0.278617
0.656056 0.694767 0.297666
0.750395 0.721253 0.279896
0.001324 0.001221 0.001193
0.001324 0.001221 0.001193
0.534419 0.000996 0.571460
0.807918 0.033302 0.000996
0.831667 0.000996 0.042764
0.001324 0.001221 0.001193
0.013355 0.014408 0.013289
0.616481 0.068402 0.000996
0.782190 0.100571 0.000996
0.832661 0.000996 0.022050
0.167383 0.659249 0.000996
0.163718 0.643586 0.000996
0.412228 0.446775 0.188094
0.782785 0.118020 0.000996
0.830663 0.039948 0.000996
0.243605 0.691336 0.000996
0.254515 0.690509 0.000996
0.312919 0.683914 0.021362
0.700317 0.688949 0.274350
0.863176 0.498384 0.000996
0.600385 0.678461 0.273918
0.602501 0.679066 0.275238
0.607910 0.680621 0.278499
0.656349 0.694876 0.297857
0.751010 0.721892 0.281994
0.000996 0.235329 0.477689
0.000996 0.231285 0.469635
0.557560 0.000996 0.733355
0.828240 0.000996 0.617051
0.849940 0.000996 0.216109
0.000996 0.334912 0.613918
0.000996 0.240803 0.488239
0.476833 0.000996 0.590771
0.835261 0.000996 0.463230
0.847355 0.000996 0.167226
0.000996 0.731814 0.546614
0.000996 0.680695 0.569393
0.409980 0.406528 0.418397
0.812621 0.000996 0.047323
0.843896 0.000996 0.082204
0.237602 0.690780 0.000996
0.248981 0.690020 0.000996
0.312796 0.682450 0.033532
0.696588 0.678224 0.265124
0.882181 0.469211 0.000996
0.599919 0.678425 0.274006
0.602199 0.679088 0.275471
0.607955 0.680769 0.279031
0.657171 0.695482 0.299512
0.752594 0.723541 0.287412
0.000996 0.563215 0.835288
0.000996 0.488857 0.781082
0.000996 0.280630 0.674001
0.795268 0.000996 0.785660
0.836303 0.000996 0.785987
0.000996 0.616932 0.858575
0.000996 0.566973 0.837467
0.000996 0.341761 0.712955
0.793964 0.000996 0.785889
0.837061 0.000996 0.784984
0.001208 0.732760 0.877444
0.000996 0.687912 0.871219
0.000996 0.554081 0.863074
0.798302 0.000996 0.794920
0.839767 0.000996 0.782158
0.000996 0.926657 0.920725
0.001084 0.928609 0.922161
0.001284 0.936771 0.928814
0.891385 0.864174 0.869148
0.939298 0.204084 0.642953
0.652799 0.747427 0.448544
0.656540 0.749095 0.452783
0.665981 0.753124 0.462976
0.727810 0.773958 0.508676
0.800910 0.775631 0.439416
0.000996 0.903927 0.942122
0.001200 0.903415 0.943536
0.001126 0.902357 0.949441
0.684519 0.817370 0.989158
0.896469 0.249033 0.875715
0.000996 0.905938 0.943170
0.001226 0.905595 0.944677
0.000996 0.905617 0.951021
0.689138 0.828476 0.988818
0.897806 0.271952 0.877408
0.001183 0.910600 0.945709
0.000996 0.910964 0.947626
0.001191 0.912237 0.954473
0.700836 0.850673 0.989911
0.902797 0.321698 0.883146
0.001273 0.944110 0.969682
0.000996 0.946666 0.973436
0.153854 0.947979 0.975854
0.717055 0.943490 0.993624
0.967322 0.628227 0.953409
0.739583 0.987773 0.995196
0.744505 0.987852 0.995265
0.756286 0.988026 0.995411
0.839243 0.988552 0.995642
0.992801 0.981768 0.990440
