luts/film/rz67_portra400.cube
TITLE "spektrafilm negative scan kodak_portra_400 {"black": 0.03, "blue_rot": -12, "contrast": 2.0, "crossover": 1, "density": 0.5, "dir": 1.3, "ev": 1.5, "flare": 0.008, "green": 0.5, "green_dark": 0.22, "green_hue": 120, "green_rot": -4, "green_width": 55, "grey": 0.45, "peak": 16.0, "red_hue": 0, "red_rot": 16, "red_width": 40, "sat": 1.15} display=apple"
# film: spektrafilm by Andrea Volpato / https://github.com/andreavolpato/spektrafilm / CC BY-SA 4.0
LUT_3D_SIZE 65
0.001324 0.001221 0.001193
0.001324 0.001221 0.001193
0.001324 0.001221 0.001193
0.001324 0.001221 0.001193
0.001324 0.001221 0.001193
0.001324 0.001221 0.001193
0.001324 0.001221 0.001193
0.001324 0.001221 0.001193
0.001324 0.001221 0.001193
0.001324 0.001221 0.001193
0.001324 0.001221 0.001193
0.001324 0.001221 0.001193
0.001324 0.001221 0.001193
0.001324 0.001221 0.001193
0.001324 0.001221 0.001193
0.001324 0.001221 0.001193
0.001324 0.001221 0.001193
0.001324 0.001221 0.001193
0.001324 0.001221 0.001193
0.001324 0.001221 0.001193
0.001324 0.001221 0.001193
0.001324 0.001221 0.001193
0.001324 0.001221 0.001193
0.001324 0.001221 0.001193
0.001324 0.001221 0.001193
0.001324 0.001221 0.001193
0.001324 0.001221 0.001193
0.001324 0.001221 0.001193
0.001324 0.001221 0.001193
0.000996 0.008088 0.018795
0.000996 0.060806 0.162398
0.134329 0.558491 0.000996
0.072226 0.293941 0.005120
0.481909 0.046293 0.000996
0.603439 0.000996 0.144241
0.566101 0.000996 0.518470
0.581991 0.000996 0.597910
0.618103 0.000996 0.620832
0.662257 0.000996 0.623138
0.698631 0.000996 0.625534
0.727855 0.000996 0.622910
0.755915 0.000996 0.619292
0.778709 0.000996 0.597365
0.796347 0.000996 0.580584
0.809052 0.000996 0.571648
0.819875 0.000996 0.545926
0.828858 0.000996 0.507158
0.835425 0.000996 0.471123
0.840292 0.000996 0.432662
0.843295 0.000996 0.359661
0.843970 0.000996 0.279008
0.840608 0.000996 0.199222
0.833764 0.000996 0.131680
0.828707 0.000996 0.088132
0.825875 0.000996 0.059653
0.823929 0.000996 0.038639
0.823075 0.000996 0.027046
0.822972 0.000996 0.023399
0.823319 0.000996 0.024872
0.823780 0.000996 0.027497
0.824414 0.000996 0.031675
0.825731 0.000996 0.041630
0.827447 0.000996 0.052850
0.829681 0.000996 0.065023
0.833386 0.000996 0.083231
0.001324 0.001221 0.001193
0.001324 0.001221 0.001193
0.001324 0.001221 0.001193
0.001324 0.001221 0.001193
0.001324 0.001221 0.001193
0.001324 0.001221 0.001193
0.001324 0.001221 0.001193
0.001324 0.001221 0.001193
0.001324 0.001221 0.001193
0.001324 0.001221 0.001193
0.001324 0.001221 0.001193
0.001324 0.001221 0.001193
0.001324 0.001221 0.001193
0.001324 0.001221 0.001193
0.001324 0.001221 0.001193
0.001324 0.001221 0.001193
0.001324 0.001221 0.001193
0.001324 0.001221 0.001193
0.001324 0.001221 0.001193
0.001324 0.001221 0.001193
0.001324 0.001221 0.001193
0.001324 0.001221 0.001193
0.001324 0.001221 0.001193
0.001324 0.001221 0.001193
0.001324 0.001221 0.001193
0.001324 0.001221 0.001193
0.001324 0.001221 0.001193
0.001324 0.001221 0.001193
0.018029 0.090753 0.008518
0.080746 0.394993 0.000996
0.128801 0.541531 0.000996
0.076979 0.190417 0.023504
0.494037 0.048110 0.000996
0.568960 0.000996 0.171960
0.539726 0.000996 0.505516
0.558156 0.000996 0.584696
0.597253 0.000996 0.605564
0.643171 0.000996 0.603134
0.681725 0.000996 0.599714
0.714706 0.000996 0.596674
0.742769 0.000996 0.593620
0.770763 0.000996 0.569620
0.790128 0.000996 0.552273
0.805067 0.000996 0.540881
0.816714 0.000996 0.515779
0.827726 0.001063 0.471688
0.834302 0.000996 0.428540
0.839467 0.000996 0.378041
0.841710 0.000996 0.308723
0.840235 0.000996 0.226468
0.834938 0.000996 0.153018
0.828366 0.000996 0.095254
0.824697 0.000996 0.059874
0.822713 0.000996 0.035777
0.821915 0.000996 0.020218
0.821594 0.000996 0.009995
0.821574 0.000996 0.004877
0.821841 0.000996 0.006545
0.822362 0.000996 0.012018
0.822865 0.000996 0.016044
0.823539 0.000996 0.021413
0.824857 0.000996 0.032186
0.826533 0.000996 0.043223
0.828930 0.000996 0.056225
0.832781 0.000996 0.075103
0.001324 0.001221 0.001193
0.001324 0.001221 0.001193
0.001324 0.001221 0.001193
0.001324 0.001221 0.001193
0.001324 0.001221 0.001193
0.001324 0.001221 0.001193
0.001324 0.001221 0.001193
0.001324 0.001221 0.001193
0.001324 0.001221 0.001193
0.001324 0.001221 0.001193
0.001324 0.001221 0.001193
0.001324 0.001221 0.001193
0.001324 0.001221 0.001193
0.001324 0.001221 0.001193
0.001324 0.001221 0.001193
0.001324 0.001221 0.001193
0.001324 0.001221 0.001193
0.001324 0.001221 0.001193
0.001324 0.001221 0.001193
0.001324 0.001221 0.001193
0.001324 0.001221 0.001193
0.001324 0.001221 0.001193
0.001324 0.001221 0.001193
0.001324 0.001221 0.001193
0.001324 0.001221 0.001193
0.001324 0.001221 0.001193
0.001324 0.001221 0.001193
0.001401 0.001592 0.001296
0.039717 0.234881 0.006051
0.104506 0.467035 0.000996
0.111330 0.487896 0.000996
0.250032 0.023188 0.000996
0.596282 0.064772 0.000996
0.524812 0.000996 0.400516
0.533168 0.000996 0.553941
0.565098 0.000996 0.589562
0.608714 0.000996 0.600063
0.652959 0.000996 0.594204
0.690261 0.000996 0.585114
0.721815 0.000996 0.583483
0.750507 0.000996 0.569091
0.776855 0.000996 0.548166
0.794396 0.000996 0.537997
0.808557 0.001049 0.519544
0.821030 0.001044 0.480789
0.830520 0.000996 0.431732
0.836144 0.000996 0.386223
0.839974 0.000996 0.323498
0.839916 0.000996 0.247336
0.835637 0.000996 0.170878
0.828968 0.000996 0.105871
0.824841 0.000996 0.066065
0.822239 0.000996 0.037213
0.821291 0.000996 0.019259
0.821050 0.000996 0.006480
0.819070 0.012632 0.000996
0.818361 0.016047 0.000996
0.819884 0.011121 0.000996
0.822041 0.000996 0.006134
0.822560 0.000996 0.011357
0.823258 0.000996 0.017587
0.824551 0.000996 0.028468
0.826255 0.000996 0.039882
0.828686 0.000996 0.052884
0.832572 0.000996 0.072083
0.001324 0.001221 0.001193
0.001324 0.001221 0.001193
0.001324 0.001221 0.001193
0.001324 0.001221 0.001193
0.001324 0.001221 0.001193
0.001324 0.001221 0.001193
0.001324 0.001221 0.001193
0.001324 0.001221 0.001193
0.001324 0.001221 0.001193
0.001324 0.001221 0.001193
0.001324 0.001221 0.001193
0.001324 0.001221 0.001193
0.001324 0.001221 0.001193
0.001324 0.001221 0.001193
0.001324 0.001221 0.001193
0.001324 0.001221 0.001193
0.001324 0.001221 0.001193
0.001324 0.001221 0.001193
0.001324 0.001221 0.001193
0.001324 0.001221 0.001193
0.001324 0.001221 0.001193
0.001324 0.001221 0.001193
0.001324 0.001221 0.001193
0.001324 0.001221 0.001193
0.001324 0.001221 0.001193
0.001324 0.001221 0.001193
0.001324 0.001221 0.001193
0.011060 0.045680 0.006208
0.062195 0.333939 0.000996
0.115791 0.501628 0.000996
0.053044 0.209118 0.013823
0.433132 0.039305 0.000996
0.548864 0.000996 0.110855
0.512753 0.000996 0.469327
0.533412 0.000996 0.568832
0.571222 0.000996 0.591339
0.619290 0.000996 0.592064
0.660545 0.000996 0.585933
0.696561 0.000996 0.577256
0.727908 0.000996 0.570709
0.756389 0.000996 0.550128
0.781086 0.000996 0.534019
0.797872 0.000996 0.523781
0.811703 0.001049 0.496343
0.824405 0.000996 0.445493
0.832217 0.000996 0.398687
0.837079 0.000996 0.347580
0.839270 0.000996 0.275231
0.836939 0.000996 0.200504
0.830581 0.000996 0.127527
0.825607 0.000996 0.078402
0.822492 0.000996 0.045287
0.820945 0.000996 0.022622
0.820542 0.000996 0.007205
0.817604 0.016641 0.000996
0.815723 0.024120 0.000996
0.815736 0.024809 0.000996
0.817668 0.019105 0.000996
0.821125 0.006744 0.000996
0.822343 0.000996 0.007399
0.823062 0.000996 0.014645
0.824339 0.000996 0.025706
0.826062 0.000996 0.037403
0.828522 0.000996 0.050422
0.832444 0.000996 0.069835
0.001324 0.001221 0.001193
0.001324 0.001221 0.001193
0.001324 0.001221 0.001193
0.001324 0.001221 0.001193
0.001324 0.001221 0.001193
0.001324 0.001221 0.001193
0.001324 0.001221 0.001193
0.001324 0.001221 0.001193
0.001324 0.001221 0.001193
0.001324 0.001221 0.001193
0.001324 0.001221 0.001193
0.001324 0.001221 0.001193
0.001324 0.001221 0.001193
0.001324 0.001221 0.001193
0.001324 0.001221 0.001193
0.001324 0.001221 0.001193
0.001324 0.001221 0.001193
0.001324 0.001221 0.001193
0.001324 0.001221 0.001193
0.001324 0.001221 0.001193
0.001324 0.001221 0.001193
0.001324 0.001221 0.001193
0.001324 0.001221 0.001193
0.001324 0.001221 0.001193
0.001324 0.001221 0.001193
0.001324 0.001221 0.001193
0.001324 0.001221 0.001193
0.025200 0.137542 0.009821
0.081611 0.396885 0.000996
0.121645 0.519584 0.000996
0.145172 0.053410 0.000996
0.563904 0.059412 0.000996
0.514487 0.000996 0.305957
0.508709 0.000996 0.505960
0.538149 0.000996 0.572723
0.579005 0.000996 0.589072
0.626676 0.000996 0.586079
0.667259 0.000996 0.577092
0.702252 0.000996 0.570054
0.732904 0.000996 0.557785
0.761711 0.000996 0.535193
0.784511 0.000996 0.522829
0.800788 0.000996 0.506944
0.814842 0.000996 0.469119
0.826889 0.000996 0.411000
0.833301 0.000996 0.370365
0.837248 0.000996 0.308497
0.837467 0.000996 0.231424
0.833188 0.000996 0.161262
0.826620 0.000996 0.096153
0.823271 0.000996 0.058416
0.821080 0.000996 0.030876
0.820189 0.000996 0.011655
0.817334 0.015712 0.000996
0.814274 0.027575 0.000996
0.813276 0.031767 0.000996
0.813737 0.031054 0.000996
0.815933 0.024797 0.000996
0.819514 0.013371 0.000996
0.822168 0.000996 0.002898
0.822910 0.000996 0.012152
0.824175 0.000996 0.023427
0.825914 0.000996 0.035362
0.828405 0.000996 0.048422
0.832346 0.000996 0.067989
0.001324 0.001221 0.001193
0.001324 0.001221 0.001193
0.001324 0.001221 0.001193
0.001324 0.001221 0.001193
0.001324 0.001221 0.001193
0.001324 0.001221 0.001193
0.001324 0.001221 0.001193
0.001324 0.001221 0.001193
0.001324 0.001221 0.001193
0.001324 0.001221 0.001193
0.001324 0.001221 0.001193
0.001324 0.001221 0.001193
0.001324 0.001221 0.001193
0.001324 0.001221 0.001193
0.001324 0.001221 0.001193
0.001324 0.001221 0.001193
0.001324 0.001221 0.001193
0.001324 0.001221 0.001193
0.001324 0.001221 0.001193
0.001324 0.001221 0.001193
0.001324 0.001221 0.001193
0.001324 0.001221 0.001193
0.001324 0.001221 0.001193
0.001324 0.001221 0.001193
0.001324 0.001221 0.001193
0.001324 0.001221 0.001193
0.001585 0.002198 0.001416
0.037038 0.215227 0.007987
0.096953 0.443886 0.000996
0.079958 0.392330 0.000996
0.264530 0.020147 0.000996
0.551482 0.032654 0.000996
0.492570 0.000996 0.393303
0.504413 0.000996 0.535205
0.542585 0.000996 0.575261
0.588121 0.000996 0.583003
0.632860 0.000996 0.580155
0.673211 0.000996 0.569488
0.707986 0.000996 0.562098
0.737392 0.000996 0.543129
0.766455 0.000996 0.521341
0.787545 0.000996 0.510812
0.803662 0.000996 0.486331
0.817853 0.000996 0.435789
0.828518 0.000996 0.383262
0.833963 0.000996 0.341114
0.836661 0.000996 0.269934
0.835015 0.000996 0.196267
0.829205 0.000996 0.127383
0.824241 0.000996 0.075495
0.821522 0.000996 0.042187
0.820141 0.000996 0.019337
0.818576 0.008669 0.000996
0.813754 0.027556 0.000996
0.811770 0.035233 0.000996
0.811423 0.037345 0.000996
0.812196 0.035722 0.000996
0.814486 0.029344 0.000996
0.818145 0.018231 0.000996
0.821058 0.008201 0.000996
0.822786 0.000996 0.009907
0.824060 0.000996 0.021682
0.825795 0.000996 0.033601
0.828312 0.000996 0.046697
0.832262 0.000996 0.066353
0.001324 0.001221 0.001193
0.001324 0.001221 0.001193
0.001324 0.001221 0.001193
0.001324 0.001221 0.001193
0.001324 0.001221 0.001193
0.001324 0.001221 0.001193
0.001324 0.001221 0.001193
0.001324 0.001221 0.001193
0.001324 0.001221 0.001193
0.001324 0.001221 0.001193
0.001324 0.001221 0.001193
0.001324 0.001221 0.001193
0.001324 0.001221 0.001193
0.001324 0.001221 0.001193
0.001324 0.001221 0.001193
0.001324 0.001221 0.001193
0.001324 0.001221 0.001193
0.001324 0.001221 0.001193
0.001324 0.001221 0.001193
0.001324 0.001221 0.001193
0.001324 0.001221 0.001193
0.001324 0.001221 0.001193
0.001324 0.001221 0.001193
0.001324 0.001221 0.001193
0.001324 0.001221 0.001193
0.001324 0.001221 0.001193
0.008532 0.031775 0.005140
0.050175 0.288857 0.000996
0.106358 0.472713 0.000996
0.044253 0.171950 0.014055
0.408071 0.035957 0.000996
0.517701 0.000996 0.096341
0.482485 0.000996 0.447187
0.506778 0.000996 0.547935
0.547370 0.000996 0.576142
0.596223 0.000996 0.576000
0.639202 0.000996 0.572940
0.678491 0.000996 0.563525
0.713408 0.000996 0.553332
0.741842 0.000996 0.528361
0.770683 0.000996 0.508025
0.790294 0.000996 0.495776
0.806501 0.000996 0.463569
0.820403 0.000996 0.401893
0.829576 0.000996 0.358809
0.834154 0.000996 0.309616
0.835267 0.000996 0.232956
0.831990 0.000996 0.164069
0.825839 0.000996 0.100278
0.822273 0.000996 0.057945
0.820331 0.000996 0.029542
0.819492 0.000996 0.009043
0.814575 0.023084 0.000996
0.811004 0.035970 0.000996
0.809789 0.041099 0.000996
0.809891 0.041861 0.000996
0.810888 0.039608 0.000996
0.813273 0.033059 0.000996
0.816935 0.022272 0.000996
0.819934 0.012751 0.000996
0.822681 0.000996 0.007778
0.823961 0.000996 0.020084
0.825694 0.000996 0.032028
0.828229 0.000996 0.045172
0.832184 0.000996 0.064811
0.001324 0.001221 0.001193
0.001324 0.001221 0.001193
0.001324 0.001221 0.001193
0.001324 0.001221 0.001193
0.001324 0.001221 0.001193
0.001324 0.001221 0.001193
0.001324 0.001221 0.001193
0.001324 0.001221 0.001193
0.001324 0.001221 0.001193
0.001324 0.001221 0.001193
0.001324 0.001221 0.001193
0.001324 0.001221 0.001193
0.001324 0.001221 0.001193
0.001324 0.001221 0.001193
0.001324 0.001221 0.001193
0.001324 0.001221 0.001193
0.001324 0.001221 0.001193
0.001324 0.001221 0.001193
0.001324 0.001221 0.001193
0.001324 0.001221 0.001193
0.001324 0.001221 0.001193
0.001324 0.001221 0.001193
0.001324 0.001221 0.001193
0.001324 0.001221 0.001193
0.001324 0.001221 0.001193
0.001324 0.001221 0.001193
0.018166 0.091674 0.008554
0.065080 0.344029 0.000996
0.112289 0.490899 0.000996
0.103023 0.051063 0.000996
0.525003 0.052959 0.000996
0.490871 0.000996 0.248195
0.478725 0.000996 0.476830
0.511526 0.000996 0.553481
0.553727 0.000996 0.573736
0.602641 0.000996 0.570238
0.645288 0.000996 0.564221
0.683616 0.000996 0.557493
0.718180 0.000996 0.542567
0.746305 0.000996 0.514134
0.774411 0.000996 0.496777
0.792804 0.000996 0.478782
0.809480 0.000996 0.433557
0.822288 0.000996 0.373408
0.830288 0.000996 0.334603
0.833859 0.000996 0.277133
0.833353 0.000996 0.201511
0.828600 0.000996 0.134124
0.823552 0.000996 0.080347
0.820695 0.000996 0.042873
0.819476 0.000996 0.018752
0.817009 0.012734 0.000996
0.811341 0.033225 0.000996
0.808786 0.042525 0.000996
0.808144 0.045877 0.000996
0.808602 0.045610 0.000996
0.809750 0.042946 0.000996
0.812225 0.036214 0.000996
0.815832 0.025825 0.000996
0.818945 0.016357 0.000996
0.822591 0.000996 0.005636
0.823874 0.000996 0.018631
0.825605 0.000996 0.030603
0.828144 0.000996 0.043802
0.832118 0.000996 0.063418
0.001324 0.001221 0.001193
0.001324 0.001221 0.001193
0.001324 0.001221 0.001193
0.001324 0.001221 0.001193
0.001324 0.001221 0.001193
0.001324 0.001221 0.001193
0.001324 0.001221 0.001193
0.001324 0.001221 0.001193
0.001324 0.001221 0.001193
0.001324 0.001221 0.001193
0.001324 0.001221 0.001193
0.001324 0.001221 0.001193
0.001324 0.001221 0.001193
0.001324 0.001221 0.001193
0.001324 0.001221 0.001193
0.001324 0.001221 0.001193
0.001324 0.001221 0.001193
0.001324 0.001221 0.001193
0.001324 0.001221 0.001193
0.001324 0.001221 0.001193
0.001324 0.001221 0.001193
0.001324 0.001221 0.001193
0.001324 0.001221 0.001193
0.001324 0.001221 0.001193
0.001324 0.001221 0.001193
0.001352 0.001411 0.001272
0.028422 0.158098 0.009952
0.078082 0.386740 0.000996
0.085747 0.409509 0.000996
0.201635 0.015146 0.000996
0.535284 0.053966 0.000996
0.468937 0.000996 0.344975
0.473726 0.000996 0.501588
0.516009 0.000996 0.557570
0.561619 0.000996 0.567906
0.608359 0.000996 0.564348
0.651054 0.000996 0.555648
0.689058 0.000996 0.549760
0.722662 0.000996 0.528230
0.751032 0.000996 0.500801
0.777856 0.000996 0.485480
0.795391 0.000996 0.457947
0.812240 0.000996 0.401901
0.823722 0.000996 0.348692
0.830674 0.000996 0.309402
0.832950 0.000996 0.244152
0.831016 0.000996 0.173378
0.825527 0.000996 0.109075
0.821658 0.000996 0.063240
0.819562 0.000996 0.030668
0.818848 0.000996 0.008521
0.813081 0.026098 0.000996
0.808742 0.040997 0.000996
0.806929 0.047895 0.000996
0.806741 0.049894 0.000996
0.807479 0.048839 0.000996
0.808748 0.045854 0.000996
0.811282 0.039018 0.000996
0.814827 0.028978 0.000996
0.818059 0.019416 0.000996
0.822509 0.000996 0.003059
0.823798 0.000996 0.017285
0.825530 0.000996 0.029290
0.828071 0.000996 0.042549
0.832062 0.000996 0.062140
0.001324 0.001221 0.001193
0.001324 0.001221 0.001193
0.001324 0.001221 0.001193
0.001324 0.001221 0.001193
0.001324 0.001221 0.001193
0.001324 0.001221 0.001193
0.001324 0.001221 0.001193
0.001324 0.001221 0.001193
0.001324 0.001221 0.001193
0.001324 0.001221 0.001193
0.001324 0.001221 0.001193
0.001324 0.001221 0.001193
0.001324 0.001221 0.001193
0.001324 0.001221 0.001193
0.001324 0.001221 0.001193
0.001324 0.001221 0.001193
0.001324 0.001221 0.001193
0.001324 0.001221 0.001193
0.001324 0.001221 0.001193
0.001324 0.001221 0.001193
0.001324 0.001221 0.001193
0.001324 0.001221 0.001193
0.001324 0.001221 0.001193
0.001324 0.001221 0.001193
0.001324 0.001221 0.001193
0.003128 0.007300 0.002381
0.036734 0.213088 0.008145
0.090721 0.424794 0.000996
0.038868 0.214838 0.008643
0.317792 0.025239 0.000996
0.492417 0.000996 0.040864
0.457440 0.000996 0.404030
0.474090 0.000996 0.515224
0.520605 0.000996 0.560277
0.569740 0.000996 0.560833
0.614091 0.000996 0.557273
0.656348 0.000996 0.548717
0.694502 0.000996 0.540764
0.727062 0.000996 0.513697
0.755627 0.000996 0.488530
0.780642 0.000996 0.471947
0.798123 0.000996 0.433650
0.814515 0.000996 0.372710
0.824821 0.000996 0.325956
0.830640 0.000996 0.282029
0.831498 0.000996 0.213904
0.828117 0.000996 0.145164
0.823055 0.000996 0.088387
0.820021 0.000996 0.047790
0.818716 0.000996 0.019874
0.816131 0.013717 0.000996
0.809869 0.035986 0.000996
0.806568 0.047328 0.000996
0.805396 0.052267 0.000996
0.805585 0.053172 0.000996
0.806516 0.051585 0.000996
0.807858 0.048416 0.000996
0.810418 0.041562 0.000996
0.813927 0.031755 0.000996
0.817261 0.022079 0.000996
0.822029 0.005153 0.000996
0.823732 0.000996 0.016020
0.825464 0.000996 0.028073
0.828018 0.000996 0.041486
0.832013 0.000996 0.060959
0.001324 0.001221 0.001193
0.001324 0.001221 0.001193
0.001324 0.001221 0.001193
0.001324 0.001221 0.001193
0.001324 0.001221 0.001193
0.001324 0.001221 0.001193
0.001324 0.001221 0.001193
0.001324 0.001221 0.001193
0.001324 0.001221 0.001193
0.001324 0.001221 0.001193
0.001324 0.001221 0.001193
0.001324 0.001221 0.001193
0.001324 0.001221 0.001193
0.001324 0.001221 0.001193
0.001324 0.001221 0.001193
0.001324 0.001221 0.001193
0.001324 0.001221 0.001193
0.001324 0.001221 0.001193
0.001324 0.001221 0.001193
0.001324 0.001221 0.001193
0.001324 0.001221 0.001193
0.001324 0.001221 0.001193
0.001324 0.001221 0.001193
0.001324 0.001221 0.001193
0.001324 0.001221 0.001193
0.010257 0.041115 0.005882
0.046300 0.273088 0.000996
0.101127 0.456681 0.000996
0.052107 0.073008 0.022230
0.441640 0.040473 0.000996
0.471142 0.000996 0.141058
0.451136 0.000996 0.440092
0.478293 0.000996 0.521470
0.526240 0.000996 0.559819
0.576312 0.000996 0.555074
0.619858 0.000996 0.548776
0.661442 0.000996 0.542166
0.699621 0.000996 0.529993
0.731439 0.000996 0.500195
0.759873 0.000996 0.476429
0.783397 0.000996 0.454478
0.801173 0.000996 0.407112
0.816222 0.000996 0.345922
0.825586 0.000996 0.304119
0.830067 0.000996 0.253115
0.829641 0.000996 0.186910
0.825236 0.000996 0.120035
0.821180 0.000996 0.071200
0.818821 0.000996 0.035130
0.818096 0.000996 0.009813
0.812133 0.027150 0.000996
0.807196 0.043893 0.000996
0.804781 0.052445 0.000996
0.804088 0.055954 0.000996
0.804563 0.056049 0.000996
0.805670 0.053983 0.000996
0.807059 0.050706 0.000996
0.809620 0.043895 0.000996
0.813144 0.034137 0.000996
0.816529 0.024462 0.000996
0.821386 0.008324 0.000996
0.823671 0.000996 0.014823
0.825408 0.000996 0.026930
0.827971 0.000996 0.040507
0.831968 0.000996 0.059840
0.001324 0.001221 0.001193
0.001324 0.001221 0.001193
0.001324 0.001221 0.001193
0.001324 0.001221 0.001193
0.001324 0.001221 0.001193
0.001324 0.001221 0.001193
0.001324 0.001221 0.001193
0.001324 0.001221 0.001193
0.001324 0.001221 0.001193
0.001324 0.001221 0.001193
0.001324 0.001221 0.001193
0.001324 0.001221 0.001193
0.001324 0.001221 0.001193
0.001324 0.001221 0.001193
0.001324 0.001221 0.001193
0.001324 0.001221 0.001193
0.001324 0.001221 0.001193
0.001324 0.001221 0.001193
0.001324 0.001221 0.001193
0.001324 0.001221 0.001193
0.001324 0.001221 0.001193
0.001324 0.001221 0.001193
0.001324 0.001221 0.001193
0.001324 0.001221 0.001193
0.001324 0.001228 0.001193
0.017805 0.089237 0.008459
0.057206 0.315863 0.000996
0.094504 0.436378 0.000996
0.129923 0.014996 0.000996
0.537076 0.054917 0.000996
0.449866 0.000996 0.266777
0.446033 0.000996 0.465898
0.483201 0.000996 0.526276
0.533413 0.000996 0.555584
0.582114 0.000996 0.549445
0.625472 0.000996 0.540029
0.666773 0.000996 0.534452
0.704458 0.000996 0.516582
0.735823 0.000996 0.485754
0.763798 0.000996 0.464442
0.786067 0.000996 0.434763
0.804138 0.000996 0.380469
0.817536 0.000996 0.322100
0.826028 0.000996 0.281534
0.828950 0.000996 0.224559
0.827170 0.000996 0.159444
0.822481 0.000996 0.096999
0.819430 0.000996 0.055014
0.817890 0.000996 0.023736
0.815825 0.011832 0.000996
0.808868 0.037151 0.000996
0.804945 0.050409 0.000996
0.803284 0.056682 0.000996
0.802939 0.059165 0.000996
0.803649 0.058601 0.000996
0.804903 0.056149 0.000996
0.806350 0.052726 0.000996
0.808878 0.046050 0.000996
0.812426 0.036298 0.000996
0.815858 0.026607 0.000996
0.820791 0.010847 0.000996
0.823619 0.000996 0.013678
0.825358 0.000996 0.025854
0.827931 0.000996 0.039582
0.831928 0.000996 0.058786
0.001324 0.001221 0.001193
0.001324 0.001221 0.001193
0.001324 0.001221 0.001193
0.001324 0.001221 0.001193
0.001324 0.001221 0.001193
0.001324 0.001221 0.001193
0.001324 0.001221 0.001193
0.001324 0.001221 0.001193
0.001324 0.001221 0.001193
0.001324 0.001221 0.001193
0.001324 0.001221 0.001193
0.001324 0.001221 0.001193
0.001324 0.001221 0.001193
0.001324 0.001221 0.001193
0.001324 0.001221 0.001193
0.001324 0.001221 0.001193
0.001324 0.001221 0.001193
0.001324 0.001221 0.001193
0.001324 0.001221 0.001193
0.001324 0.001221 0.001193
0.001324 0.001221 0.001193
0.001324 0.001221 0.001193
0.001324 0.001221 0.001193
0.001324 0.001221 0.001193
0.001410 0.001626 0.001301
0.026122 0.143427 0.009892
0.068205 0.354690 0.000996
0.052448 0.297627 0.000996
0.216441 0.015640 0.000996
0.484157 0.027066 0.000996
0.434686 0.000996 0.336013
0.443015 0.000996 0.485323
0.487945 0.000996 0.530539
0.541609 0.000996 0.547970
0.587741 0.000996 0.542821
0.630814 0.000996 0.532426
0.672364 0.000996 0.525735
0.709206 0.000996 0.500907
0.740099 0.000996 0.470894
0.767486 0.000996 0.451168
0.788820 0.000996 0.413515
0.806809 0.000996 0.353342
0.818561 0.000996 0.300616
0.826015 0.000996 0.257118
0.827385 0.000996 0.198284
0.824429 0.000996 0.133546
0.820552 0.000996 0.079336
0.818034 0.000996 0.040990
0.817248 0.000996 0.013952
0.811715 0.025966 0.000996
0.806108 0.045288 0.000996
0.803130 0.055586 0.000996
0.801988 0.060316 0.000996
0.801925 0.061979 0.000996
0.802827 0.060888 0.000996
0.804198 0.058127 0.000996
0.805692 0.054595 0.000996
0.808192 0.048029 0.000996
0.811767 0.038267 0.000996
0.815238 0.028562 0.000996
0.820239 0.013015 0.000996
0.823571 0.000996 0.012578
0.825314 0.000996 0.024832
0.827894 0.000996 0.038712
0.831893 0.000996 0.057792
0.001324 0.001221 0.001193
0.001324 0.001221 0.001193
0.001324 0.001221 0.001193
0.001324 0.001221 0.001193
0.001324 0.001221 0.001193
0.001324 0.001221 0.001193
0.001324 0.001221 0.001193
0.001324 0.001221 0.001193
0.001324 0.001221 0.001193
0.001324 0.001221 0.001193
0.001324 0.001221 0.001193
0.001324 0.001221 0.001193
0.001324 0.001221 0.001193
0.001324 0.001221 0.001193
0.001324 0.001221 0.001193
0.001324 0.001221 0.001193
0.001324 0.001221 0.001193
0.001324 0.001221 0.001193
0.001324 0.001221 0.001193
0.001324 0.001221 0.001193
0.001324 0.001221 0.001193
0.001324 0.001221 0.001193
0.001324 0.001221 0.001193
0.001324 0.001221 0.001193
0.003388 0.008269 0.002534
0.033502 0.191065 0.009332
