luts/film/rz67_portra400.cube
TITLE "spektrafilm negative scan kodak_portra_400 {"black": 0.03, "blue_rot": -12, "contrast": 2.0, "crossover": 1, "density": 0.5, "dir": 1.3, "ev": 1.5, "flare": 0.008, "green": 0.5, "green_dark": 0.22, "green_hue": 120, "green_rot": -4, "green_width": 55, "grey": 0.45, "peak": 16.0, "red_hue": 0, "red_rot": 16, "red_width": 40, "sat": 1.15} display=apple"
# film: spektrafilm by Andrea Volpato / https://github.com/andreavolpato/spektrafilm / CC BY-SA 4.0
LUT_3D_SIZE 9
0.001324 0.001221 0.001193
0.001324 0.001221 0.001193
0.001324 0.001221 0.001193
0.001324 0.001221 0.001193
0.072226 0.293941 0.005120
0.727855 0.000996 0.622910
0.840292 0.000996 0.432662
0.823075 0.000996 0.027046
0.833386 0.000996 0.083231
0.001324 0.001221 0.001193
0.001324 0.001221 0.001193
0.001324 0.001221 0.001193
0.001324 0.001221 0.001193
0.473726 0.000996 0.501588
0.777856 0.000996 0.485480
0.821658 0.000996 0.063240
0.808748 0.045854 0.000996
0.832062 0.000996 0.062140
0.001324 0.001221 0.001193
0.001324 0.001221 0.001193
0.001324 0.001221 0.001193
0.027405 0.151605 0.009947
0.522854 0.000996 0.512794
0.800918 0.000996 0.295412
0.803443 0.047961 0.000996
0.803121 0.061829 0.000996
0.831779 0.000996 0.053715
0.001324 0.001221 0.001193
0.001324 0.001221 0.001193
0.013122 0.002333 0.000996
0.356847 0.000996 0.130176
0.693624 0.038873 0.000996
0.768326 0.098964 0.000996
0.783427 0.100659 0.000996
0.796568 0.079925 0.000996
0.831789 0.000996 0.038151
0.143728 0.587321 0.000996
0.166017 0.655581 0.000996
0.155766 0.619896 0.000996
0.172013 0.493891 0.000996
0.577954 0.304307 0.000996
0.737923 0.112598 0.000996
0.780524 0.104269 0.000996
0.790259 0.100081 0.000996
0.834730 0.003251 0.000996
0.184450 0.689319 0.000996
0.187134 0.688938 0.000996
0.190064 0.688148 0.000996
0.203391 0.684860 0.000996
0.313049 0.660055 0.023414
0.600446 0.588481 0.225098
0.837134 0.409067 0.000996
0.805759 0.169870 0.000996
0.831401 0.113539 0.000996
0.242093 0.691713 0.000996
0.248461 0.691271 0.000996
0.252320 0.690986 0.000996
0.262394 0.690205 0.000996
0.309805 0.685001 0.018450
0.494179 0.647827 0.188968
0.702433 0.690207 0.274274
0.799986 0.613224 0.001036
0.865186 0.482103 0.000996
0.418338 0.668253 0.119932
0.423245 0.667070 0.124403
0.425439 0.666530 0.126394
0.430378 0.665296 0.130856
0.445521 0.661369 0.144395
0.497861 0.652288 0.190881
0.648823 0.691118 0.295435
0.737694 0.711525 0.272574
0.753259 0.696196 0.234089
0.600725 0.678555 0.274100
0.602196 0.678975 0.275016
0.602858 0.679165 0.275425
0.604242 0.679561 0.276271
0.608182 0.680698 0.278617
0.620255 0.684210 0.285181
0.656056 0.694767 0.297666
0.722957 0.713666 0.288786
0.750395 0.721253 0.279896
0.001324 0.001221 0.001193
0.001324 0.001221 0.001193
0.001324 0.001221 0.001193
0.000996 0.002073 0.003330
0.506444 0.000996 0.513403
0.799095 0.000996 0.305928
0.804097 0.045943 0.000996
0.803180 0.061655 0.000996
0.831760 0.000996 0.053760
0.001324 0.001221 0.001193
0.001324 0.001221 0.001193
0.001466 0.001537 0.001333
0.347934 0.000996 0.065209
0.690156 0.070967 0.000996
0.767305 0.098930 0.000996
0.783174 0.100985 0.000996
0.796294 0.080667 0.000996
0.831796 0.000996 0.037288
0.001324 0.001221 0.001193
0.003554 0.008896 0.002629
0.040371 0.004827 0.000996
0.407607 0.035901 0.000996
0.665240 0.078147 0.000996
0.760591 0.097695 0.000996
0.782199 0.101793 0.000996
0.794272 0.086406 0.000996
0.832111 0.000996 0.030971
0.001324 0.001221 0.001193
0.134304 0.558415 0.000996
0.109587 0.481030 0.000996
0.203150 0.234439 0.089253
0.589877 0.080603 0.000996
0.746618 0.095202 0.000996
0.780927 0.101850 0.000996
0.791426 0.094274 0.000996
0.832989 0.000996 0.017992
0.168823 0.663946 0.000996
0.173276 0.676950 0.000996
0.172462 0.670989 0.000996
0.181779 0.631325 0.000996
0.422607 0.483498 0.189871
0.749682 0.214769 0.000996
0.783440 0.119043 0.000996
0.790891 0.107729 0.000996
0.831694 0.030306 0.000996
0.187032 0.689603 0.000996
0.189721 0.689332 0.000996
0.192506 0.688773 0.000996
0.204289 0.686256 0.000996
0.295536 0.668850 0.004663
0.589701 0.612267 0.255814
0.831752 0.483766 0.000996
0.811838 0.199139 0.000996
0.833154 0.134201 0.000996
0.243867 0.691468 0.000996
0.250290 0.691013 0.000996
0.254103 0.690728 0.000996
0.264063 0.689900 0.000996
0.311407 0.684502 0.019951
0.490907 0.647051 0.185945
0.700828 0.690097 0.275431
0.794956 0.617210 0.000996
0.861202 0.501923 0.000996
0.418788 0.668045 0.120358
0.423783 0.666840 0.124906
0.426007 0.666294 0.126922
0.430982 0.665049 0.131414
0.446270 0.661040 0.145079
0.498186 0.652254 0.191228
0.648630 0.690984 0.295363
0.737603 0.711241 0.272266
0.753821 0.695970 0.234369
0.600488 0.678488 0.273971
0.601937 0.678903 0.274877
0.602600 0.679093 0.275286
0.603998 0.679494 0.276144
0.607994 0.680644 0.278532
0.620176 0.684189 0.285177
0.656245 0.694833 0.297775
0.723006 0.713745 0.289151
0.750807 0.721680 0.281299
0.001324 0.001221 0.001193
0.001324 0.001221 0.001193
0.001324 0.001221 0.001193
0.147959 0.000996 0.218098
0.534419 0.000996 0.571460
0.803695 0.000996 0.375697
0.807918 0.033302 0.000996
0.801891 0.065147 0.000996
0.831667 0.000996 0.042764
0.001324 0.001221 0.001193
0.000996 0.010648 0.026096
0.055145 0.000996 0.218785
0.413709 0.000996 0.169494
0.674147 0.000996 0.039358
0.766722 0.082280 0.000996
0.784095 0.097168 0.000996
0.796264 0.080684 0.000996
0.832289 0.000996 0.028201
0.001324 0.001221 0.001193
0.014948 0.131242 0.026137
0.013355 0.014408 0.013289
0.274412 0.019503 0.000996
0.616481 0.068402 0.000996
0.755695 0.096483 0.000996
0.782190 0.100571 0.000996
0.794483 0.085842 0.000996
0.832661 0.000996 0.022050
0.052709 0.298832 0.000996
0.115879 0.502029 0.000996
0.073440 0.369795 0.000996
0.166251 0.171545 0.063139
0.560390 0.070581 0.000996
0.741872 0.094180 0.000996
0.780664 0.101641 0.000996
0.791906 0.093319 0.000996
0.833906 0.000996 0.009771
0.167383 0.659249 0.000996
0.167956 0.660505 0.000996
0.163718 0.643586 0.000996
0.164276 0.576466 0.000996
0.412228 0.446775 0.188094
0.740161 0.195982 0.000996
0.782785 0.118020 0.000996
0.791524 0.107586 0.000996
0.830663 0.039948 0.000996
0.186148 0.688091 0.000996
0.188750 0.687211 0.000996
0.191505 0.686315 0.000996
0.203179 0.683159 0.000996
0.292872 0.663470 0.000996
0.587654 0.602239 0.248645
0.833549 0.470348 0.000996
0.811393 0.195930 0.000996
0.834154 0.141863 0.000996
0.243605 0.691336 0.000996
0.250487 0.690818 0.000996
0.254515 0.690509 0.000996
0.264885 0.689644 0.000996
0.312919 0.683914 0.021362
0.490689 0.646676 0.185878
0.700317 0.688949 0.274350
0.797024 0.615395 0.000996
0.863176 0.498384 0.000996
0.418942 0.667966 0.120505
0.423960 0.666752 0.125073
0.426183 0.666204 0.127089
0.431065 0.664971 0.131497
0.446207 0.660990 0.145035
0.498143 0.652201 0.191209
0.648334 0.690857 0.295283
0.737581 0.711132 0.272149
0.754092 0.695950 0.234690
0.600385 0.678461 0.273918
0.601840 0.678877 0.274829
0.602501 0.679066 0.275238
0.603904 0.679468 0.276100
0.607910 0.680621 0.278499
0.620141 0.684182 0.285180
0.656349 0.694876 0.297857
0.723050 0.713798 0.289359
0.751010 0.721892 0.281994
0.001324 0.001221 0.001193
0.000996 0.035677 0.102150
0.000996 0.090500 0.241114
0.232001 0.000996 0.573840
0.541711 0.000996 0.663077
0.783505 0.000996 0.585566
0.840478 0.000996 0.268642
0.822456 0.000996 0.022335
0.834438 0.000996 0.069002
0.000996 0.027266 0.076692
0.000996 0.182340 0.382042
0.000996 0.158114 0.344504
0.261852 0.000996 0.461292
0.621688 0.000996 0.354007
0.796420 0.000996 0.223997
0.817337 0.000996 0.042148
0.812623 0.033680 0.000996
0.834222 0.000996 0.051507
0.000996 0.093381 0.223123
0.000996 0.189278 0.388979
0.000996 0.113109 0.259891
0.191287 0.000996 0.274624
0.590821 0.000996 0.118313
0.778194 0.000996 0.078725
0.809477 0.020704 0.000996
0.807397 0.049037 0.000996
0.834339 0.000996 0.044692
0.008031 0.419456 0.072740
0.000996 0.494693 0.299349
0.000996 0.345594 0.229570
0.151725 0.150868 0.153544
0.535888 0.000996 0.007096
0.743218 0.058323 0.000996
0.788273 0.079683 0.000996
0.800591 0.068495 0.000996
0.834986 0.000996 0.032226
0.157699 0.632660 0.000996
0.132353 0.611972 0.000996
0.123872 0.583070 0.000996
0.133165 0.515813 0.000996
0.390659 0.385457 0.155364
0.719925 0.159562 0.000996
0.780807 0.110923 0.000996
0.794721 0.095330 0.000996
0.838546 0.009696 0.000996
0.183846 0.684116 0.000996
0.187092 0.682663 0.000996
0.189933 0.681336 0.000996
0.202540 0.677037 0.000996
0.287556 0.651962 0.000996
0.581006 0.581275 0.231264
0.834769 0.437451 0.000996
0.810158 0.183317 0.000996
0.838944 0.121829 0.000996
0.243755 0.690965 0.000996
0.250995 0.690334 0.000996
0.255131 0.689958 0.000996
0.265452 0.688974 0.000996
0.314338 0.682817 0.022725
0.489962 0.645684 0.185558
0.699397 0.686197 0.271492
0.801472 0.611255 0.000996
0.867535 0.490533 0.000996
0.418328 0.667987 0.119964
0.423301 0.666774 0.124497
0.425503 0.666229 0.126496
0.430379 0.665000 0.130904
0.445658 0.660985 0.144573
0.498648 0.652218 0.191723
0.647606 0.690517 0.295078
0.737573 0.710943 0.271951
0.754738 0.696024 0.235714
0.600104 0.678386 0.273780
0.601592 0.678811 0.274714
0.602263 0.679004 0.275132
0.603691 0.679412 0.276011
0.607759 0.680584 0.278454
0.620193 0.684212 0.285276
0.656585 0.694992 0.298102
0.723158 0.713931 0.289871
0.751442 0.722341 0.283471
0.000996 0.235329 0.477689
0.000996 0.236048 0.479132
0.000996 0.231285 0.469635
0.098481 0.000996 0.804203
0.557560 0.000996 0.733355
0.764258 0.000996 0.682493
0.828240 0.000996 0.617051
0.848578 0.000996 0.421007
0.849940 0.000996 0.216109
0.000996 0.273243 0.540287
0.000996 0.248609 0.502233
0.000996 0.230053 0.467832
0.000996 0.176058 0.560692
0.508996 0.000996 0.624102
0.761923 0.000996 0.560778
0.833605 0.000996 0.512504
0.848086 0.000996 0.291101
0.848231 0.000996 0.181684
0.000996 0.334912 0.613918
0.000996 0.289964 0.565534
0.000996 0.240803 0.488239
0.000996 0.186183 0.482608
0.476833 0.000996 0.590771
0.757618 0.000996 0.512499
0.835261 0.000996 0.463230
0.845464 0.000996 0.234879
0.847355 0.000996 0.167226
0.000996 0.587023 0.737210
0.000996 0.457758 0.720575
0.000996 0.337332 0.599300
0.000996 0.209190 0.471805
0.432445 0.000996 0.516382
0.747347 0.000996 0.368958
0.836190 0.000996 0.320261
0.836550 0.000996 0.144356
0.845600 0.000996 0.138831
0.000996 0.731814 0.546614
0.000996 0.713419 0.596649
0.000996 0.680695 0.569393
0.000996 0.605971 0.511821
0.409980 0.406528 0.418397
0.743690 0.000996 0.073363
0.812621 0.000996 0.047323
0.823924 0.000996 0.027823
0.843896 0.000996 0.082204
0.078960 0.704990 0.068161
0.078029 0.704604 0.092717
0.085598 0.702509 0.096115
0.118142 0.693499 0.094925
0.252223 0.637950 0.089834
0.569652 0.542167 0.215184
0.838618 0.342571 0.000996
0.817080 0.139388 0.000996
0.859269 0.040871 0.000996
0.237602 0.690780 0.000996
0.244807 0.690337 0.000996
0.248981 0.690020 0.000996
0.259606 0.689119 0.000996
0.312796 0.682450 0.033532
0.482806 0.643328 0.183835
0.696588 0.678224 0.265124
0.813335 0.600847 0.000996
0.882181 0.469211 0.000996
0.416055 0.668177 0.118056
0.421190 0.666924 0.122768
0.423600 0.666327 0.124969
0.428701 0.665040 0.129602
0.444370 0.660932 0.143673
0.497624 0.651885 0.191148
0.646139 0.689883 0.295165
0.737739 0.710701 0.272531
0.756750 0.696692 0.239770
0.599919 0.678425 0.274006
0.601490 0.678881 0.275017
0.602199 0.679088 0.275471
0.603709 0.679528 0.276424
0.607955 0.680769 0.279031
0.620762 0.684571 0.286264
0.657171 0.695482 0.299512
0.723682 0.714586 0.292244
0.752594 0.723541 0.287412
0.000996 0.365956 0.661214
0.000996 0.290282 0.570173
0.000996 0.252391 0.509053
0.000996 0.237165 0.490077
0.423614 0.000996 0.820086
0.713677 0.000996 0.766951
0.812546 0.000996 0.742288
0.830413 0.000996 0.728117
0.841379 0.000996 0.653341
0.000996 0.423813 0.719403
0.000996 0.351756 0.646142
0.000996 0.302877 0.587347
0.000996 0.252123 0.519088
0.341928 0.000996 0.834166
0.698311 0.000996 0.750933
0.812864 0.000996 0.719824
0.832078 0.001009 0.704619
0.843649 0.000996 0.627742
0.000996 0.476927 0.768754
0.000996 0.387550 0.682130
0.000996 0.340071 0.632760
0.000996 0.268331 0.545649
0.304910 0.000996 0.848503
0.691372 0.000996 0.741182
0.813262 0.000996 0.705719
0.832884 0.000996 0.693504
0.844797 0.000996 0.615264
0.000996 0.567646 0.833204
0.000996 0.491056 0.779623
0.000996 0.430608 0.724647
0.000996 0.327235 0.623403
0.247734 0.000996 0.896516
0.678968 0.000996 0.725648
0.813783 0.000996 0.678851
0.834630 0.001117 0.669688
0.847489 0.000996 0.586280
0.000996 0.706006 0.853748
0.001161 0.666943 0.849308
0.000996 0.638671 0.844950
0.000996 0.574771 0.829023
0.000996 0.368529 0.863868
0.674815 0.000996 0.713291
0.819380 0.000996 0.596162
0.841317 0.000996 0.582414
0.855090 0.000996 0.508344
0.001077 0.877491 0.815425
0.000996 0.870639 0.809273
0.000996 0.866628 0.804391
0.001245 0.854189 0.789418
0.000996 0.805571 0.744512
0.701668 0.673590 0.691974
0.915142 0.193201 0.331694
0.870466 0.000996 0.265410
0.878236 0.000996 0.288347
0.000996 0.818336 0.419852
0.006239 0.820424 0.420503
0.034079 0.819907 0.421397
0.092568 0.817530 0.420934
0.234292 0.798944 0.400513
0.509248 0.725239 0.380317
0.722259 0.695893 0.357924
0.877841 0.581138 0.000996
0.943596 0.385518 0.116401
0.408577 0.676953 0.148541
0.414910 0.675698 0.154400
0.417879 0.675089 0.157127
0.424451 0.673667 0.162999
0.442655 0.669229 0.178403
0.504499 0.665063 0.229164
0.652276 0.698994 0.325979
0.743265 0.715496 0.292253
0.766856 0.702051 0.263227
0.601568 0.681205 0.282298
0.603278 0.681751 0.283571
0.604048 0.681995 0.284133
0.605691 0.682517 0.285317
0.610316 0.683987 0.288571
0.623687 0.688180 0.296969
0.661169 0.699875 0.312626
0.727686 0.719170 0.307216
0.757621 0.728846 0.304487
0.000996 0.563215 0.835288
0.000996 0.518012 0.804675
0.000996 0.488857 0.781082
0.000996 0.412537 0.710864
0.000996 0.280630 0.674001
0.627000 0.000996 0.831728
0.795268 0.000996 0.785660
0.826284 0.000996 0.777500
0.836303 0.000996 0.785987
0.001135 0.600625 0.853038
0.000996 0.566843 0.837270
0.000996 0.546531 0.825035
0.000996 0.476889 0.772048
0.000996 0.318818 0.699528
0.614433 0.000996 0.844905
0.794230 0.000996 0.785676
0.826672 0.001136 0.776202
0.836814 0.000996 0.785300
0.000996 0.616932 0.858575
0.000996 0.585264 0.846604
0.000996 0.566973 0.837467
0.000996 0.504189 0.795220
0.000996 0.341761 0.712955
0.609665 0.000996 0.852853
0.793964 0.000996 0.785889
0.826866 0.000996 0.775514
0.837061 0.000996 0.784984
0.000996 0.651717 0.866563
0.001150 0.620791 0.859742
0.000996 0.604670 0.854767
0.000996 0.558466 0.834350
0.000996 0.391164 0.744717
0.603471 0.000996 0.877283
0.793971 0.000996 0.787019
0.827404 0.000996 0.774107
0.837666 0.000996 0.784249
0.001208 0.732760 0.877444
0.001169 0.702220 0.871407
0.000996 0.687912 0.871219
0.000996 0.656580 0.871110
0.000996 0.554081 0.863074
0.579563 0.151332 0.937692
0.798302 0.000996 0.794920
0.830084 0.000996 0.770106
0.839767 0.000996 0.782158
0.001246 0.864279 0.913105
0.001266 0.854912 0.911280
0.000996 0.849742 0.910389
0.000996 0.838133 0.909308
0.001111 0.784235 0.914607
0.479159 0.655795 0.947263
0.833985 0.209374 0.844167
0.851205 0.000996 0.762219
0.849796 0.000996 0.772256
0.000996 0.926657 0.920725
0.001303 0.927909 0.921674
0.001084 0.928609 0.922161
0.000996 0.930314 0.923334
0.001284 0.936771 0.928814
0.464089 0.940473 0.926168
0.891385 0.864174 0.869148
0.980579 0.566230 0.680548
0.939298 0.204084 0.642953
0.355538 0.933235 0.731832
0.373564 0.933253 0.732590
0.381761 0.933171 0.732726
0.398878 0.932861 0.732729
0.444445 0.930626 0.730051
0.566611 0.915728 0.712570
0.775316 0.858597 0.698625
0.844687 0.822843 0.594062
0.869254 0.790363 0.512214
0.652799 0.747427 0.448544
0.655376 0.748577 0.451470
0.656540 0.749095 0.452783
0.659041 0.750189 0.455557
0.665981 0.753124 0.462976
0.684487 0.760226 0.480589
0.727810 0.773958 0.508676
0.782903 0.780608 0.481449
0.800910 0.775631 0.439416
0.001185 0.769660 0.892606
0.001142 0.756919 0.890102
0.000996 0.749948 0.888773
0.001194 0.732727 0.885710
0.000996 0.675231 0.890744
0.240459 0.503441 0.956449
0.802934 0.000996 0.877086
0.835193 0.000996 0.806931
0.852164 0.000996 0.815622
0.001052 0.784946 0.897018
0.000996 0.770429 0.894023
0.001192 0.763990 0.892859
0.000996 0.748942 0.890463
0.000996 0.694340 0.892196
0.240746 0.542945 0.952198
0.808331 0.000996 0.891471
0.837352 0.000996 0.809443
0.853534 0.000996 0.817000
0.001124 0.791380 0.898890
0.001065 0.776973 0.895908
0.000996 0.769966 0.894586
0.000996 0.755531 0.892375
0.000996 0.702096 0.892499
0.243570 0.559532 0.950661
0.812222 0.000996 0.900341
0.838478 0.000996 0.810750
0.854155 0.000996 0.817623
0.001145 0.803918 0.902589
0.001254 0.790512 0.899807
0.000996 0.783832 0.898563
0.000996 0.768805 0.896186
0.001099 0.718792 0.894673
0.252625 0.588959 0.948648
0.811070 0.068049 0.906144
0.841108 0.000996 0.813796
0.855510 0.000996 0.818990
0.000996 0.832880 0.911414
0.001170 0.822637 0.909440
0.001178 0.817577 0.908549
0.001238 0.804682 0.906495
0.000996 0.763120 0.906589
0.282276 0.646594 0.948940
0.793957 0.221751 0.902312
0.849769 0.001092 0.823779
0.859618 0.000996 0.823082
0.000996 0.875499 0.925558
0.000996 0.871423 0.925677
0.001236 0.869489 0.925896
0.001261 0.865158 0.926699
0.001191 0.849210 0.929917
0.335824 0.778837 0.964690
0.804071 0.522947 0.942888
0.891388 0.000996 0.872058
0.875712 0.000996 0.839412
0.000996 0.921753 0.945598
0.000996 0.922348 0.947671
0.001308 0.922711 0.948777
0.001052 0.923670 0.951419
0.001296 0.927783 0.961150
0.385949 0.926813 0.974680
0.796316 0.872009 0.990601
0.944434 0.597644 0.935626
0.902885 0.294992 0.868077
0.317214 0.966884 0.972661
0.337868 0.967578 0.973250
0.346958 0.967890 0.973513
0.364190 0.968481 0.974008
0.411867 0.970156 0.975410
0.532705 0.974282 0.978811
0.774699 0.977139 0.980952
0.970871 0.953825 0.963382
1.000000 0.867774 0.938607
0.727270 0.990160 0.953788
0.731203 0.990215 0.953880
0.732964 0.990237 0.953915
0.736658 0.990282 0.953969
0.746701 0.990381 0.954048
0.773834 0.990425 0.953470
0.838909 0.987834 0.945382
0.939177 0.957290 0.919756
0.952995 0.941455 0.865985
0.000996 0.903927 0.942122
0.001226 0.903555 0.943055
0.001200 0.903415 0.943536
0.001255 0.903249 0.944766
0.001126 0.902357 0.949441
0.173335 0.896246 0.968649
0.684519 0.817370 0.989158
0.917995 0.494178 0.927169
0.896469 0.249033 0.875715
0.000996 0.905321 0.942846
0.001238 0.905027 0.943825
0.000996 0.904911 0.944308
0.000996 0.904882 0.945634
0.001281 0.904622 0.950538
0.176258 0.899560 0.969196
0.687694 0.825286 0.988866
0.921623 0.512082 0.931578
0.897129 0.264763 0.876630
0.000996 0.905938 0.943170
0.000996 0.905676 0.944163
0.001226 0.905595 0.944677
0.001194 0.905601 0.946017
0.000996 0.905617 0.951021
0.177645 0.900941 0.969429
0.689138 0.828476 0.988818
0.923181 0.519893 0.933484
0.897806 0.271952 0.877408
0.000996 0.907259 0.943862
0.000996 0.907049 0.944879
0.001115 0.907048 0.945466
0.000996 0.907105 0.946828
0.000996 0.907687 0.952023
0.180936 0.903612 0.969896
0.692260 0.834867 0.988859
0.925805 0.533512 0.936788
0.899261 0.286994 0.879078
0.001183 0.910600 0.945709
0.001150 0.910832 0.946989
0.000996 0.910964 0.947626
0.000996 0.911223 0.949146
0.001191 0.912237 0.954473
0.192362 0.910491 0.971173
0.700836 0.850673 0.989911
0.932195 0.568172 0.945022
0.902797 0.321698 0.883146
0.001107 0.920314 0.951763
0.001100 0.920777 0.953298
0.001234 0.921008 0.954025
0.000996 0.921547 0.955657
0.000996 0.923848 0.961503
0.233066 0.926380 0.974519
0.717415 0.891249 0.995547
0.945402 0.649441 0.963185
0.921655 0.415479 0.903290
0.001273 0.944110 0.969682
0.001263 0.945860 0.972246
0.000996 0.946666 0.973436
0.047887 0.947179 0.974297
0.153854 0.947979 0.975854
0.359983 0.949950 0.981487
0.717055 0.943490 0.993624
0.962782 0.828685 0.992902
0.967322 0.628227 0.953409
0.409921 0.969553 0.984987
0.422613 0.969989 0.985451
0.428243 0.970183 0.985657
0.440112 0.970591 0.986095
0.473026 0.971724 0.987310
0.561020 0.974512 0.990478
0.753533 0.976750 0.995446
0.949860 0.964922 0.997264
0.997256 0.914684 0.992725
0.739583 0.987773 0.995196
0.742984 0.987828 0.995244
0.744505 0.987852 0.995265
0.747712 0.987902 0.995308
0.756286 0.988026 0.995411
0.779376 0.988297 0.995603
0.839243 0.988552 0.995642
0.944345 0.986563 0.993311
0.992801 0.981768 0.990440
