luts/film/super8_kodachrome64.cube
TITLE "spektrafilm kodak_kodachrome_64 kodak_2383 {"io.scan_film": true, "post:camera.exposure_compensation_ev": 0.2, "post:scanner.black_correction": true, "post:scanner.white_correction": true} trim chroma=1.2 contrast=1.15 pivot=0.55 cast=0.0,-0.018 red_rot=8.0 blue_sat=1.8 sky_rot=35.0 green_sat=0.7 display=apple"
# spektrafilm by Andrea Volpato / https://github.com/andreavolpato/spektrafilm / CC BY-SA 4.0
# ============================================================================
# spektrafilm LUT
# Bundle:  spektrafilm_v034_kodachrome64_2383_1lut_applelog_rec709  (1lut, 65^3)
# Film:    kodak_kodachrome_64
# Print:   kodak_2383
# Input:   Apple Log  (cctf on)
# Output:  Rec.709  (cctf on)
# Created: 2026-09-16T16:08:08Z
# spektrafilm: 0.3.4
# Project: https://github.com/andreavolpato/spektrafilm
#
# Copyright (c) 2026 Andrea Volpato. Generated by spektrafilm. Licensed under CC BY-SA 4.0.
#
# License: spektrafilm LUT by Andrea Volpato, licensed under CC BY-SA 4.0.
#          Full text and attribution requirements in SPEKTRAFILM_LICENSE.txt
#          (shipped in this bundle); also at
#          https://github.com/andreavolpato/spektrafilm/blob/main/SPEKTRAFILM_LICENSE.txt.
#
# Citation: If you use this LUT in your work, please cite the spektrafilm
#           project: https://github.com/andreavolpato/spektrafilm, see
#           CITATION.cff for details.
#
# Notes: Generated by the spektrafilm LUT bundle builder. Apply with trilinear
#        or tetrahedral interpolation in your host (DaVinci Resolve, Nuke,
#        OCIO-aware DCC). The input and output color spaces are declared in
#        bundle.json; do NOT apply this LUT to a signal in a different color
#        space.
#
# File: lut_v034_kodachrome64_2383.cube  (see sibling bundle.json for full metadata)
# ============================================================================
DOMAIN_MIN 0 0 0
DOMAIN_MAX 1 1 1
LUT_3D_SIZE 9
0.001752 0.001136 0.000449
0.001752 0.001136 0.000449
0.001752 0.001136 0.000449
0.001752 0.001136 0.000449
0.054662 0.135718 0.032352
0.463945 0.000000 0.209247
0.486514 0.000000 0.243706
0.690194 0.000000 0.353323
0.977437 0.586091 0.777811
0.001752 0.001136 0.000449
0.001752 0.001136 0.000449
0.001752 0.001136 0.000449
0.001752 0.001136 0.000449
0.332720 0.000000 0.062773
0.471194 0.000000 0.171026
0.493908 0.000000 0.166369
0.775423 0.048415 0.357632
0.982566 0.613472 0.775022
0.001752 0.001136 0.000449
0.001752 0.001136 0.000449
0.001752 0.001136 0.000449
0.003703 0.004233 0.001506
0.360085 0.000000 0.074769
0.473786 0.000000 0.132658
0.503409 0.000000 0.120144
0.806178 0.095072 0.357152
0.984506 0.625087 0.773703
0.001752 0.001136 0.000449
0.001752 0.001136 0.000449
0.003598 0.001492 0.000496
0.226767 0.000000 0.000109
0.421251 0.002266 0.000000
0.473823 0.000678 0.000000
0.551099 0.000000 0.055124
0.861865 0.191834 0.354692
0.987815 0.647857 0.770363
0.029236 0.215327 0.042615
0.042048 0.390474 0.102287
0.060390 0.394398 0.103345
0.206705 0.355843 0.117290
0.541982 0.306521 0.006260
0.735117 0.217392 0.000000
0.828330 0.194275 0.024090
0.938164 0.404094 0.371173
0.991454 0.701818 0.759776
0.141096 0.604531 0.201893
0.180367 0.624064 0.213943
0.206031 0.631939 0.220835
0.278631 0.650084 0.240543
0.498001 0.695124 0.299665
0.841911 0.724318 0.133112
1.000000 0.694869 0.156245
1.000000 0.707382 0.465186
0.974803 0.796847 0.751919
0.428928 0.766484 0.317789
0.450226 0.773253 0.324778
0.459955 0.776496 0.328096
0.482525 0.783506 0.335456
0.552063 0.804349 0.356644
0.734307 0.850424 0.372080
0.952879 0.870292 0.274377
0.970907 0.877636 0.453261
0.937718 0.882141 0.734772
0.662073 0.889700 0.467735
0.669597 0.890688 0.469684
0.672956 0.891181 0.470708
0.680059 0.892210 0.472837
0.699907 0.894756 0.477629
0.756515 0.901047 0.485693
0.880386 0.907074 0.470230
0.938256 0.906371 0.554993
0.912617 0.908135 0.762775
0.837945 0.916627 0.687499
0.839197 0.916562 0.687604
0.839752 0.916534 0.687776
0.840918 0.916475 0.688273
0.844048 0.916316 0.690071
0.852789 0.915842 0.693495
0.876532 0.914299 0.699858
0.907504 0.910747 0.734690
0.903377 0.908830 0.823381
0.001752 0.001136 0.000449
0.001752 0.001136 0.000449
0.001752 0.001136 0.000449
0.001737 0.001169 0.000585
0.351349 0.000000 0.072467
0.473350 0.000000 0.133468
0.502832 0.000000 0.120826
0.805082 0.093253 0.356485
0.984457 0.624666 0.773568
0.001752 0.001136 0.000449
0.001752 0.001136 0.000449
0.001876 0.001248 0.000474
0.212675 0.003097 0.000000
0.415045 0.009796 0.000000
0.471405 0.004185 0.000000
0.554956 0.000000 0.052280
0.864101 0.196057 0.353783
0.987971 0.648953 0.770003
0.001752 0.001136 0.000449
0.001983 0.001396 0.000508
0.008866 0.003033 0.000654
0.176268 0.008952 0.000000
0.381492 0.018510 0.000000
0.475728 0.017311 0.000000
0.598655 0.000000 0.036199
0.883953 0.235545 0.351817
0.989126 0.658951 0.768231
0.001752 0.001136 0.000449
0.029057 0.197087 0.039067
0.039268 0.224417 0.045918
0.173995 0.157007 0.018402
0.441639 0.078854 0.000000
0.561645 0.060668 0.000000
0.726978 0.016444 0.000000
0.913936 0.317535 0.355858
0.990798 0.679072 0.764250
0.039523 0.383849 0.100368
0.067005 0.482112 0.147161
0.080350 0.495064 0.150118
0.192870 0.491419 0.165735
0.504136 0.483375 0.123239
0.822900 0.407785 0.034132
0.900761 0.358509 0.096236
0.960164 0.492776 0.398603
0.990266 0.727237 0.754955
0.156188 0.623001 0.211510
0.195138 0.640432 0.223176
0.219981 0.648342 0.230097
0.285460 0.665991 0.248462
0.489315 0.711270 0.306167
0.825210 0.755014 0.189441
1.000000 0.732168 0.176511
1.000000 0.740483 0.465525
0.971415 0.809302 0.753830
0.415699 0.782766 0.327297
0.438309 0.789307 0.334623
0.448689 0.792474 0.338163
0.472275 0.799667 0.346335
0.544901 0.819364 0.369498
0.729341 0.860418 0.394176
0.947907 0.875575 0.305521
0.967866 0.880114 0.469652
0.935805 0.884436 0.735134
0.652000 0.898157 0.495464
0.660363 0.898778 0.497450
0.664186 0.899056 0.498325
0.671593 0.899838 0.500926
0.693002 0.901812 0.507407
0.752768 0.906273 0.519112
0.876339 0.909736 0.509436
0.934259 0.907220 0.584030
0.911252 0.908059 0.772544
0.836903 0.916764 0.703601
0.838160 0.916688 0.703713
0.838730 0.916654 0.703747
0.839935 0.916582 0.703941
0.843050 0.916398 0.705597
0.851831 0.915864 0.709079
0.875350 0.914251 0.715045
0.905951 0.910676 0.747421
0.902725 0.908732 0.828235
0.001752 0.001136 0.000449
0.001752 0.001136 0.000449
0.001752 0.001136 0.000449
0.105348 0.001685 0.002910
0.372612 0.000000 0.110542
0.475154 0.000000 0.160497
0.509277 0.000000 0.134969
0.829783 0.134699 0.368548
0.986825 0.640199 0.771264
0.001752 0.001136 0.000449
0.001710 0.001250 0.000963
0.036970 0.002628 0.009678
0.242381 0.000000 0.015237
0.413172 0.000000 0.022458
0.477784 0.000000 0.023778
0.566628 0.000000 0.080791
0.879594 0.225730 0.365164
0.989556 0.663146 0.767358
0.001752 0.001136 0.000449
0.002910 0.004862 0.004738
0.010564 0.007602 0.005984
0.174615 0.003052 0.000000
0.385754 0.006135 0.000000
0.491606 0.000000 0.002933
0.612091 0.000000 0.063967
0.896387 0.263459 0.365055
0.990386 0.672822 0.765452
0.005599 0.008958 0.003628
0.015423 0.218591 0.056617
0.025384 0.225636 0.054999
0.196610 0.162031 0.017187
0.453068 0.076080 0.000000
0.574719 0.046537 0.000000
0.738680 0.025386 0.030491
0.921524 0.340806 0.372024
0.991345 0.691825 0.761541
0.031681 0.400646 0.122285
0.052448 0.484456 0.164504
0.066430 0.492842 0.165144
0.189565 0.487247 0.168804
0.515912 0.476769 0.112231
0.827458 0.401848 0.050160
0.907726 0.358312 0.125233
0.963031 0.504661 0.414707
0.989069 0.737658 0.753223
0.136478 0.632010 0.228218
0.162443 0.652905 0.233089
0.185443 0.662142 0.236120
0.263030 0.679704 0.254866
0.485688 0.721306 0.315599
0.828376 0.760174 0.205999
1.000000 0.734913 0.218617
1.000000 0.740801 0.483564
0.970218 0.813579 0.754834
0.392329 0.797167 0.336493
0.416440 0.804168 0.344729
0.428188 0.807128 0.348465
0.454115 0.814217 0.357492
0.533465 0.832319 0.382628
0.726689 0.867878 0.413770
0.945352 0.878624 0.331661
0.965752 0.880841 0.487418
0.935201 0.884269 0.741154
0.647459 0.901633 0.508090
0.656179 0.902193 0.510456
0.660169 0.902427 0.511450
0.667867 0.903019 0.513926
0.689866 0.904790 0.521516
0.751137 0.908398 0.535013
0.874721 0.910674 0.526384
0.932486 0.907543 0.596928
0.910688 0.908024 0.776581
0.836495 0.916810 0.710260
0.837760 0.916730 0.710430
0.838331 0.916693 0.710488
0.839546 0.916616 0.710676
0.842652 0.916421 0.712176
0.851454 0.915858 0.715647
0.874850 0.914212 0.721684
0.905353 0.910639 0.752433
0.902459 0.908689 0.830233
0.001752 0.001136 0.000449
0.001603 0.001455 0.002902
0.014642 0.002457 0.026591
0.194394 0.000000 0.089650
0.388052 0.000000 0.191361
0.474099 0.000000 0.235240
0.507565 0.000000 0.240360
0.804299 0.097985 0.441489
0.985125 0.639713 0.788763
0.001639 0.001401 0.002127
0.001600 0.000000 0.045368
0.012998 0.000552 0.072985
0.185798 0.000000 0.094221
0.393003 0.000000 0.138424
0.479393 0.000000 0.168877
0.543376 0.000000 0.197905
0.862505 0.193915 0.443431
0.987913 0.661701 0.785138
0.001322 0.000961 0.017407
0.000989 0.000000 0.122152
0.004972 0.000000 0.144264
0.142289 0.004028 0.084844
0.371639 0.000000 0.105056
0.489543 0.000000 0.139067
0.581931 0.000000 0.188520
0.882777 0.231299 0.440520
0.988814 0.671005 0.783531
0.009958 0.030034 0.134484
0.000000 0.212952 0.206253
0.000000 0.215526 0.203066
0.154686 0.144415 0.153514
0.456650 0.017895 0.075302
0.572448 0.000000 0.092397
0.706380 0.000000 0.169401
0.914863 0.310860 0.437760
0.990043 0.689453 0.780070
0.000000 0.423493 0.271881
0.000000 0.492608 0.311491
0.000000 0.496377 0.303661
0.047569 0.496824 0.257234
0.512087 0.472788 0.193606
0.840940 0.378657 0.151560
0.909682 0.335603 0.205073
0.961787 0.490463 0.456973
0.989146 0.734425 0.769980
0.032952 0.664640 0.327835
0.066691 0.686292 0.336100
0.096451 0.696498 0.337058
0.173597 0.718203 0.333775
0.449593 0.756220 0.358842
0.830742 0.773772 0.276903
1.000000 0.738978 0.307067
1.000000 0.737261 0.526449
0.969217 0.811883 0.766000
0.325292 0.828536 0.375336
0.349470 0.836814 0.379684
0.362983 0.840120 0.382609
0.397911 0.845963 0.391619
0.499574 0.859872 0.420042
0.719615 0.882490 0.465276
0.939901 0.883721 0.386608
0.961388 0.882111 0.523871
0.934029 0.883889 0.753020
0.636938 0.908960 0.536902
0.646406 0.909322 0.539923
0.650431 0.909481 0.541247
0.659006 0.909747 0.543765
0.682942 0.910702 0.552125
0.747960 0.912258 0.568012
0.871546 0.912263 0.561536
0.928933 0.908090 0.622879
0.909519 0.907940 0.784987
0.835696 0.916890 0.723525
0.836982 0.916798 0.723763
0.837560 0.916757 0.723862
0.838790 0.916670 0.724063
0.841888 0.916449 0.725257
0.850708 0.915821 0.729209
0.873840 0.914096 0.735602
0.904124 0.910542 0.762808
0.901903 0.908595 0.834436
0.002670 0.000000 0.109052
0.003613 0.000000 0.126888
0.005684 0.000000 0.132489
0.201320 0.000000 0.206501
0.400023 0.000000 0.264228
0.473094 0.000000 0.292692
0.516312 0.000000 0.331616
0.762971 0.052654 0.558121
0.977705 0.620265 0.835011
0.003650 0.000000 0.160331
0.004885 0.000000 0.182454
0.007077 0.000000 0.186458
0.147581 0.000000 0.205875
0.358061 0.000000 0.235575
0.482126 0.000000 0.282388
0.557086 0.000000 0.350484
0.814969 0.133107 0.586784
0.980876 0.643637 0.834183
0.003541 0.000000 0.231201
0.001937 0.000000 0.347951
0.004493 0.000000 0.355951
0.120013 0.007931 0.242072
0.353595 0.000000 0.245643
0.496416 0.000000 0.285449
0.586250 0.000000 0.366250
0.840205 0.174530 0.599010
0.982035 0.653447 0.833577
0.009844 0.066063 0.469819
0.056767 0.172465 0.547773
0.053410 0.161454 0.567780
0.062090 0.126987 0.537179
0.448723 0.039952 0.365732
0.590246 0.000000 0.339408
0.679816 0.000000 0.413210
0.885033 0.254701 0.615127
0.983965 0.672831 0.831438
0.000000 0.440823 0.545114
0.000000 0.493797 0.549340
0.000001 0.496201 0.547084
0.000001 0.498544 0.554934
0.474478 0.485446 0.525913
0.845106 0.380136 0.461433
0.905636 0.298309 0.484569
0.954333 0.448172 0.617534
0.986093 0.719889 0.822244
0.000000 0.701586 0.582666
0.000001 0.724868 0.588537
0.000001 0.736619 0.589727
0.000001 0.765237 0.587957
0.316314 0.812705 0.563596
0.822895 0.791907 0.531254
0.990708 0.744298 0.533841
0.989650 0.732656 0.640873
0.970805 0.805170 0.795696
0.155448 0.880757 0.571518
0.201229 0.888063 0.572731
0.222817 0.891244 0.573189
0.270323 0.897330 0.573393
0.407473 0.908628 0.573926
0.704494 0.904267 0.604303
0.924048 0.892029 0.539866
0.949433 0.884324 0.621022
0.930916 0.882789 0.783471
0.605394 0.926131 0.612928
0.616399 0.925968 0.616038
0.621513 0.925824 0.617488
0.632836 0.925423 0.620642
0.662900 0.924136 0.628478
0.740671 0.920032 0.648321
0.864400 0.914473 0.651736
0.920575 0.908876 0.684068
0.906493 0.907661 0.806760
0.833478 0.917145 0.757328
0.834834 0.917009 0.757871
0.835392 0.916953 0.758125
0.836547 0.916838 0.758687
0.839806 0.916516 0.759758
0.848842 0.915645 0.764122
0.871614 0.913594 0.770983
0.901316 0.910216 0.787388
0.900492 0.908328 0.845344
0.004425 0.000000 0.452460
0.008172 0.000000 0.398376
0.011616 0.000000 0.312661
0.062768 0.000000 0.260841
0.371168 0.000000 0.319777
0.485451 0.000000 0.346802
0.571802 0.000000 0.424159
0.817159 0.145499 0.690954
0.968734 0.583558 0.886335
0.000000 0.064246 0.507752
0.000000 0.085097 0.576434
0.000000 0.079379 0.563126
0.069079 0.000000 0.513200
0.397152 0.000000 0.405304
0.535114 0.000000 0.402505
0.645321 0.000001 0.496244
0.851905 0.206658 0.726126
0.972017 0.607357 0.891072
0.000000 0.075342 0.648110
0.005439 0.090323 0.726857
0.000000 0.078219 0.729832
0.038359 0.000000 0.702128
0.435747 0.010335 0.489933
0.580368 0.000000 0.451492
0.687445 0.000000 0.537087
0.865921 0.233317 0.740196
0.973244 0.617930 0.893005
0.058737 0.187498 0.764612
0.083276 0.224214 0.796243
0.073844 0.214670 0.812143
0.005358 0.163446 0.876422
0.477676 0.185979 0.639678
0.698477 0.065105 0.584435
0.768077 0.069596 0.620312
0.893047 0.290230 0.767503
0.975342 0.639842 0.896234
0.136142 0.440534 0.813564
0.141790 0.465142 0.832357
0.154445 0.464460 0.847606
0.203187 0.457165 0.910680
0.378826 0.509354 0.920737
0.838334 0.441846 0.770164
0.912675 0.366916 0.765801
0.939583 0.443559 0.818042
0.977594 0.693604 0.900573
0.000001 0.713432 0.846821
0.000000 0.737024 0.859113
0.000001 0.748455 0.866309
0.000001 0.775007 0.884418
0.248171 0.821205 0.907897
0.796753 0.801066 0.836211
0.972041 0.752364 0.819041
0.982152 0.718183 0.848488
0.967584 0.787461 0.887662
0.000002 0.911444 0.854735
0.046764 0.919674 0.852912
0.082237 0.922689 0.851552
0.152134 0.928619 0.848315
0.307063 0.939626 0.837915
0.640047 0.931884 0.807823
0.897601 0.894330 0.785444
0.928553 0.884135 0.791084
0.923968 0.879889 0.848189
0.513341 0.955265 0.799481
0.528128 0.954623 0.799094
0.534966 0.954291 0.798944
0.549717 0.953486 0.798523
0.590414 0.950646 0.797160
0.700382 0.938749 0.794650
0.857190 0.913597 0.806262
0.904998 0.908400 0.801300
0.900748 0.906784 0.849744
0.824345 0.919922 0.818459
0.826000 0.919628 0.819058
0.826737 0.919496 0.819323
0.828301 0.919216 0.819874
0.832550 0.918455 0.821345
0.843950 0.916416 0.824929
0.869052 0.912341 0.832292
0.895888 0.909047 0.839022
0.897681 0.907595 0.869126
0.110313 0.267546 0.873430
0.107291 0.264721 0.889481
0.097814 0.255058 0.902196
0.042837 0.220600 0.955483
0.378192 0.249204 0.732963
0.764692 0.166171 0.707846
0.820293 0.158942 0.710102
0.912755 0.348949 0.816396
0.974988 0.650755 0.920231
0.146901 0.330577 0.891507
0.149265 0.330742 0.910241
0.147674 0.325221 0.925472
0.129073 0.305259 0.985125
0.369407 0.348888 0.852907
0.808530 0.279974 0.775002
0.867961 0.249543 0.764234
0.928011 0.402630 0.837554
0.975604 0.665286 0.923110
0.158163 0.357192 0.898082
0.162185 0.357671 0.917566
0.163194 0.353650 0.933410
0.156815 0.337933 0.992785
0.349218 0.384625 0.917387
0.821921 0.326840 0.799105
0.885787 0.288483 0.785147
0.934040 0.424901 0.846140
0.975794 0.671692 0.924277
0.173327 0.409744 0.910050
0.181304 0.412617 0.931477
0.186125 0.410637 0.947036
0.201376 0.403966 1.000000
0.285848 0.465783 1.000000
0.839941 0.416219 0.839450
0.912539 0.370508 0.820068
0.944993 0.468199 0.862393
0.975924 0.685015 0.926474
0.176648 0.532976 0.931280
0.191852 0.542721 0.953047
0.203994 0.547196 0.968716
0.253717 0.556059 1.000000
0.438512 0.597625 1.000000
0.847508 0.601598 0.905081
0.955191 0.551077 0.884910
0.965887 0.570611 0.897006
0.974426 0.720094 0.930694
0.088644 0.733093 0.990828
0.164487 0.751342 1.000000
0.211099 0.758905 1.000000
0.298729 0.773545 1.000000
0.493126 0.799551 1.000000
0.743933 0.825602 1.000000
0.951318 0.784255 0.923256
0.968649 0.757528 0.929212
0.961704 0.788785 0.930879
0.304055 0.897688 1.000000
0.328276 0.903410 1.000000
0.339234 0.905918 1.000000
0.361976 0.910995 1.000000
0.418263 0.922421 1.000000
0.644613 0.924278 0.967484
0.885501 0.892191 0.904509
0.912948 0.883823 0.897701
0.917733 0.876878 0.906254
0.548974 0.948788 0.960794
0.563283 0.948143 0.957743
0.569771 0.947824 0.956332
0.583094 0.947113 0.953398
0.619897 0.944773 0.944976
0.707920 0.936883 0.923263
0.841688 0.917758 0.892554
0.895273 0.906069 0.889087
0.895983 0.905538 0.891443
0.806279 0.924888 0.894634
0.808111 0.924580 0.894438
0.808937 0.924441 0.894349
0.810720 0.924139 0.894148
0.815757 0.923282 0.893550
0.828634 0.921043 0.891905
0.858305 0.915363 0.888122
0.891190 0.907838 0.888565
0.894840 0.907115 0.891091
0.228295 0.639970 1.000000
0.272689 0.649333 1.000000
0.294683 0.653592 1.000000
0.343868 0.662499 1.000000
0.486258 0.680973 1.000000
0.753086 0.708052 0.945987
0.969047 0.678298 0.928735
0.975208 0.673872 0.927405
0.968051 0.763653 0.935066
0.237384 0.661224 1.000000
0.282179 0.670963 1.000000
0.304162 0.675300 1.000000
0.352726 0.684027 1.000000
0.491297 0.702062 1.000000
0.746065 0.735404 0.963117
0.967861 0.703505 0.932780
0.974989 0.694868 0.930909
0.966259 0.771515 0.934939
0.241259 0.670600 1.000000
0.286469 0.680370 1.000000
0.308157 0.684770 1.000000
0.356604 0.693395 1.000000
0.493016 0.710923 1.000000
0.741115 0.745937 0.974704
0.966919 0.714046 0.934127
0.974619 0.703588 0.932134
0.965425 0.774881 0.934830
0.249958 0.689739 1.000000
0.295019 0.699704 1.000000
0.316546 0.704095 1.000000
0.363952 0.712610 1.000000
0.496684 0.729408 1.000000
0.726166 0.766006 1.000000
0.964269 0.734143 0.936055
0.973304 0.721341 0.934167
0.963558 0.781868 0.934503
0.279803 0.736773 1.000000
0.322556 0.746102 1.000000
0.341365 0.750020 1.000000
0.382582 0.757750 1.000000
0.505693 0.775419 1.000000
0.713368 0.809475 1.000000
0.954359 0.775652 0.937089
0.967449 0.760461 0.936078
0.957735 0.800133 0.933024
0.354506 0.816470 1.000000
0.386140 0.823327 1.000000
0.401042 0.826359 1.000000
0.432907 0.832513 1.000000
0.523386 0.846839 1.000000
0.747887 0.854311 1.000000
0.921173 0.845808 0.928320
0.942376 0.832299 0.928298
0.941113 0.837753 0.926749
0.460557 0.903157 1.000000
0.476389 0.906311 1.000000
0.483491 0.907655 1.000000
0.498826 0.910413 1.000000
0.544237 0.917414 1.000000
0.677145 0.921004 0.987919
0.878720 0.895121 0.930609
0.904912 0.890923 0.909394
0.909497 0.885534 0.912482
0.621693 0.940817 0.979920
0.632755 0.940049 0.977199
0.637739 0.939687 0.975958
0.648220 0.938890 0.973316
0.675540 0.936607 0.966215
0.744903 0.929480 0.946723
0.848054 0.915087 0.913938
0.890302 0.907312 0.901772
0.891110 0.906817 0.902520
0.828376 0.919280 0.918465
0.830033 0.919018 0.917929
0.830762 0.918902 0.917693
0.832145 0.918683 0.917244
0.835964 0.918070 0.916008
0.845877 0.916443 0.912797
0.867166 0.912736 0.906142
0.886863 0.908938 0.901455
0.890520 0.908226 0.900805
0.501221 0.881131 1.000000
0.513075 0.882959 1.000000
0.518722 0.883770 1.000000
0.530623 0.885404 1.000000
0.567341 0.889657 1.000000
0.680634 0.894416 1.000000
0.880030 0.879187 0.927013
0.918115 0.872099 0.917589
0.921034 0.870207 0.917841
0.503286 0.883624 1.000000
0.515103 0.885439 1.000000
0.520470 0.886223 1.000000
0.532004 0.887842 1.000000
0.568484 0.892082 1.000000
0.678119 0.896747 1.000000
0.877506 0.881285 0.929338
0.916696 0.874134 0.916873
0.919819 0.871902 0.917271
0.504262 0.884675 1.000000
0.515968 0.886474 1.000000
0.521241 0.887249 1.000000
0.532655 0.888859 1.000000
0.569011 0.893104 1.000000
0.676967 0.897779 1.000000
0.876340 0.882101 0.930550
0.916095 0.874986 0.916567
0.919278 0.872653 0.917017
0.506210 0.886871 1.000000
0.517600 0.888632 1.000000
0.522752 0.889395 1.000000
0.534013 0.890993 1.000000
0.570000 0.895196 1.000000
0.674553 0.899938 1.000000
0.873469 0.883881 0.933548
0.914987 0.876583 0.915980
0.918129 0.874231 0.916471
0.510978 0.892653 1.000000
0.521540 0.894333 1.000000
0.526561 0.895082 1.000000
0.538073 0.896680 1.000000
0.571882 0.900722 1.000000
0.669060 0.905411 1.000000
0.864210 0.888850 0.942031
0.912146 0.880615 0.914451
0.915362 0.877956 0.915147
0.523928 0.907034 1.000000
0.533820 0.908562 1.000000
0.538293 0.909230 1.000000
0.547958 0.910605 1.000000
0.576289 0.914021 1.000000
0.657199 0.918566 0.999304
0.869051 0.892585 0.942359
0.905746 0.889350 0.910911
0.908946 0.886221 0.912020
0.551891 0.933039 1.000000
0.558316 0.934082 1.000000
0.561219 0.934538 1.000000
0.567417 0.935475 1.000000
0.592993 0.936327 0.996767
0.697215 0.928684 0.971170
0.853324 0.908805 0.923611
0.896755 0.901016 0.909146
0.895492 0.900286 0.910183
0.709130 0.933385 0.958135
0.716810 0.932592 0.955979
0.720129 0.932243 0.955039
0.727180 0.931484 0.953025
0.745570 0.929412 0.947668
0.786658 0.924279 0.935159
0.856037 0.913876 0.912583
0.889612 0.907713 0.902792
0.890533 0.907355 0.902914
0.848039 0.916024 0.913036
0.849124 0.915841 0.912684
0.849611 0.915759 0.912527
0.850643 0.915583 0.912193
0.853268 0.915134 0.911349
0.860233 0.913920 0.909128
0.874049 0.911397 0.905002
0.887747 0.908690 0.902004
0.890603 0.908123 0.901731
