luts/film/super8_kodachrome64.cube
TITLE "spektrafilm kodak_kodachrome_64 kodak_2383 {"io.scan_film": true, "post:camera.exposure_compensation_ev": 0.2, "post:scanner.black_correction": true, "post:scanner.white_correction": true} trim chroma=1.2 contrast=1.15 pivot=0.55 cast=0.0,-0.018 red_rot=8.0 blue_sat=1.8 sky_rot=35.0 green_sat=0.7 display=apple"
# spektrafilm by Andrea Volpato / https://github.com/andreavolpato/spektrafilm / CC BY-SA 4.0
# ============================================================================
# spektrafilm LUT
# Bundle:  spektrafilm_v034_kodachrome64_2383_1lut_applelog_rec709  (1lut, 65^3)
# Film:    kodak_kodachrome_64
# Print:   kodak_2383
# Input:   Apple Log  (cctf on)
# Output:  Rec.709  (cctf on)
# Created: 2026-09-16T16:08:08Z
# spektrafilm: 0.3.4
# Project: https://github.com/andreavolpato/spektrafilm
#
# Copyright (c) 2026 Andrea Volpato. Generated by spektrafilm. Licensed under CC BY-SA 4.0.
#
# License: spektrafilm LUT by Andrea Volpato, licensed under CC BY-SA 4.0.
#          Full text and attribution requirements in SPEKTRAFILM_LICENSE.txt
#          (shipped in this bundle); also at
#          https://github.com/andreavolpato/spektrafilm/blob/main/SPEKTRAFILM_LICENSE.txt.
#
# Citation: If you use this LUT in your work, please cite the spektrafilm
#           project: https://github.com/andreavolpato/spektrafilm, see
#           CITATION.cff for details.
#
# Notes: Generated by the spektrafilm LUT bundle builder. Apply with trilinear
#        or tetrahedral interpolation in your host (DaVinci Resolve, Nuke,
#        OCIO-aware DCC). The input and output color spaces are declared in
#        bundle.json; do NOT apply this LUT to a signal in a different color
#        space.
#
# File: lut_v034_kodachrome64_2383.cube  (see sibling bundle.json for full metadata)
# ============================================================================
DOMAIN_MIN 0 0 0
DOMAIN_MAX 1 1 1
LUT_3D_SIZE 65
0.001752 0.001136 0.000449
0.001752 0.001136 0.000449
0.001752 0.001136 0.000449
0.001752 0.001136 0.000449
0.001752 0.001136 0.000449
0.001752 0.001136 0.000449
0.001752 0.001136 0.000449
0.001752 0.001136 0.000449
0.001752 0.001136 0.000449
0.001752 0.001136 0.000449
0.001752 0.001136 0.000449
0.001752 0.001136 0.000449
0.001752 0.001136 0.000449
0.001752 0.001136 0.000449
0.001752 0.001136 0.000449
0.001752 0.001136 0.000449
0.001752 0.001136 0.000449
0.001752 0.001136 0.000449
0.001752 0.001136 0.000449
0.001752 0.001136 0.000449
0.001752 0.001136 0.000449
0.001752 0.001136 0.000449
0.001752 0.001136 0.000449
0.001752 0.001136 0.000449
0.001752 0.001136 0.000449
0.001752 0.001136 0.000449
0.001752 0.001136 0.000449
0.001752 0.001136 0.000449
0.001752 0.001136 0.000449
0.001719 0.001226 0.000839
0.001468 0.001472 0.006436
0.028308 0.171747 0.034322
0.054662 0.135718 0.032352
0.230381 0.011985 0.000000
0.372140 0.000000 0.013302
0.385945 0.000000 0.088739
0.404923 0.000000 0.143820
0.424085 0.000000 0.171549
0.442278 0.000000 0.186075
0.454849 0.000000 0.198652
0.463945 0.000000 0.209247
0.470543 0.000000 0.219995
0.474543 0.000000 0.224095
0.477603 0.000000 0.229718
0.479366 0.000000 0.236411
0.480917 0.000000 0.239025
0.482705 0.000000 0.239448
0.484542 0.000000 0.241708
0.486514 0.000000 0.243706
0.489383 0.000000 0.242439
0.494200 0.000000 0.240706
0.503057 0.000000 0.239831
0.515904 0.000000 0.241996
0.536847 0.000000 0.251847
0.570909 0.000000 0.272332
0.620939 0.000000 0.305792
0.690194 0.000000 0.353323
0.762148 0.035591 0.413007
0.819835 0.125293 0.474817
0.868858 0.213973 0.532801
0.906198 0.298518 0.588939
0.932096 0.381194 0.643408
0.952748 0.457270 0.693643
0.967205 0.524833 0.737936
0.977437 0.586091 0.777811
0.001752 0.001136 0.000449
0.001752 0.001136 0.000449
0.001752 0.001136 0.000449
0.001752 0.001136 0.000449
0.001752 0.001136 0.000449
0.001752 0.001136 0.000449
0.001752 0.001136 0.000449
0.001752 0.001136 0.000449
0.001752 0.001136 0.000449
0.001752 0.001136 0.000449
0.001752 0.001136 0.000449
0.001752 0.001136 0.000449
0.001752 0.001136 0.000449
0.001752 0.001136 0.000449
0.001752 0.001136 0.000449
0.001752 0.001136 0.000449
0.001752 0.001136 0.000449
0.001752 0.001136 0.000449
0.001752 0.001136 0.000449
0.001752 0.001136 0.000449
0.001752 0.001136 0.000449
0.001752 0.001136 0.000449
0.001752 0.001136 0.000449
0.001752 0.001136 0.000449
0.001752 0.001136 0.000449
0.001752 0.001136 0.000449
0.001752 0.001136 0.000449
0.001752 0.001136 0.000449
0.002839 0.002681 0.000918
0.013616 0.038966 0.009490
0.027493 0.155785 0.031309
0.045202 0.075985 0.020209
0.229301 0.011030 0.000000
0.351902 0.000000 0.012731
0.368856 0.000000 0.075493
0.390566 0.000000 0.126963
0.413071 0.000000 0.154229
0.433105 0.000000 0.167665
0.447734 0.000000 0.179647
0.458615 0.000000 0.190416
0.466958 0.000000 0.201397
0.472004 0.000000 0.205474
0.475907 0.000000 0.212275
0.478420 0.000000 0.219412
0.480027 0.000000 0.221824
0.482024 0.000000 0.222213
0.483430 0.000000 0.224712
0.485431 0.000000 0.226120
0.488346 0.000000 0.223885
0.492042 0.000000 0.220777
0.498337 0.000000 0.217409
0.509574 0.000000 0.217785
0.526468 0.000000 0.223653
0.553558 0.000000 0.238379
0.594023 0.000000 0.264297
0.651269 0.000000 0.303318
0.725494 0.000000 0.354998
0.785605 0.065255 0.415120
0.839707 0.157129 0.476812
0.882794 0.239261 0.532504
0.914673 0.322504 0.587819
0.938321 0.400140 0.641880
0.957346 0.472437 0.692781
0.970390 0.536870 0.737226
0.979411 0.596103 0.776873
0.001752 0.001136 0.000449
0.001752 0.001136 0.000449
0.001752 0.001136 0.000449
0.001752 0.001136 0.000449
0.001752 0.001136 0.000449
0.001752 0.001136 0.000449
0.001752 0.001136 0.000449
0.001752 0.001136 0.000449
0.001752 0.001136 0.000449
0.001752 0.001136 0.000449
0.001752 0.001136 0.000449
0.001752 0.001136 0.000449
0.001752 0.001136 0.000449
0.001752 0.001136 0.000449
0.001752 0.001136 0.000449
0.001752 0.001136 0.000449
0.001752 0.001136 0.000449
0.001752 0.001136 0.000449
0.001752 0.001136 0.000449
0.001752 0.001136 0.000449
0.001752 0.001136 0.000449
0.001752 0.001136 0.000449
0.001752 0.001136 0.000449
0.001752 0.001136 0.000449
0.001752 0.001136 0.000449
0.001752 0.001136 0.000449
0.001752 0.001136 0.000449
0.001795 0.001182 0.000460
0.005804 0.008761 0.002905
0.019842 0.077888 0.017025
0.030645 0.186110 0.037284
0.116959 0.011024 0.000000
0.339863 0.013799 0.000000
0.348909 0.000000 0.038618
0.370079 0.000000 0.096540
0.395030 0.000000 0.132452
0.417707 0.000000 0.153144
0.436277 0.000000 0.165190
0.449660 0.000000 0.175515
0.460348 0.000000 0.187112
0.467826 0.000000 0.194469
0.472734 0.000000 0.199330
0.476476 0.000000 0.207545
0.478695 0.000000 0.212270
0.480539 0.000000 0.213384
0.482359 0.000000 0.214518
0.483708 0.000000 0.217368
0.486098 0.000000 0.216441
0.489360 0.000000 0.213087
0.493366 0.000000 0.208946
0.500756 0.000000 0.206267
0.513120 0.000000 0.208261
0.532244 0.000000 0.216263
0.562048 0.000000 0.233355
0.604943 0.000000 0.261527
0.665021 0.000000 0.302734
0.737770 0.008560 0.356017
0.795224 0.079701 0.416020
0.847510 0.169943 0.477021
0.888325 0.249692 0.532133
0.917909 0.331749 0.587054
0.940819 0.407879 0.641177
0.959179 0.478700 0.692478
0.971671 0.541833 0.736894
0.980189 0.600221 0.776487
0.001752 0.001136 0.000449
0.001752 0.001136 0.000449
0.001752 0.001136 0.000449
0.001752 0.001136 0.000449
0.001752 0.001136 0.000449
0.001752 0.001136 0.000449
0.001752 0.001136 0.000449
0.001752 0.001136 0.000449
0.001752 0.001136 0.000449
0.001752 0.001136 0.000449
0.001752 0.001136 0.000449
0.001752 0.001136 0.000449
0.001752 0.001136 0.000449
0.001752 0.001136 0.000449
0.001752 0.001136 0.000449
0.001752 0.001136 0.000449
0.001752 0.001136 0.000449
0.001752 0.001136 0.000449
0.001752 0.001136 0.000449
0.001752 0.001136 0.000449
0.001752 0.001136 0.000449
0.001752 0.001136 0.000449
0.001752 0.001136 0.000449
0.001752 0.001136 0.000449
0.001752 0.001136 0.000449
0.001752 0.001136 0.000449
0.001752 0.001136 0.000449
0.002376 0.001927 0.000653
0.009728 0.021254 0.005814
0.023759 0.111700 0.023083
0.033423 0.074089 0.018753
0.189975 0.009502 0.000000
0.335392 0.000000 0.005011
0.350272 0.000000 0.056630
0.372345 0.000000 0.106977
0.398740 0.000000 0.135669
0.421492 0.000000 0.150088
0.438388 0.000000 0.162504
0.451439 0.000000 0.172942
0.461660 0.000000 0.183889
0.468406 0.000000 0.188236
0.473330 0.000000 0.194859
0.476837 0.000000 0.202830
0.478954 0.000000 0.205556
0.480965 0.000000 0.206001
0.482551 0.000000 0.208509
0.484038 0.000000 0.210089
0.486736 0.000000 0.207527
0.490176 0.000000 0.203676
0.494530 0.000000 0.199156
0.502957 0.000000 0.197861
0.516261 0.000000 0.201100
0.537245 0.000000 0.210923
0.569253 0.000000 0.229924
0.613957 0.000000 0.259881
0.675940 0.000000 0.302422
0.746516 0.016408 0.356460
0.802565 0.091652 0.416618
0.853220 0.179492 0.477009
0.892423 0.257581 0.531731
0.920362 0.338821 0.586484
0.942714 0.413808 0.640675
0.960567 0.483498 0.692262
0.972629 0.545614 0.736644
0.980748 0.603222 0.776159
0.001752 0.001136 0.000449
0.001752 0.001136 0.000449
0.001752 0.001136 0.000449
0.001752 0.001136 0.000449
0.001752 0.001136 0.000449
0.001752 0.001136 0.000449
0.001752 0.001136 0.000449
0.001752 0.001136 0.000449
0.001752 0.001136 0.000449
0.001752 0.001136 0.000449
0.001752 0.001136 0.000449
0.001752 0.001136 0.000449
0.001752 0.001136 0.000449
0.001752 0.001136 0.000449
0.001752 0.001136 0.000449
0.001752 0.001136 0.000449
0.001752 0.001136 0.000449
0.001752 0.001136 0.000449
0.001752 0.001136 0.000449
0.001752 0.001136 0.000449
0.001752 0.001136 0.000449
0.001752 0.001136 0.000449
0.001752 0.001136 0.000449
0.001752 0.001136 0.000449
0.001752 0.001136 0.000449
0.001752 0.001136 0.000449
0.001752 0.001136 0.000449
0.003454 0.003772 0.001336
0.013750 0.039654 0.009631
0.028202 0.168207 0.033633
0.056954 0.017297 0.001768
0.274164 0.012524 0.000000
0.331211 0.000000 0.019954
0.351842 0.000000 0.069698
0.375965 0.000000 0.111472
0.402440 0.000000 0.135983
0.424124 0.000000 0.148179
0.440060 0.000000 0.159393
0.452940 0.000000 0.170678
0.462508 0.000000 0.179596
0.469058 0.000000 0.183665
0.473822 0.000000 0.191409
0.477099 0.000000 0.197523
0.479248 0.000000 0.199120
0.481262 0.000000 0.199798
0.482714 0.000000 0.203027
0.484373 0.000000 0.202720
0.487334 0.000000 0.199285
0.490941 0.000000 0.195047
0.495773 0.000000 0.190876
0.505062 0.000000 0.190918
0.519113 0.000000 0.195179
0.541627 0.000000 0.206524
0.575538 0.000000 0.227254
0.622309 0.000000 0.258916
0.685458 0.000000 0.302266
0.753838 0.023573 0.356854
0.808719 0.101492 0.416950
0.857607 0.186922 0.476727
0.895797 0.264293 0.531337
0.922420 0.344793 0.586043
0.944295 0.418802 0.640280
0.961701 0.487465 0.692075
0.973406 0.548705 0.736415
0.981206 0.605739 0.775882
0.001752 0.001136 0.000449
0.001752 0.001136 0.000449
0.001752 0.001136 0.000449
0.001752 0.001136 0.000449
0.001752 0.001136 0.000449
0.001752 0.001136 0.000449
0.001752 0.001136 0.000449
0.001752 0.001136 0.000449
0.001752 0.001136 0.000449
0.001752 0.001136 0.000449
0.001752 0.001136 0.000449
0.001752 0.001136 0.000449
0.001752 0.001136 0.000449
0.001752 0.001136 0.000449
0.001752 0.001136 0.000449
0.001752 0.001136 0.000449
0.001752 0.001136 0.000449
0.001752 0.001136 0.000449
0.001752 0.001136 0.000449
0.001752 0.001136 0.000449
0.001752 0.001136 0.000449
0.001752 0.001136 0.000449
0.001752 0.001136 0.000449
0.001752 0.001136 0.000449
0.001752 0.001136 0.000449
0.001752 0.001136 0.000449
0.001838 0.001230 0.000471
0.005297 0.007548 0.002568
0.017319 0.060126 0.013732
0.028298 0.130955 0.027114
0.113788 0.008055 0.000000
0.319847 0.009815 0.000000
0.329128 0.000000 0.031727
0.352168 0.000000 0.081806
0.379290 0.000000 0.114879
0.406331 0.000000 0.133872
0.426198 0.000000 0.146361
0.441680 0.000000 0.156812
0.454282 0.000000 0.168378
0.463068 0.000000 0.174560
0.469702 0.000000 0.179883
0.474221 0.000000 0.188072
0.477338 0.000000 0.192174
0.479533 0.000000 0.192960
0.481463 0.000000 0.194656
0.482888 0.000000 0.197343
0.484748 0.000000 0.195471
0.487881 0.000000 0.191720
0.491640 0.000000 0.187114
0.497025 0.000000 0.183677
0.507110 0.000000 0.184784
0.522167 0.000000 0.190165
0.546088 0.000000 0.202922
0.581394 0.000000 0.225072
0.629820 0.000000 0.258189
0.694139 0.000001 0.302224
0.760275 0.030394 0.357235
0.813987 0.109976 0.417163
0.861449 0.193510 0.476314
0.898383 0.270641 0.531016
0.924217 0.350049 0.585680
0.945653 0.423128 0.639929
0.962647 0.490775 0.691826
0.974079 0.551421 0.736216
0.981604 0.607950 0.775637
0.001752 0.001136 0.000449
0.001752 0.001136 0.000449
0.001752 0.001136 0.000449
0.001752 0.001136 0.000449
0.001752 0.001136 0.000449
0.001752 0.001136 0.000449
0.001752 0.001136 0.000449
0.001752 0.001136 0.000449
0.001752 0.001136 0.000449
0.001752 0.001136 0.000449
0.001752 0.001136 0.000449
0.001752 0.001136 0.000449
0.001752 0.001136 0.000449
0.001752 0.001136 0.000449
0.001752 0.001136 0.000449
0.001752 0.001136 0.000449
0.001752 0.001136 0.000449
0.001752 0.001136 0.000449
0.001752 0.001136 0.000449
0.001752 0.001136 0.000449
0.001752 0.001136 0.000449
0.001752 0.001136 0.000449
0.001752 0.001136 0.000449
0.001752 0.001136 0.000449
0.001752 0.001136 0.000449
0.001752 0.001136 0.000449
0.002228 0.001713 0.000589
0.007669 0.013997 0.004203
0.020655 0.084654 0.018173
0.025234 0.049185 0.013121
0.173158 0.008594 0.000000
0.314529 0.000000 0.002437
0.331180 0.000000 0.043597
0.354494 0.000000 0.088193
0.382447 0.000000 0.117166
0.409589 0.000000 0.131605
0.427997 0.000000 0.144043
0.443275 0.000000 0.154880
0.455405 0.000000 0.165772
0.463675 0.000000 0.169985
0.470277 0.000000 0.176607
0.474545 0.000000 0.184230
0.477598 0.000000 0.186931
0.479805 0.000000 0.187272
0.481621 0.000000 0.189991
0.483073 0.000000 0.191360
0.485105 0.000000 0.188442
0.488404 0.000000 0.184490
0.492378 0.000000 0.179808
0.498419 0.000000 0.177260
0.509051 0.000000 0.179202
0.524968 0.000000 0.185598
0.550160 0.000000 0.199697
0.586930 0.000000 0.223343
0.637039 0.000000 0.257761
0.702175 0.000000 0.302246
0.765917 0.036768 0.357493
0.818706 0.117632 0.417331
0.864889 0.199487 0.475820
0.900686 0.276396 0.530754
0.925805 0.354728 0.585354
0.946824 0.426886 0.639585
0.963500 0.493765 0.691507
0.974681 0.553871 0.736038
0.981956 0.609944 0.775416
0.001752 0.001136 0.000449
0.001752 0.001136 0.000449
0.001752 0.001136 0.000449
0.001752 0.001136 0.000449
0.001752 0.001136 0.000449
0.001752 0.001136 0.000449
0.001752 0.001136 0.000449
0.001752 0.001136 0.000449
0.001752 0.001136 0.000449
0.001752 0.001136 0.000449
0.001752 0.001136 0.000449
0.001752 0.001136 0.000449
0.001752 0.001136 0.000449
0.001752 0.001136 0.000449
0.001752 0.001136 0.000449
0.001752 0.001136 0.000449
0.001752 0.001136 0.000449
0.001752 0.001136 0.000449
0.001752 0.001136 0.000449
0.001752 0.001136 0.000449
0.001752 0.001136 0.000449
0.001752 0.001136 0.000449
0.001752 0.001136 0.000449
0.001752 0.001136 0.000449
0.001752 0.001136 0.000449
0.001752 0.001136 0.000449
0.002850 0.002700 0.000926
0.010295 0.023523 0.006296
0.025802 0.133064 0.027041
0.036551 0.014515 0.001464
0.241425 0.011062 0.000000
0.310288 0.000000 0.012043
0.332636 0.000000 0.053150
0.357650 0.000000 0.091798
0.386065 0.000000 0.117460
0.412000 0.000000 0.129961
0.429539 0.000000 0.141411
0.444812 0.000000 0.152999
0.456197 0.000000 0.162204
0.464392 0.000000 0.166245
0.470758 0.000000 0.173840
0.474800 0.000000 0.179934
0.477849 0.000000 0.181667
0.480031 0.000000 0.182216
0.481754 0.000000 0.185453
0.483269 0.000000 0.185242
0.485490 0.000000 0.181750
0.488900 0.000000 0.177492
0.493098 0.000000 0.172906
0.499846 0.000000 0.171320
0.511056 0.000000 0.173979
0.527989 0.000000 0.181597
0.554277 0.000000 0.196868
0.592112 0.000000 0.221891
0.643921 0.000000 0.257394
0.709670 0.000000 0.302224
0.770849 0.042663 0.357587
0.823018 0.124678 0.417466
0.868018 0.204993 0.475324
0.902764 0.281678 0.530533
0.927185 0.358814 0.585011
0.947895 0.430343 0.639285
0.964277 0.496512 0.691223
0.975227 0.556121 0.735876
0.982275 0.611772 0.775212
0.001752 0.001136 0.000449
0.001752 0.001136 0.000449
0.001752 0.001136 0.000449
0.001752 0.001136 0.000449
0.001752 0.001136 0.000449
0.001752 0.001136 0.000449
0.001752 0.001136 0.000449
0.001752 0.001136 0.000449
0.001752 0.001136 0.000449
0.001752 0.001136 0.000449
0.001752 0.001136 0.000449
0.001752 0.001136 0.000449
0.001752 0.001136 0.000449
0.001752 0.001136 0.000449
0.001752 0.001136 0.000449
0.001752 0.001136 0.000449
0.001752 0.001136 0.000449
0.001752 0.001136 0.000449
0.001752 0.001136 0.000449
0.001752 0.001136 0.000449
0.001752 0.001136 0.000449
0.001752 0.001136 0.000449
0.001752 0.001136 0.000449
0.001752 0.001136 0.000449
0.001752 0.001136 0.000449
0.001772 0.001158 0.000454
0.003828 0.004472 0.001592
0.013054 0.036122 0.008906
0.025501 0.119454 0.024668
0.078976 0.006911 0.000000
0.298824 0.012007 0.000000
0.308494 0.000000 0.020101
0.332720 0.000000 0.062773
0.360559 0.000000 0.094857
0.390197 0.000000 0.115789
0.414079 0.000000 0.128372
0.431066 0.000000 0.138985
0.446259 0.000000 0.150912
0.456786 0.000000 0.157764
0.465139 0.000000 0.162921
0.471194 0.000000 0.171026
0.475041 0.000000 0.175458
0.478090 0.000000 0.176434
0.480208 0.000000 0.177795
0.481890 0.000000 0.180706
0.483471 0.000000 0.179069
0.485850 0.000000 0.175326
0.489399 0.000000 0.170651
0.493908 0.000000 0.166369
0.501368 0.000000 0.165800
0.512985 0.000000 0.169083
0.530851 0.000000 0.177840
0.558348 0.000000 0.194477
0.597283 0.000000 0.220618
0.650416 0.000000 0.257067
0.716902 0.000000 0.302236
0.775423 0.048415 0.357632
0.827010 0.131262 0.417577
0.870903 0.210129 0.474833
0.904574 0.286333 0.530269
0.928459 0.362613 0.584708
0.948882 0.433567 0.639024
0.964993 0.499065 0.690964
0.975730 0.558210 0.735727
0.982566 0.613472 0.775022
0.001752 0.001136 0.000449
0.001752 0.001136 0.000449
0.001752 0.001136 0.000449
0.001752 0.001136 0.000449
0.001752 0.001136 0.000449
0.001752 0.001136 0.000449
0.001752 0.001136 0.000449
0.001752 0.001136 0.000449
0.001752 0.001136 0.000449
0.001752 0.001136 0.000449
0.001752 0.001136 0.000449
0.001752 0.001136 0.000449
0.001752 0.001136 0.000449
0.001752 0.001136 0.000449
0.001752 0.001136 0.000449
0.001752 0.001136 0.000449
0.001752 0.001136 0.000449
0.001752 0.001136 0.000449
0.001752 0.001136 0.000449
0.001752 0.001136 0.000449
0.001752 0.001136 0.000449
0.001752 0.001136 0.000449
0.001752 0.001136 0.000449
0.001752 0.001136 0.000449
0.001752 0.001136 0.000449
0.001961 0.001370 0.000502
0.005246 0.007429 0.002534
0.015662 0.050095 0.011752
0.020847 0.054053 0.013357
0.130106 0.007127 0.000000
0.291682 0.003561 0.000000
0.309608 0.000000 0.028464
0.334438 0.000000 0.068897
0.363405 0.000000 0.097309
0.393835 0.000000 0.113436
0.415954 0.000000 0.126393
0.432752 0.000000 0.137093
0.447444 0.000000 0.148624
0.457393 0.000000 0.153430
0.465792 0.000000 0.159808
0.471564 0.000000 0.167792
0.475298 0.000000 0.170847
0.478324 0.000000 0.171331
0.480349 0.000000 0.173696
0.482039 0.000000 0.175634
0.483677 0.000000 0.172889
0.486230 0.000000 0.168928
0.489912 0.000000 0.163901
0.494742 0.000000 0.160227
0.502877 0.000000 0.160375
0.514971 0.000000 0.164500
0.533725 0.000000 0.174382
0.562228 0.000000 0.192214
0.602311 0.000000 0.219571
0.656590 0.000000 0.256780
0.723848 0.000001 0.302248
0.779704 0.054062 0.357657
0.830731 0.137455 0.417655
0.873477 0.214758 0.474317
0.906253 0.290714 0.530014
0.929649 0.366180 0.584437
0.949802 0.436593 0.638790
0.965660 0.501460 0.690727
0.976197 0.560168 0.735588
0.982838 0.615067 0.774846
0.001752 0.001136 0.000449
0.001752 0.001136 0.000449
0.001752 0.001136 0.000449
0.001752 0.001136 0.000449
0.001752 0.001136 0.000449
0.001752 0.001136 0.000449
0.001752 0.001136 0.000449
0.001752 0.001136 0.000449
0.001752 0.001136 0.000449
0.001752 0.001136 0.000449
0.001752 0.001136 0.000449
0.001752 0.001136 0.000449
0.001752 0.001136 0.000449
0.001752 0.001136 0.000449
0.001752 0.001136 0.000449
0.001752 0.001136 0.000449
0.001752 0.001136 0.000449
0.001752 0.001136 0.000449
0.001752 0.001136 0.000449
0.001752 0.001136 0.000449
0.001752 0.001136 0.000449
0.001752 0.001136 0.000449
0.001752 0.001136 0.000449
0.001752 0.001136 0.000449
0.001752 0.001136 0.000449
0.002325 0.001852 0.000629
0.006963 0.011865 0.003696
0.020381 0.082486 0.017778
0.018600 0.017392 0.003278
0.184826 0.008737 0.000000
0.288813 0.000000 0.003419
0.311330 0.000000 0.036191
0.337292 0.000000 0.072231
0.366633 0.000000 0.098341
0.396827 0.000000 0.111842
0.417467 0.000000 0.124008
0.434472 0.000000 0.135391
0.448429 0.000000 0.145678
0.458146 0.000000 0.149633
0.466416 0.000000 0.157103
0.471852 0.000000 0.164039
0.475580 0.000000 0.166185
0.478547 0.000000 0.166572
0.480469 0.000000 0.169609
0.482186 0.000000 0.170158
0.483900 0.000000 0.166771
0.486583 0.000000 0.162368
0.490426 0.000000 0.157316
0.495686 0.000000 0.154365
0.504443 0.000000 0.155323
0.516974 0.000000 0.160207
0.536646 0.000000 0.171284
0.566200 0.000000 0.190304
0.607116 0.000000 0.218650
0.662522 0.000000 0.256530
0.730214 0.000724 0.302309
0.783730 0.059630 0.357665
0.834066 0.143039 0.417577
0.875879 0.219127 0.473847
0.907825 0.294864 0.529712
0.930765 0.369549 0.584195
0.950666 0.439456 0.638578
0.966285 0.503721 0.690507
0.976634 0.562018 0.735457
0.983090 0.616575 0.774679
0.001752 0.001136 0.000449
0.001752 0.001136 0.000449
0.001752 0.001136 0.000449
0.001752 0.001136 0.000449
0.001752 0.001136 0.000449
0.001752 0.001136 0.000449
0.001752 0.001136 0.000449
0.001752 0.001136 0.000449
0.001752 0.001136 0.000449
0.001752 0.001136 0.000449
0.001752 0.001136 0.000449
0.001752 0.001136 0.000449
0.001752 0.001136 0.000449
0.001752 0.001136 0.000449
0.001752 0.001136 0.000449
0.001752 0.001136 0.000449
0.001752 0.001136 0.000449
0.001752 0.001136 0.000449
0.001752 0.001136 0.000449
0.001752 0.001136 0.000449
0.001752 0.001136 0.000449
0.001752 0.001136 0.000449
0.001752 0.001136 0.000449
0.001752 0.001136 0.000449
0.001748 0.001133 0.000448
0.002821 0.002650 0.000907
0.008933 0.018271 0.005165
0.023391 0.107287 0.022274
0.039418 0.007176 0.000717
0.259580 0.011791 0.000000
0.288294 0.000000 0.010513
0.311839 0.000000 0.043898
0.340295 0.000000 0.074867
0.370413 0.000000 0.097525
0.399449 0.000000 0.110373
0.418953 0.000000 0.121577
0.436049 0.000000 0.133517
0.449157 0.000000 0.141711
0.458959 0.000000 0.146290
0.467020 0.000000 0.154553
0.472096 0.000000 0.159838
0.475881 0.000000 0.161235
0.478746 0.000000 0.162161
0.480586 0.000000 0.165388
0.482327 0.000000 0.164466
0.484116 0.000000 0.160554
0.486951 0.000000 0.155784
0.490994 0.000000 0.150923
0.496663 0.000000 0.148695
0.505951 0.000000 0.150410
0.518909 0.000000 0.156147
0.539426 0.000000 0.168297
0.570151 0.000000 0.188666
0.611777 0.000000 0.217847
0.668227 0.000000 0.256295
0.734976 0.004566 0.302587
0.787540 0.065135 0.357653
0.837076 0.148115 0.417292
0.878146 0.223295 0.473418
0.909299 0.298817 0.529444
0.931823 0.372766 0.583986
0.951482 0.442176 0.638382
0.966875 0.505871 0.690300
0.977045 0.563774 0.735333
0.983326 0.618005 0.774519
0.001752 0.001136 0.000449
0.001752 0.001136 0.000449
0.001752 0.001136 0.000449
0.001752 0.001136 0.000449
0.001752 0.001136 0.000449
0.001752 0.001136 0.000449
0.001752 0.001136 0.000449
0.001752 0.001136 0.000449
0.001752 0.001136 0.000449
0.001752 0.001136 0.000449
0.001752 0.001136 0.000449
0.001752 0.001136 0.000449
0.001752 0.001136 0.000449
0.001752 0.001136 0.000449
0.001752 0.001136 0.000449
0.001752 0.001136 0.000449
0.001752 0.001136 0.000449
0.001752 0.001136 0.000449
0.001752 0.001136 0.000449
0.001752 0.001136 0.000449
0.001752 0.001136 0.000449
0.001752 0.001136 0.000449
0.001752 0.001136 0.000449
0.001752 0.001136 0.000449
0.001798 0.001186 0.000460
0.003556 0.003961 0.001406
0.011002 0.026519 0.006924
0.019626 0.066962 0.015257
0.079311 0.005708 0.000000
0.274882 0.009246 0.000000
0.287026 0.000000 0.015936
0.312329 0.000000 0.050927
0.343204 0.000000 0.077310
0.374406 0.000000 0.095345
0.401568 0.000000 0.108643
0.420616 0.000000 0.119431
0.437507 0.000000 0.131480
