luts/film/super8_kodachrome64.cube
TITLE "spektrafilm kodak_kodachrome_64 kodak_2383 {"io.scan_film": true, "post:camera.exposure_compensation_ev": 0.2, "post:scanner.black_correction": true, "post:scanner.white_correction": true} trim chroma=1.2 contrast=1.15 pivot=0.55 cast=0.0,-0.018 red_rot=8.0 blue_sat=1.8 sky_rot=35.0 green_sat=0.7 display=apple"
# spektrafilm by Andrea Volpato / https://github.com/andreavolpato/spektrafilm / CC BY-SA 4.0
# ============================================================================
# spektrafilm LUT
# Bundle:  spektrafilm_v034_kodachrome64_2383_1lut_applelog_rec709  (1lut, 65^3)
# Film:    kodak_kodachrome_64
# Print:   kodak_2383
# Input:   Apple Log  (cctf on)
# Output:  Rec.709  (cctf on)
# Created: 2026-09-16T16:08:08Z
# spektrafilm: 0.3.4
# Project: https://github.com/andreavolpato/spektrafilm
#
# Copyright (c) 2026 Andrea Volpato. Generated by spektrafilm. Licensed under CC BY-SA 4.0.
#
# License: spektrafilm LUT by Andrea Volpato, licensed under CC BY-SA 4.0.
#          Full text and attribution requirements in SPEKTRAFILM_LICENSE.txt
#          (shipped in this bundle); also at
#          https://github.com/andreavolpato/spektrafilm/blob/main/SPEKTRAFILM_LICENSE.txt.
#
# Citation: If you use this LUT in your work, please cite the spektrafilm
#           project: https://github.com/andreavolpato/spektrafilm, see
#           CITATION.cff for details.
#
# Notes: Generated by the spektrafilm LUT bundle builder. Apply with trilinear
#        or tetrahedral interpolation in your host (DaVinci Resolve, Nuke,
#        OCIO-aware DCC). The input and output color spaces are declared in
#        bundle.json; do NOT apply this LUT to a signal in a different color
#        space.
#
# File: lut_v034_kodachrome64_2383.cube  (see sibling bundle.json for full metadata)
# ============================================================================
DOMAIN_MIN 0 0 0
DOMAIN_MAX 1 1 1
LUT_3D_SIZE 5
0.001752 0.001136 0.000449
0.001752 0.001136 0.000449
0.054662 0.135718 0.032352
0.486514 0.000000 0.243706
0.977437 0.586091 0.777811
0.001752 0.001136 0.000449
0.001752 0.001136 0.000449
0.360085 0.000000 0.074769
0.503409 0.000000 0.120144
0.984506 0.625087 0.773703
0.029236 0.215327 0.042615
0.060390 0.394398 0.103345
0.541982 0.306521 0.006260
0.828330 0.194275 0.024090
0.991454 0.701818 0.759776
0.428928 0.766484 0.317789
0.459955 0.776496 0.328096
0.552063 0.804349 0.356644
0.952879 0.870292 0.274377
0.937718 0.882141 0.734772
0.837945 0.916627 0.687499
0.839752 0.916534 0.687776
0.844048 0.916316 0.690071
0.876532 0.914299 0.699858
0.903377 0.908830 0.823381
0.001752 0.001136 0.000449
0.001752 0.001136 0.000449
0.372612 0.000000 0.110542
0.509277 0.000000 0.134969
0.986825 0.640199 0.771264
0.001752 0.001136 0.000449
0.010564 0.007602 0.005984
0.385754 0.006135 0.000000
0.612091 0.000000 0.063967
0.990386 0.672822 0.765452
0.031681 0.400646 0.122285
0.066430 0.492842 0.165144
0.515912 0.476769 0.112231
0.907726 0.358312 0.125233
0.989069 0.737658 0.753223
0.392329 0.797167 0.336493
0.428188 0.807128 0.348465
0.533465 0.832319 0.382628
0.945352 0.878624 0.331661
0.935201 0.884269 0.741154
0.836495 0.916810 0.710260
0.838331 0.916693 0.710488
0.842652 0.916421 0.712176
0.874850 0.914212 0.721684
0.902459 0.908689 0.830233
0.002670 0.000000 0.109052
0.005684 0.000000 0.132489
0.400023 0.000000 0.264228
0.516312 0.000000 0.331616
0.977705 0.620265 0.835011
0.003541 0.000000 0.231201
0.004493 0.000000 0.355951
0.353595 0.000000 0.245643
0.586250 0.000000 0.366250
0.982035 0.653447 0.833577
0.000000 0.440823 0.545114
0.000001 0.496201 0.547084
0.474478 0.485446 0.525913
0.905636 0.298309 0.484569
0.986093 0.719889 0.822244
0.155448 0.880757 0.571518
0.222817 0.891244 0.573189
0.407473 0.908628 0.573926
0.924048 0.892029 0.539866
0.930916 0.882789 0.783471
0.833478 0.917145 0.757328
0.835392 0.916953 0.758125
0.839806 0.916516 0.759758
0.871614 0.913594 0.770983
0.900492 0.908328 0.845344
0.110313 0.267546 0.873430
0.097814 0.255058 0.902196
0.378192 0.249204 0.732963
0.820293 0.158942 0.710102
0.974988 0.650755 0.920231
0.158163 0.357192 0.898082
0.163194 0.353650 0.933410
0.349218 0.384625 0.917387
0.885787 0.288483 0.785147
0.975794 0.671692 0.924277
0.176648 0.532976 0.931280
0.203994 0.547196 0.968716
0.438512 0.597625 1.000000
0.955191 0.551077 0.884910
0.974426 0.720094 0.930694
0.304055 0.897688 1.000000
0.339234 0.905918 1.000000
0.418263 0.922421 1.000000
0.885501 0.892191 0.904509
0.917733 0.876878 0.906254
0.806279 0.924888 0.894634
0.808937 0.924441 0.894349
0.815757 0.923282 0.893550
0.858305 0.915363 0.888122
0.894840 0.907115 0.891091
0.501221 0.881131 1.000000
0.518722 0.883770 1.000000
0.567341 0.889657 1.000000
0.880030 0.879187 0.927013
0.921034 0.870207 0.917841
0.504262 0.884675 1.000000
0.521241 0.887249 1.000000
0.569011 0.893104 1.000000
0.876340 0.882101 0.930550
0.919278 0.872653 0.917017
0.510978 0.892653 1.000000
0.526561 0.895082 1.000000
0.571882 0.900722 1.000000
0.864210 0.888850 0.942031
0.915362 0.877956 0.915147
0.551891 0.933039 1.000000
0.561219 0.934538 1.000000
0.592993 0.936327 0.996767
0.853324 0.908805 0.923611
0.895492 0.900286 0.910183
0.848039 0.916024 0.913036
0.849611 0.915759 0.912527
0.853268 0.915134 0.911349
0.874049 0.911397 0.905002
0.890603 0.908123 0.901731
